( This gcode generated by /Applications/EAGLE-7.5.0/ulp/pcb-gcode.ulp )
( Copyright 2005 by John Johnson. See readme.txt for licensing terms. )

( This file generated from the board /Users/ekwan333/Documents/eagle/MouseSensor3/MouseSensor3.brd )
( This file generated 4/28/16 5:38 PM )

G20

G90
G00 Z0.5000 
G00 X0 Y0
M03
G04 P3.000000
G00 Z0.0300 
G00 X2.1224 Y1.9283 
G01 Z-0.0050 F10.00 
G01 X2.1300 Y1.9099 
G01 X2.1300 Y1.8901 
G01 X2.1224 Y1.8717 
G01 X2.1088 Y1.8581 
G01 X2.1088 Y1.8581 
G01 X2.1071 Y1.8563 
G01 X2.1069 Y1.8562 
G01 X2.1069 Y1.8561 
G01 X2.1056 Y1.8539 
G01 X2.1049 Y1.8514 
G01 X2.1049 Y1.8513 
G01 X2.1049 Y1.8487 
G01 X2.1056 Y1.8462 
G01 X2.1056 Y1.8461 
G01 X2.1056 Y1.8461 
G01 X2.1069 Y1.8438 
G01 X2.1088 Y1.8419 
G01 X2.1088 Y1.8419 
G01 X2.1224 Y1.8283 
G01 X2.1300 Y1.8099 
G01 X2.1300 Y1.7901 
G01 X2.1224 Y1.7717 
G01 X2.1088 Y1.7581 
G01 X2.1088 Y1.7581 
G01 X2.1071 Y1.7563 
G01 X2.1069 Y1.7562 
G01 X2.1069 Y1.7561 
G01 X2.1056 Y1.7539 
G01 X2.1049 Y1.7514 
G01 X2.1049 Y1.7513 
G01 X2.1049 Y1.7487 
G01 X2.1056 Y1.7462 
G01 X2.1056 Y1.7461 
G01 X2.1056 Y1.7461 
G01 X2.1069 Y1.7438 
G01 X2.1088 Y1.7419 
G01 X2.1088 Y1.7419 
G01 X2.1088 Y1.7419 
G01 X2.1224 Y1.7283 
G01 X2.1300 Y1.7099 
G01 X2.1300 Y1.6901 
G01 X2.1224 Y1.6717 
G01 X2.1088 Y1.6581 
G01 X2.1088 Y1.6581 
G01 X2.1071 Y1.6563 
G01 X2.1069 Y1.6562 
G01 X2.1069 Y1.6561 
G01 X2.1056 Y1.6539 
G01 X2.1049 Y1.6514 
G01 X2.1049 Y1.6513 
G01 X2.1049 Y1.6487 
G01 X2.1056 Y1.6462 
G01 X2.1056 Y1.6461 
G01 X2.1056 Y1.6461 
G01 X2.1069 Y1.6438 
G01 X2.1088 Y1.6419 
G01 X2.1088 Y1.6419 
G01 X2.1224 Y1.6283 
G01 X2.1300 Y1.6099 
G01 X2.1300 Y1.5901 
G01 X2.1224 Y1.5717 
G01 X2.1088 Y1.5581 
G01 X2.1088 Y1.5581 
G01 X2.1071 Y1.5563 
G01 X2.1069 Y1.5562 
G01 X2.1069 Y1.5561 
G01 X2.1056 Y1.5539 
G01 X2.1049 Y1.5514 
G01 X2.1049 Y1.5513 
G01 X2.1049 Y1.5487 
G01 X2.1056 Y1.5462 
G01 X2.1056 Y1.5461 
G01 X2.1056 Y1.5461 
G01 X2.1069 Y1.5438 
G01 X2.1088 Y1.5419 
G01 X2.1088 Y1.5419 
G01 X2.1224 Y1.5283 
G01 X2.1300 Y1.5099 
G01 X2.1300 Y1.4901 
G01 X2.1224 Y1.4717 
G01 X2.1088 Y1.4581 
G01 X2.1088 Y1.4581 
G01 X2.1071 Y1.4563 
G01 X2.1069 Y1.4562 
G01 X2.1069 Y1.4561 
G01 X2.1056 Y1.4539 
G01 X2.1049 Y1.4514 
G01 X2.1049 Y1.4513 
G01 X2.1049 Y1.4487 
G01 X2.1056 Y1.4462 
G01 X2.1056 Y1.4461 
G01 X2.1056 Y1.4461 
G01 X2.1069 Y1.4438 
G01 X2.1088 Y1.4419 
G01 X2.1088 Y1.4419 
G01 X2.1224 Y1.4283 
G01 X2.1300 Y1.4099 
G01 X2.1300 Y1.3901 
G01 X2.1224 Y1.3717 
G01 X2.1083 Y1.3576 
G01 X2.0899 Y1.3500 
G01 X2.0101 Y1.3500 
G01 X1.9917 Y1.3576 
G01 X1.9776 Y1.3717 
G01 X1.9700 Y1.3901 
G01 X1.9700 Y1.4099 
G01 X1.9776 Y1.4283 
G01 X1.9931 Y1.4438 
G01 X1.9944 Y1.4461 
G01 X1.9951 Y1.4487 
G01 X1.9951 Y1.4513 
G01 X1.9944 Y1.4539 
G01 X1.9931 Y1.4562 
G01 X1.9912 Y1.4581 
G01 X1.9912 Y1.4581 
G01 X1.9776 Y1.4717 
G01 X1.9700 Y1.4901 
G01 X1.9700 Y1.5099 
G01 X1.9776 Y1.5283 
G01 X1.9931 Y1.5438 
G01 X1.9944 Y1.5461 
G01 X1.9951 Y1.5487 
G01 X1.9951 Y1.5513 
G01 X1.9944 Y1.5539 
G01 X1.9931 Y1.5562 
G01 X1.9912 Y1.5581 
G01 X1.9912 Y1.5581 
G01 X1.9776 Y1.5717 
G01 X1.9700 Y1.5901 
G01 X1.9700 Y1.6099 
G01 X1.9776 Y1.6283 
G01 X1.9912 Y1.6419 
G01 X1.9912 Y1.6419 
G01 X1.9922 Y1.6429 
G01 X1.9931 Y1.6438 
G01 X1.9934 Y1.6443 
G01 X1.9944 Y1.6461 
G01 X1.9951 Y1.6487 
G01 X1.9951 Y1.6513 
G01 X1.9947 Y1.6527 
G01 X1.9944 Y1.6539 
G01 X1.9944 Y1.6539 
G01 X1.9931 Y1.6562 
G01 X1.9776 Y1.6717 
G01 X1.9700 Y1.6901 
G01 X1.9700 Y1.7099 
G01 X1.9776 Y1.7283 
G01 X1.9931 Y1.7438 
G01 X1.9944 Y1.7461 
G01 X1.9951 Y1.7487 
G01 X1.9951 Y1.7513 
G01 X1.9944 Y1.7539 
G01 X1.9931 Y1.7562 
G01 X1.9912 Y1.7581 
G01 X1.9912 Y1.7581 
G01 X1.9776 Y1.7717 
G01 X1.9700 Y1.7901 
G01 X1.9700 Y1.8099 
G01 X1.9776 Y1.8283 
G01 X1.9931 Y1.8438 
G01 X1.9944 Y1.8461 
G01 X1.9951 Y1.8487 
G01 X1.9951 Y1.8513 
G01 X1.9944 Y1.8539 
G01 X1.9931 Y1.8562 
G01 X1.9912 Y1.8581 
G01 X1.9912 Y1.8581 
G01 X1.9776 Y1.8717 
G01 X1.9700 Y1.8901 
G01 X1.9700 Y1.9099 
G01 X1.9776 Y1.9283 
G01 X1.9917 Y1.9424 
G01 X2.0101 Y1.9500 
G01 X2.0899 Y1.9500 
G01 X2.1083 Y1.9424 
G01 X2.1224 Y1.9283 
G00 Z0.0300 
G00 X2.0835 Y1.9351 
G01 Z-0.0050 F10.00 
G01 X2.0165 Y1.9351 
G01 X2.0098 Y1.9338 
G01 X2.0034 Y1.9311 
G01 X1.9976 Y1.9273 
G01 X1.9927 Y1.9224 
G01 X1.9889 Y1.9166 
G01 X1.9862 Y1.9102 
G01 X1.9849 Y1.9035 
G01 X1.9849 Y1.8965 
G01 X1.9862 Y1.8898 
G01 X1.9889 Y1.8834 
G01 X1.9927 Y1.8776 
G01 X1.9976 Y1.8727 
G01 X2.0034 Y1.8689 
G01 X2.0098 Y1.8662 
G01 X2.0165 Y1.8649 
G01 X2.0835 Y1.8649 
G01 X2.0902 Y1.8662 
G01 X2.0966 Y1.8689 
G01 X2.1024 Y1.8727 
G01 X2.1073 Y1.8776 
G01 X2.1111 Y1.8834 
G01 X2.1138 Y1.8898 
G01 X2.1151 Y1.8965 
G01 X2.1151 Y1.9035 
G01 X2.1138 Y1.9102 
G01 X2.1111 Y1.9166 
G01 X2.1073 Y1.9224 
G01 X2.1024 Y1.9273 
G01 X2.0966 Y1.9311 
G01 X2.0902 Y1.9338 
G01 X2.0835 Y1.9351 
G00 Z0.0300 
G00 X2.0835 Y1.8351 
G01 Z-0.0050 F10.00 
G01 X2.0165 Y1.8351 
G01 X2.0098 Y1.8338 
G01 X2.0034 Y1.8311 
G01 X1.9976 Y1.8273 
G01 X1.9927 Y1.8224 
G01 X1.9889 Y1.8166 
G01 X1.9862 Y1.8102 
G01 X1.9849 Y1.8035 
G01 X1.9849 Y1.7965 
G01 X1.9862 Y1.7898 
G01 X1.9889 Y1.7834 
G01 X1.9927 Y1.7776 
G01 X1.9976 Y1.7727 
G01 X2.0034 Y1.7689 
G01 X2.0098 Y1.7662 
G01 X2.0165 Y1.7649 
G01 X2.0835 Y1.7649 
G01 X2.0902 Y1.7662 
G01 X2.0966 Y1.7689 
G01 X2.1024 Y1.7727 
G01 X2.1073 Y1.7776 
G01 X2.1111 Y1.7834 
G01 X2.1138 Y1.7898 
G01 X2.1151 Y1.7965 
G01 X2.1151 Y1.8035 
G01 X2.1138 Y1.8102 
G01 X2.1111 Y1.8166 
G01 X2.1073 Y1.8224 
G01 X2.1024 Y1.8273 
G01 X2.0966 Y1.8311 
G01 X2.0902 Y1.8338 
G01 X2.0835 Y1.8351 
G00 Z0.0300 
G00 X2.0835 Y1.7351 
G01 Z-0.0050 F10.00 
G01 X2.0165 Y1.7351 
G01 X2.0098 Y1.7338 
G01 X2.0034 Y1.7311 
G01 X1.9976 Y1.7273 
G01 X1.9927 Y1.7224 
G01 X1.9889 Y1.7166 
G01 X1.9862 Y1.7102 
G01 X1.9849 Y1.7035 
G01 X1.9849 Y1.6965 
G01 X1.9862 Y1.6898 
G01 X1.9889 Y1.6834 
G01 X1.9927 Y1.6776 
G01 X1.9976 Y1.6727 
G01 X2.0034 Y1.6689 
G01 X2.0098 Y1.6662 
G01 X2.0165 Y1.6649 
G01 X2.0835 Y1.6649 
G01 X2.0902 Y1.6662 
G01 X2.0966 Y1.6689 
G01 X2.1024 Y1.6727 
G01 X2.1073 Y1.6776 
G01 X2.1111 Y1.6834 
G01 X2.1138 Y1.6898 
G01 X2.1151 Y1.6965 
G01 X2.1151 Y1.7035 
G01 X2.1138 Y1.7102 
G01 X2.1111 Y1.7166 
G01 X2.1073 Y1.7224 
G01 X2.1024 Y1.7273 
G01 X2.0966 Y1.7311 
G01 X2.0902 Y1.7338 
G01 X2.0835 Y1.7351 
G00 Z0.0300 
G00 X2.0835 Y1.6351 
G01 Z-0.0050 F10.00 
G01 X2.0165 Y1.6351 
G01 X2.0098 Y1.6338 
G01 X2.0034 Y1.6311 
G01 X1.9976 Y1.6273 
G01 X1.9927 Y1.6224 
G01 X1.9889 Y1.6166 
G01 X1.9862 Y1.6102 
G01 X1.9849 Y1.6035 
G01 X1.9849 Y1.5965 
G01 X1.9862 Y1.5898 
G01 X1.9889 Y1.5834 
G01 X1.9927 Y1.5776 
G01 X1.9976 Y1.5727 
G01 X2.0034 Y1.5689 
G01 X2.0098 Y1.5662 
G01 X2.0165 Y1.5649 
G01 X2.0835 Y1.5649 
G01 X2.0902 Y1.5662 
G01 X2.0966 Y1.5689 
G01 X2.1024 Y1.5727 
G01 X2.1073 Y1.5776 
G01 X2.1111 Y1.5834 
G01 X2.1138 Y1.5898 
G01 X2.1151 Y1.5965 
G01 X2.1151 Y1.6035 
G01 X2.1138 Y1.6102 
G01 X2.1111 Y1.6166 
G01 X2.1073 Y1.6224 
G01 X2.1024 Y1.6273 
G01 X2.0966 Y1.6311 
G01 X2.0902 Y1.6338 
G01 X2.0835 Y1.6351 
G00 Z0.0300 
G00 X2.0835 Y1.5351 
G01 Z-0.0050 F10.00 
G01 X2.0165 Y1.5351 
G01 X2.0098 Y1.5338 
G01 X2.0034 Y1.5311 
G01 X1.9976 Y1.5273 
G01 X1.9927 Y1.5224 
G01 X1.9889 Y1.5166 
G01 X1.9862 Y1.5102 
G01 X1.9849 Y1.5035 
G01 X1.9849 Y1.4965 
G01 X1.9862 Y1.4898 
G01 X1.9889 Y1.4834 
G01 X1.9927 Y1.4776 
G01 X1.9976 Y1.4727 
G01 X2.0034 Y1.4689 
G01 X2.0098 Y1.4662 
G01 X2.0165 Y1.4649 
G01 X2.0835 Y1.4649 
G01 X2.0902 Y1.4662 
G01 X2.0966 Y1.4689 
G01 X2.1024 Y1.4727 
G01 X2.1073 Y1.4776 
G01 X2.1111 Y1.4834 
G01 X2.1138 Y1.4898 
G01 X2.1151 Y1.4965 
G01 X2.1151 Y1.5035 
G01 X2.1138 Y1.5102 
G01 X2.1111 Y1.5166 
G01 X2.1073 Y1.5224 
G01 X2.1024 Y1.5273 
G01 X2.0966 Y1.5311 
G01 X2.0902 Y1.5338 
G01 X2.0835 Y1.5351 
G00 Z0.0300 
G00 X2.0835 Y1.4351 
G01 Z-0.0050 F10.00 
G01 X2.0165 Y1.4351 
G01 X2.0098 Y1.4338 
G01 X2.0034 Y1.4311 
G01 X1.9976 Y1.4273 
G01 X1.9927 Y1.4224 
G01 X1.9889 Y1.4166 
G01 X1.9862 Y1.4102 
G01 X1.9849 Y1.4035 
G01 X1.9849 Y1.3965 
G01 X1.9862 Y1.3898 
G01 X1.9889 Y1.3834 
G01 X1.9927 Y1.3776 
G01 X1.9976 Y1.3727 
G01 X2.0034 Y1.3689 
G01 X2.0098 Y1.3662 
G01 X2.0165 Y1.3649 
G01 X2.0835 Y1.3649 
G01 X2.0902 Y1.3662 
G01 X2.0966 Y1.3689 
G01 X2.1024 Y1.3727 
G01 X2.1073 Y1.3776 
G01 X2.1111 Y1.3834 
G01 X2.1138 Y1.3898 
G01 X2.1151 Y1.3965 
G01 X2.1151 Y1.4035 
G01 X2.1138 Y1.4102 
G01 X2.1111 Y1.4166 
G01 X2.1073 Y1.4224 
G01 X2.1024 Y1.4273 
G01 X2.0966 Y1.4311 
G01 X2.0902 Y1.4338 
G01 X2.0835 Y1.4351 
G00 Z0.0300 
G00 X1.0562 Y1.5931 
G01 Z-0.0050 F10.00 
G01 X1.0539 Y1.5944 
G01 X1.0513 Y1.5951 
G01 X1.0487 Y1.5951 
G01 X1.0461 Y1.5944 
G01 X1.0438 Y1.5931 
G01 X1.0419 Y1.5912 
G01 X1.0419 Y1.5912 
G01 X1.0380 Y1.5873 
G01 X1.0374 Y1.5863 
G01 X1.0367 Y1.5850 
G01 X1.0360 Y1.5824 
G01 X1.0360 Y0.5876 
G01 X1.0367 Y0.5850 
G01 X1.0380 Y0.5827 
G01 X1.0399 Y0.5808 
G01 X1.0399 Y0.5808 
G01 X1.0500 Y0.5707 
G01 X1.0500 Y0.5293 
G01 X1.0207 Y0.5000 
G01 X0.9793 Y0.5000 
G01 X0.9673 Y0.5120 
G01 X0.9650 Y0.5133 
G01 X0.9624 Y0.5140 
G01 X0.2176 Y0.5140 
G01 X0.2150 Y0.5133 
G01 X0.2136 Y0.5125 
G01 X0.2127 Y0.5120 
G01 X0.2127 Y0.5120 
G01 X0.2126 Y0.5119 
G01 X0.2088 Y0.5081 
G01 X0.2088 Y0.5081 
G01 X0.2070 Y0.5063 
G01 X0.2069 Y0.5062 
G01 X0.2069 Y0.5062 
G01 X0.2060 Y0.5046 
G01 X0.2056 Y0.5039 
G01 X0.2056 Y0.5039 
G01 X0.2056 Y0.5039 
G01 X0.2052 Y0.5023 
G01 X0.2049 Y0.5013 
G01 X0.2049 Y0.4987 
G01 X0.2056 Y0.4961 
G01 X0.2063 Y0.4948 
G01 X0.2069 Y0.4938 
G01 X0.2088 Y0.4919 
G01 X0.2224 Y0.4783 
G01 X0.2300 Y0.4599 
G01 X0.2300 Y0.4401 
G01 X0.2224 Y0.4217 
G01 X0.2069 Y0.4062 
G01 X0.2056 Y0.4039 
G01 X0.2049 Y0.4013 
G01 X0.2049 Y0.3987 
G01 X0.2056 Y0.3961 
G01 X0.2069 Y0.3938 
G01 X0.2088 Y0.3919 
G01 X0.2088 Y0.3919 
G01 X0.2224 Y0.3783 
G01 X0.2300 Y0.3599 
G01 X0.2300 Y0.3401 
G01 X0.2224 Y0.3217 
G01 X0.2088 Y0.3081 
G01 X0.2088 Y0.3081 
G01 X0.2071 Y0.3063 
G01 X0.2069 Y0.3062 
G01 X0.2069 Y0.3061 
G01 X0.2056 Y0.3039 
G01 X0.2049 Y0.3014 
G01 X0.2049 Y0.3013 
G01 X0.2049 Y0.2987 
G01 X0.2056 Y0.2962 
G01 X0.2056 Y0.2961 
G01 X0.2056 Y0.2961 
G01 X0.2069 Y0.2938 
G01 X0.2088 Y0.2919 
G01 X0.2088 Y0.2919 
G01 X0.2224 Y0.2783 
G01 X0.2300 Y0.2599 
G01 X0.2300 Y0.2401 
G01 X0.2224 Y0.2217 
G01 X0.2088 Y0.2081 
G01 X0.2088 Y0.2081 
G01 X0.2071 Y0.2063 
G01 X0.2069 Y0.2062 
G01 X0.2069 Y0.2061 
G01 X0.2056 Y0.2039 
G01 X0.2049 Y0.2014 
G01 X0.2049 Y0.2013 
G01 X0.2049 Y0.1987 
G01 X0.2056 Y0.1962 
G01 X0.2056 Y0.1961 
G01 X0.2056 Y0.1961 
G01 X0.2069 Y0.1938 
G01 X0.2088 Y0.1919 
G01 X0.2088 Y0.1919 
G01 X0.2224 Y0.1783 
G01 X0.2300 Y0.1599 
G01 X0.2300 Y0.1401 
G01 X0.2224 Y0.1217 
G01 X0.2083 Y0.1076 
G01 X0.1899 Y0.1000 
G01 X0.1101 Y0.1000 
G01 X0.0917 Y0.1076 
G01 X0.0776 Y0.1217 
G01 X0.0700 Y0.1401 
G01 X0.0700 Y0.1599 
G01 X0.0776 Y0.1783 
G01 X0.0931 Y0.1938 
G01 X0.0944 Y0.1961 
G01 X0.0951 Y0.1987 
G01 X0.0951 Y0.2013 
G01 X0.0944 Y0.2039 
G01 X0.0931 Y0.2062 
G01 X0.0912 Y0.2081 
G01 X0.0912 Y0.2081 
G01 X0.0776 Y0.2217 
G01 X0.0700 Y0.2401 
G01 X0.0700 Y0.2599 
G01 X0.0776 Y0.2783 
G01 X0.0931 Y0.2938 
G01 X0.0944 Y0.2961 
G01 X0.0951 Y0.2987 
G01 X0.0951 Y0.3013 
G01 X0.0944 Y0.3039 
G01 X0.0931 Y0.3062 
G01 X0.0912 Y0.3081 
G01 X0.0912 Y0.3081 
G01 X0.0776 Y0.3217 
G01 X0.0700 Y0.3401 
G01 X0.0700 Y0.3599 
G01 X0.0776 Y0.3783 
G01 X0.0912 Y0.3919 
G01 X0.0912 Y0.3919 
G01 X0.0929 Y0.3937 
G01 X0.0931 Y0.3938 
G01 X0.0931 Y0.3939 
G01 X0.0944 Y0.3961 
G01 X0.0951 Y0.3986 
G01 X0.0951 Y0.3987 
G01 X0.0951 Y0.4013 
G01 X0.0944 Y0.4038 
G01 X0.0944 Y0.4039 
G01 X0.0944 Y0.4039 
G01 X0.0931 Y0.4062 
G01 X0.0912 Y0.4081 
G01 X0.0912 Y0.4081 
G01 X0.0776 Y0.4217 
G01 X0.0700 Y0.4401 
G01 X0.0700 Y0.4599 
G01 X0.0776 Y0.4783 
G01 X0.0931 Y0.4938 
G01 X0.0944 Y0.4961 
G01 X0.0951 Y0.4987 
G01 X0.0951 Y0.5013 
G01 X0.0944 Y0.5039 
G01 X0.0931 Y0.5062 
G01 X0.0912 Y0.5081 
G01 X0.0912 Y0.5081 
G01 X0.0776 Y0.5217 
G01 X0.0700 Y0.5401 
G01 X0.0700 Y0.5599 
G01 X0.0776 Y0.5783 
G01 X0.0931 Y0.5938 
G01 X0.0944 Y0.5961 
G01 X0.0951 Y0.5987 
G01 X0.0951 Y0.6013 
G01 X0.0944 Y0.6039 
G01 X0.0931 Y0.6062 
G01 X0.0912 Y0.6081 
G01 X0.0912 Y0.6081 
G01 X0.0776 Y0.6217 
G01 X0.0700 Y0.6401 
G01 X0.0700 Y0.6599 
G01 X0.0776 Y0.6783 
G01 X0.0931 Y0.6938 
G01 X0.0944 Y0.6961 
G01 X0.0951 Y0.6987 
G01 X0.0951 Y0.7013 
G01 X0.0944 Y0.7039 
G01 X0.0931 Y0.7062 
G01 X0.0912 Y0.7081 
G01 X0.0912 Y0.7081 
G01 X0.0776 Y0.7217 
G01 X0.0700 Y0.7401 
G01 X0.0700 Y0.7599 
G01 X0.0776 Y0.7783 
G01 X0.0931 Y0.7938 
G01 X0.0944 Y0.7961 
G01 X0.0951 Y0.7987 
G01 X0.0951 Y0.8013 
G01 X0.0944 Y0.8039 
G01 X0.0931 Y0.8062 
G01 X0.0912 Y0.8081 
G01 X0.0912 Y0.8081 
G01 X0.0776 Y0.8217 
G01 X0.0700 Y0.8401 
G01 X0.0700 Y0.8599 
G01 X0.0776 Y0.8783 
G01 X0.0931 Y0.8938 
G01 X0.0944 Y0.8961 
G01 X0.0951 Y0.8987 
G01 X0.0951 Y0.9013 
G01 X0.0944 Y0.9039 
G01 X0.0931 Y0.9062 
G01 X0.0912 Y0.9081 
G01 X0.0912 Y0.9081 
G01 X0.0776 Y0.9217 
G01 X0.0700 Y0.9401 
G01 X0.0700 Y0.9599 
G01 X0.0776 Y0.9783 
G01 X0.0912 Y0.9919 
G01 X0.0912 Y0.9919 
G01 X0.0922 Y0.9929 
G01 X0.0931 Y0.9938 
G01 X0.0934 Y0.9943 
G01 X0.0944 Y0.9961 
G01 X0.0951 Y0.9987 
G01 X0.0951 Y1.0013 
G01 X0.0947 Y1.0027 
G01 X0.0944 Y1.0039 
G01 X0.0944 Y1.0039 
G01 X0.0931 Y1.0062 
G01 X0.0776 Y1.0217 
G01 X0.0700 Y1.0401 
G01 X0.0700 Y1.0599 
G01 X0.0776 Y1.0783 
G01 X0.0917 Y1.0924 
G01 X0.1101 Y1.1000 
G01 X0.1899 Y1.1000 
G01 X0.2083 Y1.0924 
G01 X0.2224 Y1.0783 
G01 X0.2300 Y1.0599 
G01 X0.2300 Y1.0401 
G01 X0.2224 Y1.0217 
G01 X0.2088 Y1.0081 
G01 X0.2088 Y1.0081 
G01 X0.2071 Y1.0063 
G01 X0.2069 Y1.0062 
G01 X0.2069 Y1.0061 
G01 X0.2056 Y1.0039 
G01 X0.2049 Y1.0014 
G01 X0.2049 Y1.0013 
G01 X0.2049 Y0.9987 
G01 X0.2056 Y0.9962 
G01 X0.2056 Y0.9961 
G01 X0.2056 Y0.9961 
G01 X0.2069 Y0.9938 
G01 X0.2088 Y0.9919 
G01 X0.2088 Y0.9919 
G01 X0.2224 Y0.9783 
G01 X0.2300 Y0.9599 
G01 X0.2300 Y0.9401 
G01 X0.2224 Y0.9217 
G01 X0.2088 Y0.9081 
G01 X0.2088 Y0.9081 
G01 X0.2071 Y0.9063 
G01 X0.2069 Y0.9062 
G01 X0.2069 Y0.9061 
G01 X0.2056 Y0.9039 
G01 X0.2049 Y0.9014 
G01 X0.2049 Y0.9013 
G01 X0.2049 Y0.8987 
G01 X0.2056 Y0.8962 
G01 X0.2056 Y0.8961 
G01 X0.2056 Y0.8961 
G01 X0.2069 Y0.8938 
G01 X0.2088 Y0.8919 
G01 X0.2088 Y0.8919 
G01 X0.2224 Y0.8783 
G01 X0.2300 Y0.8599 
G01 X0.2300 Y0.8401 
G01 X0.2224 Y0.8217 
G01 X0.2088 Y0.8081 
G01 X0.2088 Y0.8081 
G01 X0.2071 Y0.8063 
G01 X0.2069 Y0.8062 
G01 X0.2069 Y0.8061 
G01 X0.2056 Y0.8039 
G01 X0.2049 Y0.8014 
G01 X0.2049 Y0.8013 
G01 X0.2049 Y0.7987 
G01 X0.2056 Y0.7962 
G01 X0.2056 Y0.7961 
G01 X0.2056 Y0.7961 
G01 X0.2069 Y0.7938 
G01 X0.2088 Y0.7919 
G01 X0.2088 Y0.7919 
G01 X0.2127 Y0.7880 
G01 X0.2150 Y0.7867 
G01 X0.2176 Y0.7860 
G01 X0.7552 Y0.7860 
G01 X0.7578 Y0.7867 
G01 X0.7601 Y0.7880 
G01 X0.7620 Y0.7899 
G01 X0.7633 Y0.7922 
G01 X0.7640 Y0.7948 
G01 X0.7640 Y1.5824 
G01 X0.7633 Y1.5850 
G01 X0.7620 Y1.5873 
G01 X0.7601 Y1.5892 
G01 X0.7562 Y1.5931 
G01 X0.7539 Y1.5944 
G01 X0.7513 Y1.5951 
G01 X0.7487 Y1.5951 
G01 X0.7461 Y1.5944 
G01 X0.7438 Y1.5931 
G01 X0.7419 Y1.5912 
G01 X0.7419 Y1.5912 
G01 X0.7283 Y1.5776 
G01 X0.7099 Y1.5700 
G01 X0.6901 Y1.5700 
G01 X0.6717 Y1.5776 
G01 X0.6562 Y1.5931 
G01 X0.6539 Y1.5944 
G01 X0.6513 Y1.5951 
G01 X0.6487 Y1.5951 
G01 X0.6461 Y1.5944 
G01 X0.6438 Y1.5931 
G01 X0.6419 Y1.5912 
G01 X0.6419 Y1.5912 
G01 X0.6380 Y1.5873 
G01 X0.6367 Y1.5850 
G01 X0.6360 Y1.5824 
G01 X0.6360 Y0.9376 
G01 X0.6367 Y0.9350 
G01 X0.6380 Y0.9327 
G01 X0.6399 Y0.9308 
G01 X0.6399 Y0.9308 
G01 X0.6500 Y0.9207 
G01 X0.6500 Y0.8793 
G01 X0.6207 Y0.8500 
G01 X0.5793 Y0.8500 
G01 X0.5500 Y0.8793 
G01 X0.5500 Y0.9207 
G01 X0.5601 Y0.9308 
G01 X0.5601 Y0.9308 
G01 X0.5619 Y0.9326 
G01 X0.5620 Y0.9327 
G01 X0.5620 Y0.9328 
G01 X0.5633 Y0.9350 
G01 X0.5640 Y0.9375 
G01 X0.5640 Y0.9376 
G01 X0.5640 Y0.9702 
G01 X0.5633 Y0.9728 
G01 X0.5620 Y0.9751 
G01 X0.5601 Y0.9770 
G01 X0.5578 Y0.9783 
G01 X0.5552 Y0.9790 
G01 X0.5526 Y0.9790 
G01 X0.5500 Y0.9783 
G01 X0.5477 Y0.9770 
G01 X0.5458 Y0.9751 
G01 X0.5207 Y0.9500 
G01 X0.4793 Y0.9500 
G01 X0.4500 Y0.9793 
G01 X0.4500 Y1.0207 
G01 X0.4601 Y1.0308 
G01 X0.4601 Y1.0308 
G01 X0.4619 Y1.0326 
G01 X0.4620 Y1.0327 
G01 X0.4620 Y1.0328 
G01 X0.4633 Y1.0350 
G01 X0.4640 Y1.0375 
G01 X0.4640 Y1.0376 
G01 X0.4640 Y1.5824 
G01 X0.4638 Y1.5831 
G01 X0.4633 Y1.5850 
G01 X0.4620 Y1.5873 
G01 X0.4601 Y1.5892 
G01 X0.4601 Y1.5892 
G01 X0.4576 Y1.5917 
G01 X0.4500 Y1.6101 
G01 X0.4500 Y1.6899 
G01 X0.4576 Y1.7083 
G01 X0.4717 Y1.7224 
G01 X0.4901 Y1.7300 
G01 X0.5099 Y1.7300 
G01 X0.5283 Y1.7224 
G01 X0.5419 Y1.7088 
G01 X0.5419 Y1.7088 
G01 X0.5437 Y1.7071 
G01 X0.5438 Y1.7069 
G01 X0.5439 Y1.7069 
G01 X0.5461 Y1.7056 
G01 X0.5486 Y1.7049 
G01 X0.5487 Y1.7049 
G01 X0.5513 Y1.7049 
G01 X0.5538 Y1.7056 
G01 X0.5539 Y1.7056 
G01 X0.5539 Y1.7056 
G01 X0.5562 Y1.7069 
G01 X0.5581 Y1.7088 
G01 X0.5581 Y1.7088 
G01 X0.5717 Y1.7224 
G01 X0.5901 Y1.7300 
G01 X0.6099 Y1.7300 
G01 X0.6283 Y1.7224 
G01 X0.6419 Y1.7088 
G01 X0.6419 Y1.7088 
G01 X0.6437 Y1.7071 
G01 X0.6438 Y1.7069 
G01 X0.6448 Y1.7063 
G01 X0.6461 Y1.7056 
G01 X0.6487 Y1.7049 
G01 X0.6513 Y1.7049 
G01 X0.6539 Y1.7056 
G01 X0.6548 Y1.7061 
G01 X0.6562 Y1.7069 
G01 X0.6601 Y1.7108 
G01 X0.6601 Y1.7108 
G01 X0.6619 Y1.7126 
G01 X0.6620 Y1.7127 
G01 X0.6620 Y1.7127 
G01 X0.6629 Y1.7143 
G01 X0.6633 Y1.7150 
G01 X0.6633 Y1.7150 
G01 X0.6633 Y1.7150 
G01 X0.6637 Y1.7166 
G01 X0.6640 Y1.7176 
G01 X0.6640 Y1.7552 
G01 X0.6633 Y1.7578 
G01 X0.6620 Y1.7601 
G01 X0.6601 Y1.7620 
G01 X0.6578 Y1.7633 
G01 X0.6552 Y1.7640 
G01 X0.3948 Y1.7640 
G01 X0.3922 Y1.7633 
G01 X0.3899 Y1.7620 
G01 X0.3880 Y1.7601 
G01 X0.3867 Y1.7578 
G01 X0.3860 Y1.7552 
G01 X0.3860 Y1.4928 
G01 X0.3805 Y1.4796 
G01 X0.3705 Y1.4696 
G01 X0.3702 Y1.4695 
G01 X0.3697 Y1.4692 
G01 X0.3690 Y1.4689 
G01 X0.3685 Y1.4685 
G01 X0.3679 Y1.4682 
G01 X0.3675 Y1.4677 
G01 X0.3669 Y1.4673 
G01 X0.3665 Y1.4668 
G01 X0.3661 Y1.4663 
G01 X0.3657 Y1.4657 
G01 X0.3653 Y1.4652 
G01 X0.3651 Y1.4646 
G01 X0.3647 Y1.4640 
G01 X0.3646 Y1.4634 
G01 X0.3643 Y1.4627 
G01 X0.3642 Y1.4621 
G01 X0.3640 Y1.4614 
G01 X0.3640 Y1.4608 
G01 X0.3640 Y1.4601 
G01 X0.3640 Y1.4594 
G01 X0.3640 Y1.4588 
G01 X0.3642 Y1.4581 
G01 X0.3643 Y1.4575 
G01 X0.3646 Y1.4568 
G01 X0.3647 Y1.4562 
G01 X0.3651 Y1.4556 
G01 X0.3653 Y1.4550 
G01 X0.3657 Y1.4545 
G01 X0.3661 Y1.4539 
G01 X0.3665 Y1.4534 
G01 X0.3669 Y1.4529 
G01 X0.3675 Y1.4525 
G01 X0.3679 Y1.4520 
G01 X0.3685 Y1.4517 
G01 X0.3690 Y1.4513 
G01 X0.3697 Y1.4510 
G01 X0.3697 Y1.4510 
G01 X0.4000 Y1.4207 
G01 X0.4000 Y1.3793 
G01 X0.3707 Y1.3500 
G01 X0.3293 Y1.3500 
G01 X0.3192 Y1.3601 
G01 X0.3192 Y1.3601 
G01 X0.3174 Y1.3619 
G01 X0.3173 Y1.3620 
G01 X0.3172 Y1.3620 
G01 X0.3150 Y1.3633 
G01 X0.3125 Y1.3640 
G01 X0.3124 Y1.3640 
G01 X0.2176 Y1.3640 
G01 X0.2150 Y1.3633 
G01 X0.2127 Y1.3620 
G01 X0.2108 Y1.3601 
G01 X0.2069 Y1.3562 
G01 X0.2056 Y1.3539 
G01 X0.2049 Y1.3513 
G01 X0.2049 Y1.3487 
G01 X0.2056 Y1.3461 
G01 X0.2069 Y1.3438 
G01 X0.2088 Y1.3419 
G01 X0.2224 Y1.3283 
G01 X0.2300 Y1.3099 
G01 X0.2300 Y1.2901 
G01 X0.2224 Y1.2717 
G01 X0.2088 Y1.2581 
G01 X0.2088 Y1.2581 
G01 X0.2071 Y1.2563 
G01 X0.2069 Y1.2562 
G01 X0.2069 Y1.2561 
G01 X0.2056 Y1.2539 
G01 X0.2049 Y1.2514 
G01 X0.2049 Y1.2513 
G01 X0.2049 Y1.2487 
G01 X0.2056 Y1.2462 
G01 X0.2056 Y1.2461 
G01 X0.2056 Y1.2461 
G01 X0.2069 Y1.2438 
G01 X0.2088 Y1.2419 
G01 X0.2088 Y1.2419 
G01 X0.2224 Y1.2283 
G01 X0.2300 Y1.2099 
G01 X0.2300 Y1.1901 
G01 X0.2224 Y1.1717 
G01 X0.2083 Y1.1576 
G01 X0.1899 Y1.1500 
G01 X0.1101 Y1.1500 
G01 X0.0917 Y1.1576 
G01 X0.0776 Y1.1717 
G01 X0.0700 Y1.1901 
G01 X0.0700 Y1.2099 
G01 X0.0776 Y1.2283 
G01 X0.0931 Y1.2438 
G01 X0.0944 Y1.2461 
G01 X0.0951 Y1.2487 
G01 X0.0951 Y1.2513 
G01 X0.0944 Y1.2539 
G01 X0.0931 Y1.2562 
G01 X0.0912 Y1.2581 
G01 X0.0912 Y1.2581 
G01 X0.0776 Y1.2717 
G01 X0.0700 Y1.2901 
G01 X0.0700 Y1.3099 
G01 X0.0776 Y1.3283 
G01 X0.0931 Y1.3438 
G01 X0.0944 Y1.3461 
G01 X0.0951 Y1.3487 
G01 X0.0951 Y1.3513 
G01 X0.0944 Y1.3539 
G01 X0.0931 Y1.3562 
G01 X0.0912 Y1.3581 
G01 X0.0912 Y1.3581 
G01 X0.0776 Y1.3717 
G01 X0.0700 Y1.3901 
G01 X0.0700 Y1.4099 
G01 X0.0776 Y1.4283 
G01 X0.0931 Y1.4438 
G01 X0.0944 Y1.4461 
G01 X0.0951 Y1.4487 
G01 X0.0951 Y1.4513 
G01 X0.0944 Y1.4539 
G01 X0.0931 Y1.4562 
G01 X0.0912 Y1.4581 
G01 X0.0912 Y1.4581 
G01 X0.0776 Y1.4717 
G01 X0.0700 Y1.4901 
G01 X0.0700 Y1.5099 
G01 X0.0776 Y1.5283 
G01 X0.0931 Y1.5438 
G01 X0.0944 Y1.5461 
G01 X0.0951 Y1.5487 
G01 X0.0951 Y1.5513 
G01 X0.0944 Y1.5539 
G01 X0.0931 Y1.5562 
G01 X0.0912 Y1.5581 
G01 X0.0912 Y1.5581 
G01 X0.0776 Y1.5717 
G01 X0.0700 Y1.5901 
G01 X0.0700 Y1.6099 
G01 X0.0776 Y1.6283 
G01 X0.0931 Y1.6438 
G01 X0.0944 Y1.6461 
G01 X0.0951 Y1.6487 
G01 X0.0951 Y1.6513 
G01 X0.0944 Y1.6539 
G01 X0.0931 Y1.6562 
G01 X0.0912 Y1.6581 
G01 X0.0912 Y1.6581 
G01 X0.0776 Y1.6717 
G01 X0.0700 Y1.6901 
G01 X0.0700 Y1.7099 
G01 X0.0776 Y1.7283 
G01 X0.0931 Y1.7438 
G01 X0.0944 Y1.7461 
G01 X0.0951 Y1.7487 
G01 X0.0951 Y1.7513 
G01 X0.0944 Y1.7539 
G01 X0.0931 Y1.7562 
G01 X0.0912 Y1.7581 
G01 X0.0912 Y1.7581 
G01 X0.0776 Y1.7717 
G01 X0.0700 Y1.7901 
G01 X0.0700 Y1.8099 
G01 X0.0776 Y1.8283 
G01 X0.0931 Y1.8438 
G01 X0.0944 Y1.8461 
G01 X0.0951 Y1.8487 
G01 X0.0951 Y1.8513 
G01 X0.0944 Y1.8539 
G01 X0.0931 Y1.8562 
G01 X0.0912 Y1.8581 
G01 X0.0912 Y1.8581 
G01 X0.0776 Y1.8717 
G01 X0.0700 Y1.8901 
G01 X0.0700 Y1.9099 
G01 X0.0776 Y1.9283 
G01 X0.0917 Y1.9424 
G01 X0.1101 Y1.9500 
G01 X0.1899 Y1.9500 
G01 X0.2083 Y1.9424 
G01 X0.2224 Y1.9283 
G01 X0.2300 Y1.9099 
G01 X0.2300 Y1.8901 
G01 X0.2224 Y1.8717 
G01 X0.2088 Y1.8581 
G01 X0.2088 Y1.8581 
G01 X0.2071 Y1.8563 
G01 X0.2069 Y1.8562 
G01 X0.2069 Y1.8561 
G01 X0.2056 Y1.8539 
G01 X0.2049 Y1.8514 
G01 X0.2049 Y1.8513 
G01 X0.2049 Y1.8487 
G01 X0.2056 Y1.8462 
G01 X0.2056 Y1.8461 
G01 X0.2056 Y1.8461 
G01 X0.2069 Y1.8438 
G01 X0.2088 Y1.8419 
G01 X0.2088 Y1.8419 
G01 X0.2224 Y1.8283 
G01 X0.2300 Y1.8099 
G01 X0.2300 Y1.7901 
G01 X0.2224 Y1.7717 
G01 X0.2088 Y1.7581 
G01 X0.2088 Y1.7581 
G01 X0.2071 Y1.7563 
G01 X0.2069 Y1.7562 
G01 X0.2069 Y1.7561 
G01 X0.2056 Y1.7539 
G01 X0.2049 Y1.7514 
G01 X0.2049 Y1.7513 
G01 X0.2049 Y1.7487 
G01 X0.2056 Y1.7462 
G01 X0.2056 Y1.7461 
G01 X0.2056 Y1.7461 
G01 X0.2069 Y1.7438 
G01 X0.2088 Y1.7419 
G01 X0.2088 Y1.7419 
G01 X0.2088 Y1.7419 
G01 X0.2224 Y1.7283 
G01 X0.2300 Y1.7099 
G01 X0.2300 Y1.6901 
G01 X0.2224 Y1.6717 
G01 X0.2088 Y1.6581 
G01 X0.2088 Y1.6581 
G01 X0.2071 Y1.6563 
G01 X0.2069 Y1.6562 
G01 X0.2069 Y1.6561 
G01 X0.2056 Y1.6539 
G01 X0.2049 Y1.6514 
G01 X0.2049 Y1.6513 
G01 X0.2049 Y1.6487 
G01 X0.2056 Y1.6462 
G01 X0.2056 Y1.6461 
G01 X0.2056 Y1.6461 
G01 X0.2069 Y1.6438 
G01 X0.2088 Y1.6419 
G01 X0.2088 Y1.6419 
G01 X0.2224 Y1.6283 
G01 X0.2300 Y1.6099 
G01 X0.2300 Y1.5901 
G01 X0.2224 Y1.5717 
G01 X0.2088 Y1.5581 
G01 X0.2088 Y1.5581 
G01 X0.2071 Y1.5563 
G01 X0.2069 Y1.5562 
G01 X0.2063 Y1.5552 
G01 X0.2056 Y1.5539 
G01 X0.2049 Y1.5513 
G01 X0.2049 Y1.5487 
G01 X0.2056 Y1.5461 
G01 X0.2061 Y1.5452 
G01 X0.2069 Y1.5438 
G01 X0.2108 Y1.5399 
G01 X0.2108 Y1.5399 
G01 X0.2126 Y1.5381 
G01 X0.2127 Y1.5380 
G01 X0.2127 Y1.5380 
G01 X0.2143 Y1.5371 
G01 X0.2150 Y1.5367 
G01 X0.2150 Y1.5367 
G01 X0.2150 Y1.5367 
G01 X0.2166 Y1.5363 
G01 X0.2176 Y1.5360 
G01 X0.3052 Y1.5360 
G01 X0.3078 Y1.5367 
G01 X0.3101 Y1.5380 
G01 X0.3120 Y1.5399 
G01 X0.3133 Y1.5422 
G01 X0.3140 Y1.5448 
G01 X0.3140 Y1.8072 
G01 X0.3195 Y1.8204 
G01 X0.3296 Y1.8305 
G01 X0.3428 Y1.8360 
G01 X0.7072 Y1.8360 
G01 X0.7204 Y1.8305 
G01 X0.7305 Y1.8204 
G01 X0.7360 Y1.8072 
G01 X0.7360 Y1.7176 
G01 X0.7367 Y1.7150 
G01 X0.7380 Y1.7127 
G01 X0.7399 Y1.7108 
G01 X0.7438 Y1.7069 
G01 X0.7461 Y1.7056 
G01 X0.7487 Y1.7049 
G01 X0.7513 Y1.7049 
G01 X0.7539 Y1.7056 
G01 X0.7562 Y1.7069 
G01 X0.7581 Y1.7088 
G01 X0.7717 Y1.7224 
G01 X0.7901 Y1.7300 
G01 X0.8099 Y1.7300 
G01 X0.8283 Y1.7224 
G01 X0.8419 Y1.7088 
G01 X0.8419 Y1.7088 
G01 X0.8437 Y1.7071 
G01 X0.8438 Y1.7069 
G01 X0.8439 Y1.7069 
G01 X0.8461 Y1.7056 
G01 X0.8486 Y1.7049 
G01 X0.8487 Y1.7049 
G01 X0.8513 Y1.7049 
G01 X0.8538 Y1.7056 
G01 X0.8539 Y1.7056 
G01 X0.8539 Y1.7056 
G01 X0.8562 Y1.7069 
G01 X0.8581 Y1.7088 
G01 X0.8581 Y1.7088 
G01 X0.8717 Y1.7224 
G01 X0.8901 Y1.7300 
G01 X0.9099 Y1.7300 
G01 X0.9283 Y1.7224 
G01 X0.9419 Y1.7088 
G01 X0.9419 Y1.7088 
G01 X0.9437 Y1.7071 
G01 X0.9438 Y1.7069 
G01 X0.9439 Y1.7069 
G01 X0.9461 Y1.7056 
G01 X0.9486 Y1.7049 
G01 X0.9487 Y1.7049 
G01 X0.9513 Y1.7049 
G01 X0.9538 Y1.7056 
G01 X0.9539 Y1.7056 
G01 X0.9539 Y1.7056 
G01 X0.9562 Y1.7069 
G01 X0.9581 Y1.7088 
G01 X0.9581 Y1.7088 
G01 X0.9717 Y1.7224 
G01 X0.9901 Y1.7300 
G01 X1.0099 Y1.7300 
G01 X1.0283 Y1.7224 
G01 X1.0419 Y1.7088 
G01 X1.0419 Y1.7088 
G01 X1.0438 Y1.7069 
G01 X1.0461 Y1.7056 
G01 X1.0487 Y1.7049 
G01 X1.0513 Y1.7049 
G01 X1.0539 Y1.7056 
G01 X1.0562 Y1.7069 
G01 X1.0717 Y1.7224 
G01 X1.0901 Y1.7300 
G01 X1.1099 Y1.7300 
G01 X1.1283 Y1.7224 
G01 X1.1419 Y1.7088 
G01 X1.1419 Y1.7088 
G01 X1.1437 Y1.7071 
G01 X1.1438 Y1.7069 
G01 X1.1439 Y1.7069 
G01 X1.1461 Y1.7056 
G01 X1.1486 Y1.7049 
G01 X1.1487 Y1.7049 
G01 X1.1513 Y1.7049 
G01 X1.1538 Y1.7056 
G01 X1.1539 Y1.7056 
G01 X1.1539 Y1.7056 
G01 X1.1562 Y1.7069 
G01 X1.1581 Y1.7088 
G01 X1.1581 Y1.7088 
G01 X1.1717 Y1.7224 
G01 X1.1901 Y1.7300 
G01 X1.2099 Y1.7300 
G01 X1.2283 Y1.7224 
G01 X1.2419 Y1.7088 
G01 X1.2419 Y1.7088 
G01 X1.2437 Y1.7071 
G01 X1.2438 Y1.7069 
G01 X1.2439 Y1.7069 
G01 X1.2461 Y1.7056 
G01 X1.2486 Y1.7049 
G01 X1.2487 Y1.7049 
G01 X1.2513 Y1.7049 
G01 X1.2538 Y1.7056 
G01 X1.2539 Y1.7056 
G01 X1.2539 Y1.7056 
G01 X1.2562 Y1.7069 
G01 X1.2581 Y1.7088 
G01 X1.2581 Y1.7088 
G01 X1.2717 Y1.7224 
G01 X1.2901 Y1.7300 
G01 X1.3099 Y1.7300 
G01 X1.3283 Y1.7224 
G01 X1.3419 Y1.7088 
G01 X1.3419 Y1.7088 
G01 X1.3437 Y1.7071 
G01 X1.3438 Y1.7069 
G01 X1.3439 Y1.7069 
G01 X1.3461 Y1.7056 
G01 X1.3486 Y1.7049 
G01 X1.3487 Y1.7049 
G01 X1.3513 Y1.7049 
G01 X1.3538 Y1.7056 
G01 X1.3539 Y1.7056 
G01 X1.3539 Y1.7056 
G01 X1.3562 Y1.7069 
G01 X1.3581 Y1.7088 
G01 X1.3581 Y1.7088 
G01 X1.3717 Y1.7224 
G01 X1.3901 Y1.7300 
G01 X1.4099 Y1.7300 
G01 X1.4283 Y1.7224 
G01 X1.4419 Y1.7088 
G01 X1.4419 Y1.7088 
G01 X1.4437 Y1.7071 
G01 X1.4438 Y1.7069 
G01 X1.4439 Y1.7069 
G01 X1.4461 Y1.7056 
G01 X1.4486 Y1.7049 
G01 X1.4487 Y1.7049 
G01 X1.4513 Y1.7049 
G01 X1.4538 Y1.7056 
G01 X1.4539 Y1.7056 
G01 X1.4539 Y1.7056 
G01 X1.4562 Y1.7069 
G01 X1.4581 Y1.7088 
G01 X1.4581 Y1.7088 
G01 X1.4717 Y1.7224 
G01 X1.4901 Y1.7300 
G01 X1.5099 Y1.7300 
G01 X1.5283 Y1.7224 
G01 X1.5419 Y1.7088 
G01 X1.5419 Y1.7088 
G01 X1.5437 Y1.7071 
G01 X1.5438 Y1.7069 
G01 X1.5439 Y1.7069 
G01 X1.5461 Y1.7056 
G01 X1.5486 Y1.7049 
G01 X1.5487 Y1.7049 
G01 X1.5513 Y1.7049 
G01 X1.5538 Y1.7056 
G01 X1.5539 Y1.7056 
G01 X1.5539 Y1.7056 
G01 X1.5562 Y1.7069 
G01 X1.5581 Y1.7088 
G01 X1.5581 Y1.7088 
G01 X1.5717 Y1.7224 
G01 X1.5901 Y1.7300 
G01 X1.6099 Y1.7300 
G01 X1.6283 Y1.7224 
G01 X1.6419 Y1.7088 
G01 X1.6419 Y1.7088 
G01 X1.6437 Y1.7071 
G01 X1.6438 Y1.7069 
G01 X1.6439 Y1.7069 
G01 X1.6461 Y1.7056 
G01 X1.6486 Y1.7049 
G01 X1.6487 Y1.7049 
G01 X1.6513 Y1.7049 
G01 X1.6538 Y1.7056 
G01 X1.6539 Y1.7056 
G01 X1.6539 Y1.7056 
G01 X1.6562 Y1.7069 
G01 X1.6581 Y1.7088 
G01 X1.6581 Y1.7088 
G01 X1.6717 Y1.7224 
G01 X1.6901 Y1.7300 
G01 X1.7099 Y1.7300 
G01 X1.7283 Y1.7224 
G01 X1.7419 Y1.7088 
G01 X1.7419 Y1.7088 
G01 X1.7437 Y1.7071 
G01 X1.7438 Y1.7069 
G01 X1.7439 Y1.7069 
G01 X1.7461 Y1.7056 
G01 X1.7486 Y1.7049 
G01 X1.7487 Y1.7049 
G01 X1.7513 Y1.7049 
G01 X1.7538 Y1.7056 
G01 X1.7539 Y1.7056 
G01 X1.7539 Y1.7056 
G01 X1.7562 Y1.7069 
G01 X1.7581 Y1.7088 
G01 X1.7581 Y1.7088 
G01 X1.7581 Y1.7088 
G01 X1.7717 Y1.7224 
G01 X1.7901 Y1.7300 
G01 X1.8099 Y1.7300 
G01 X1.8283 Y1.7224 
G01 X1.8424 Y1.7083 
G01 X1.8500 Y1.6899 
G01 X1.8500 Y1.6101 
G01 X1.8424 Y1.5917 
G01 X1.8380 Y1.5873 
G01 X1.8367 Y1.5850 
G01 X1.8360 Y1.5824 
G01 X1.8360 Y1.0448 
G01 X1.8367 Y1.0422 
G01 X1.8380 Y1.0399 
G01 X1.8399 Y1.0380 
G01 X1.8422 Y1.0367 
G01 X1.8448 Y1.0360 
G01 X1.9824 Y1.0360 
G01 X1.9850 Y1.0367 
G01 X1.9873 Y1.0380 
G01 X1.9892 Y1.0399 
G01 X1.9931 Y1.0438 
G01 X1.9944 Y1.0461 
G01 X1.9951 Y1.0487 
G01 X1.9951 Y1.0513 
G01 X1.9944 Y1.0539 
G01 X1.9931 Y1.0562 
G01 X1.9912 Y1.0581 
G01 X1.9912 Y1.0581 
G01 X1.9776 Y1.0717 
G01 X1.9700 Y1.0901 
G01 X1.9700 Y1.1099 
G01 X1.9776 Y1.1283 
G01 X1.9931 Y1.1438 
G01 X1.9944 Y1.1461 
G01 X1.9951 Y1.1487 
G01 X1.9951 Y1.1513 
G01 X1.9944 Y1.1539 
G01 X1.9931 Y1.1562 
G01 X1.9912 Y1.1581 
G01 X1.9912 Y1.1581 
G01 X1.9776 Y1.1717 
G01 X1.9700 Y1.1901 
G01 X1.9700 Y1.2099 
G01 X1.9776 Y1.2283 
G01 X1.9917 Y1.2424 
G01 X2.0101 Y1.2500 
G01 X2.0899 Y1.2500 
G01 X2.1083 Y1.2424 
G01 X2.1224 Y1.2283 
G01 X2.1300 Y1.2099 
G01 X2.1300 Y1.1901 
G01 X2.1224 Y1.1717 
G01 X2.1088 Y1.1581 
G01 X2.1088 Y1.1581 
G01 X2.1071 Y1.1563 
G01 X2.1069 Y1.1562 
G01 X2.1069 Y1.1561 
G01 X2.1056 Y1.1539 
G01 X2.1049 Y1.1514 
G01 X2.1049 Y1.1513 
G01 X2.1049 Y1.1487 
G01 X2.1056 Y1.1462 
G01 X2.1056 Y1.1461 
G01 X2.1056 Y1.1461 
G01 X2.1069 Y1.1438 
G01 X2.1088 Y1.1419 
G01 X2.1088 Y1.1419 
G01 X2.1224 Y1.1283 
G01 X2.1300 Y1.1099 
G01 X2.1300 Y1.0901 
G01 X2.1224 Y1.0717 
G01 X2.1088 Y1.0581 
G01 X2.1088 Y1.0581 
G01 X2.1071 Y1.0563 
G01 X2.1069 Y1.0562 
G01 X2.1069 Y1.0561 
G01 X2.1056 Y1.0539 
G01 X2.1049 Y1.0514 
G01 X2.1049 Y1.0513 
G01 X2.1049 Y1.0487 
G01 X2.1056 Y1.0462 
G01 X2.1056 Y1.0461 
G01 X2.1056 Y1.0461 
G01 X2.1069 Y1.0438 
G01 X2.1088 Y1.0419 
G01 X2.1088 Y1.0419 
G01 X2.1088 Y1.0419 
G01 X2.1224 Y1.0283 
G01 X2.1300 Y1.0099 
G01 X2.1300 Y0.9901 
G01 X2.1224 Y0.9717 
G01 X2.1088 Y0.9581 
G01 X2.1088 Y0.9581 
G01 X2.1071 Y0.9563 
G01 X2.1069 Y0.9562 
G01 X2.1069 Y0.9561 
G01 X2.1056 Y0.9539 
G01 X2.1049 Y0.9514 
G01 X2.1049 Y0.9513 
G01 X2.1049 Y0.9487 
G01 X2.1056 Y0.9462 
G01 X2.1056 Y0.9461 
G01 X2.1056 Y0.9461 
G01 X2.1069 Y0.9438 
G01 X2.1088 Y0.9419 
G01 X2.1088 Y0.9419 
G01 X2.1224 Y0.9283 
G01 X2.1300 Y0.9099 
G01 X2.1300 Y0.8901 
G01 X2.1224 Y0.8717 
G01 X2.1088 Y0.8581 
G01 X2.1088 Y0.8581 
G01 X2.1071 Y0.8563 
G01 X2.1069 Y0.8562 
G01 X2.1069 Y0.8561 
G01 X2.1056 Y0.8539 
G01 X2.1049 Y0.8514 
G01 X2.1049 Y0.8513 
G01 X2.1049 Y0.8487 
G01 X2.1056 Y0.8462 
G01 X2.1056 Y0.8461 
G01 X2.1056 Y0.8461 
G01 X2.1069 Y0.8438 
G01 X2.1088 Y0.8419 
G01 X2.1088 Y0.8419 
G01 X2.1224 Y0.8283 
G01 X2.1300 Y0.8099 
G01 X2.1300 Y0.7901 
G01 X2.1224 Y0.7717 
G01 X2.1088 Y0.7581 
G01 X2.1088 Y0.7581 
G01 X2.1071 Y0.7563 
G01 X2.1069 Y0.7562 
G01 X2.1069 Y0.7561 
G01 X2.1056 Y0.7539 
G01 X2.1049 Y0.7514 
G01 X2.1049 Y0.7513 
G01 X2.1049 Y0.7487 
G01 X2.1056 Y0.7462 
G01 X2.1056 Y0.7461 
G01 X2.1056 Y0.7461 
G01 X2.1069 Y0.7438 
G01 X2.1088 Y0.7419 
G01 X2.1088 Y0.7419 
G01 X2.1224 Y0.7283 
G01 X2.1300 Y0.7099 
G01 X2.1300 Y0.6901 
G01 X2.1224 Y0.6717 
G01 X2.1088 Y0.6581 
G01 X2.1088 Y0.6581 
G01 X2.1071 Y0.6563 
G01 X2.1069 Y0.6562 
G01 X2.1069 Y0.6561 
G01 X2.1056 Y0.6539 
G01 X2.1049 Y0.6514 
G01 X2.1049 Y0.6513 
G01 X2.1049 Y0.6487 
G01 X2.1056 Y0.6462 
G01 X2.1056 Y0.6461 
G01 X2.1056 Y0.6461 
G01 X2.1069 Y0.6438 
G01 X2.1088 Y0.6419 
G01 X2.1088 Y0.6419 
G01 X2.1224 Y0.6283 
G01 X2.1300 Y0.6099 
G01 X2.1300 Y0.5901 
G01 X2.1224 Y0.5717 
G01 X2.1088 Y0.5581 
G01 X2.1088 Y0.5581 
G01 X2.1071 Y0.5563 
G01 X2.1069 Y0.5562 
G01 X2.1069 Y0.5561 
G01 X2.1056 Y0.5539 
G01 X2.1049 Y0.5514 
G01 X2.1049 Y0.5513 
G01 X2.1049 Y0.5487 
G01 X2.1056 Y0.5462 
G01 X2.1056 Y0.5461 
G01 X2.1056 Y0.5461 
G01 X2.1069 Y0.5438 
G01 X2.1088 Y0.5419 
G01 X2.1088 Y0.5419 
G01 X2.1224 Y0.5283 
G01 X2.1300 Y0.5099 
G01 X2.1300 Y0.4901 
G01 X2.1224 Y0.4717 
G01 X2.1083 Y0.4576 
G01 X2.0899 Y0.4500 
G01 X2.0101 Y0.4500 
G01 X1.9917 Y0.4576 
G01 X1.9776 Y0.4717 
G01 X1.9700 Y0.4901 
G01 X1.9700 Y0.5099 
G01 X1.9776 Y0.5283 
G01 X1.9912 Y0.5419 
G01 X1.9912 Y0.5419 
G01 X1.9922 Y0.5429 
G01 X1.9931 Y0.5438 
G01 X1.9934 Y0.5443 
G01 X1.9944 Y0.5461 
G01 X1.9951 Y0.5487 
G01 X1.9951 Y0.5513 
G01 X1.9947 Y0.5527 
G01 X1.9944 Y0.5539 
G01 X1.9944 Y0.5539 
G01 X1.9931 Y0.5562 
G01 X1.9776 Y0.5717 
G01 X1.9700 Y0.5901 
G01 X1.9700 Y0.6099 
G01 X1.9776 Y0.6283 
G01 X1.9931 Y0.6438 
G01 X1.9944 Y0.6461 
G01 X1.9951 Y0.6487 
G01 X1.9951 Y0.6513 
G01 X1.9944 Y0.6539 
G01 X1.9931 Y0.6562 
G01 X1.9912 Y0.6581 
G01 X1.9912 Y0.6581 
G01 X1.9776 Y0.6717 
G01 X1.9700 Y0.6901 
G01 X1.9700 Y0.7099 
G01 X1.9776 Y0.7283 
G01 X1.9931 Y0.7438 
G01 X1.9944 Y0.7461 
G01 X1.9951 Y0.7487 
G01 X1.9951 Y0.7513 
G01 X1.9944 Y0.7539 
G01 X1.9931 Y0.7562 
G01 X1.9912 Y0.7581 
G01 X1.9912 Y0.7581 
G01 X1.9776 Y0.7717 
G01 X1.9700 Y0.7901 
G01 X1.9700 Y0.8099 
G01 X1.9776 Y0.8283 
G01 X1.9931 Y0.8438 
G01 X1.9931 Y0.8438 
G01 X1.9936 Y0.8447 
G01 X1.9944 Y0.8461 
G01 X1.9951 Y0.8487 
G01 X1.9951 Y0.8513 
G01 X1.9949 Y0.8522 
G01 X1.9944 Y0.8539 
G01 X1.9944 Y0.8539 
G01 X1.9944 Y0.8539 
G01 X1.9941 Y0.8545 
G01 X1.9931 Y0.8562 
G01 X1.9912 Y0.8581 
G01 X1.9912 Y0.8581 
G01 X1.9873 Y0.8620 
G01 X1.9863 Y0.8626 
G01 X1.9850 Y0.8633 
G01 X1.9824 Y0.8640 
G01 X1.7376 Y0.8640 
G01 X1.7350 Y0.8633 
G01 X1.7327 Y0.8620 
G01 X1.7308 Y0.8601 
G01 X1.7207 Y0.8500 
G01 X1.6793 Y0.8500 
G01 X1.6542 Y0.8751 
G01 X1.6528 Y0.8765 
G01 X1.6523 Y0.8770 
G01 X1.6523 Y0.8770 
G01 X1.6500 Y0.8783 
G01 X1.6475 Y0.8790 
G01 X1.6474 Y0.8790 
G01 X1.6448 Y0.8790 
G01 X1.6423 Y0.8783 
G01 X1.6422 Y0.8783 
G01 X1.6399 Y0.8770 
G01 X1.6380 Y0.8751 
G01 X1.6380 Y0.8751 
G01 X1.6367 Y0.8728 
G01 X1.6360 Y0.8703 
G01 X1.6360 Y0.8702 
G01 X1.6360 Y0.7876 
G01 X1.6367 Y0.7850 
G01 X1.6380 Y0.7827 
G01 X1.6399 Y0.7808 
G01 X1.6399 Y0.7808 
G01 X1.6500 Y0.7707 
G01 X1.6500 Y0.7293 
G01 X1.6207 Y0.7000 
G01 X1.5793 Y0.7000 
G01 X1.5542 Y0.7251 
G01 X1.5542 Y0.7251 
G01 X1.5528 Y0.7265 
G01 X1.5523 Y0.7270 
G01 X1.5523 Y0.7270 
G01 X1.5500 Y0.7283 
G01 X1.5475 Y0.7290 
G01 X1.5474 Y0.7290 
G01 X1.5448 Y0.7290 
G01 X1.5423 Y0.7283 
G01 X1.5422 Y0.7283 
G01 X1.5399 Y0.7270 
G01 X1.5380 Y0.7251 
G01 X1.5380 Y0.7251 
G01 X1.5367 Y0.7228 
G01 X1.5360 Y0.7203 
G01 X1.5360 Y0.7202 
G01 X1.5360 Y0.6876 
G01 X1.5367 Y0.6850 
G01 X1.5380 Y0.6827 
G01 X1.5399 Y0.6808 
G01 X1.5399 Y0.6808 
G01 X1.5500 Y0.6707 
G01 X1.5500 Y0.6293 
G01 X1.5207 Y0.6000 
G01 X1.4793 Y0.6000 
G01 X1.4542 Y0.6251 
G01 X1.4542 Y0.6251 
G01 X1.4528 Y0.6265 
G01 X1.4523 Y0.6270 
G01 X1.4523 Y0.6270 
G01 X1.4500 Y0.6283 
G01 X1.4475 Y0.6290 
G01 X1.4474 Y0.6290 
G01 X1.4448 Y0.6290 
G01 X1.4423 Y0.6283 
G01 X1.4422 Y0.6283 
G01 X1.4399 Y0.6270 
G01 X1.4380 Y0.6251 
G01 X1.4380 Y0.6251 
G01 X1.4367 Y0.6228 
G01 X1.4360 Y0.6203 
G01 X1.4360 Y0.6202 
G01 X1.4360 Y0.5876 
G01 X1.4367 Y0.5850 
G01 X1.4380 Y0.5827 
G01 X1.4399 Y0.5808 
G01 X1.4399 Y0.5808 
G01 X1.4500 Y0.5707 
G01 X1.4500 Y0.5293 
G01 X1.4207 Y0.5000 
G01 X1.3793 Y0.5000 
G01 X1.3500 Y0.5293 
G01 X1.3500 Y0.5707 
G01 X1.3601 Y0.5808 
G01 X1.3601 Y0.5808 
G01 X1.3619 Y0.5826 
G01 X1.3620 Y0.5827 
G01 X1.3620 Y0.5828 
G01 X1.3633 Y0.5850 
G01 X1.3640 Y0.5875 
G01 X1.3640 Y0.5876 
G01 X1.3640 Y1.3702 
G01 X1.3633 Y1.3728 
G01 X1.3620 Y1.3751 
G01 X1.3601 Y1.3770 
G01 X1.3578 Y1.3783 
G01 X1.3552 Y1.3790 
G01 X1.3526 Y1.3790 
G01 X1.3500 Y1.3783 
G01 X1.3477 Y1.3770 
G01 X1.3458 Y1.3751 
G01 X1.3207 Y1.3500 
G01 X1.2793 Y1.3500 
G01 X1.2500 Y1.3793 
G01 X1.2500 Y1.4207 
G01 X1.2601 Y1.4308 
G01 X1.2601 Y1.4308 
G01 X1.2619 Y1.4326 
G01 X1.2620 Y1.4327 
G01 X1.2620 Y1.4328 
G01 X1.2633 Y1.4350 
G01 X1.2640 Y1.4375 
G01 X1.2640 Y1.4376 
G01 X1.2640 Y1.5824 
G01 X1.2638 Y1.5833 
G01 X1.2633 Y1.5850 
G01 X1.2633 Y1.5850 
G01 X1.2633 Y1.5850 
G01 X1.2630 Y1.5856 
G01 X1.2620 Y1.5873 
G01 X1.2601 Y1.5892 
G01 X1.2601 Y1.5892 
G01 X1.2562 Y1.5931 
G01 X1.2552 Y1.5937 
G01 X1.2539 Y1.5944 
G01 X1.2513 Y1.5951 
G01 X1.2487 Y1.5951 
G01 X1.2477 Y1.5948 
G01 X1.2461 Y1.5944 
G01 X1.2461 Y1.5944 
G01 X1.2461 Y1.5944 
G01 X1.2454 Y1.5940 
G01 X1.2438 Y1.5931 
G01 X1.2438 Y1.5931 
G01 X1.2419 Y1.5912 
G01 X1.2380 Y1.5873 
G01 X1.2367 Y1.5850 
G01 X1.2360 Y1.5824 
G01 X1.2360 Y1.4928 
G01 X1.2305 Y1.4796 
G01 X1.2204 Y1.4695 
G01 X1.2072 Y1.4640 
G01 X1.0928 Y1.4640 
G01 X1.0796 Y1.4695 
G01 X1.0695 Y1.4796 
G01 X1.0640 Y1.4928 
G01 X1.0640 Y1.5824 
G01 X1.0638 Y1.5833 
G01 X1.0633 Y1.5850 
G01 X1.0633 Y1.5850 
G01 X1.0633 Y1.5850 
G01 X1.0630 Y1.5856 
G01 X1.0620 Y1.5873 
G01 X1.0601 Y1.5892 
G01 X1.0601 Y1.5892 
G01 X1.0562 Y1.5931 
G00 Z0.0300 
G00 X1.3562 Y1.5931 
G01 Z-0.0050 F10.00 
G01 X1.3553 Y1.5936 
G01 X1.3539 Y1.5944 
G01 X1.3513 Y1.5951 
G01 X1.3487 Y1.5951 
G01 X1.3479 Y1.5949 
G01 X1.3461 Y1.5944 
G01 X1.3461 Y1.5944 
G01 X1.3461 Y1.5944 
G01 X1.3457 Y1.5942 
G01 X1.3438 Y1.5931 
G01 X1.3380 Y1.5873 
G01 X1.3367 Y1.5850 
G01 X1.3360 Y1.5824 
G01 X1.3360 Y1.4376 
G01 X1.3367 Y1.4350 
G01 X1.3380 Y1.4327 
G01 X1.3399 Y1.4308 
G01 X1.3477 Y1.4230 
G01 X1.3500 Y1.4217 
G01 X1.3526 Y1.4210 
G01 X1.3552 Y1.4210 
G01 X1.3578 Y1.4217 
G01 X1.3601 Y1.4230 
G01 X1.3620 Y1.4249 
G01 X1.3633 Y1.4272 
G01 X1.3640 Y1.4298 
G01 X1.3640 Y1.5824 
G01 X1.3638 Y1.5833 
G01 X1.3633 Y1.5850 
G01 X1.3633 Y1.5850 
G01 X1.3633 Y1.5850 
G01 X1.3630 Y1.5856 
G01 X1.3620 Y1.5873 
G01 X1.3601 Y1.5892 
G01 X1.3601 Y1.5892 
G01 X1.3566 Y1.5927 
G01 X1.3562 Y1.5931 
G01 X1.3562 Y1.5931 
G01 X1.3562 Y1.5931 
G00 Z0.0300 
G00 X1.4640 Y1.5824 
G01 Z-0.0050 F10.00 
G01 X1.4640 Y1.5824 
G01 X1.4638 Y1.5833 
G01 X1.4633 Y1.5850 
G01 X1.4633 Y1.5850 
G01 X1.4633 Y1.5850 
G01 X1.4630 Y1.5856 
G01 X1.4620 Y1.5873 
G01 X1.4601 Y1.5892 
G01 X1.4601 Y1.5892 
G01 X1.4562 Y1.5931 
G01 X1.4552 Y1.5937 
G01 X1.4539 Y1.5944 
G01 X1.4513 Y1.5951 
G01 X1.4487 Y1.5951 
G01 X1.4477 Y1.5948 
G01 X1.4461 Y1.5944 
G01 X1.4461 Y1.5944 
G01 X1.4461 Y1.5944 
G01 X1.4454 Y1.5940 
G01 X1.4438 Y1.5931 
G01 X1.4438 Y1.5931 
G01 X1.4419 Y1.5912 
G01 X1.4380 Y1.5873 
G01 X1.4367 Y1.5850 
G01 X1.4360 Y1.5824 
G01 X1.4360 Y0.6798 
G01 X1.4367 Y0.6772 
G01 X1.4380 Y0.6749 
G01 X1.4399 Y0.6730 
G01 X1.4422 Y0.6717 
G01 X1.4448 Y0.6710 
G01 X1.4474 Y0.6710 
G01 X1.4500 Y0.6717 
G01 X1.4523 Y0.6730 
G01 X1.4620 Y0.6827 
G01 X1.4633 Y0.6850 
G01 X1.4640 Y0.6876 
G01 X1.4640 Y0.6902 
G01 X1.4640 Y1.5824 
G00 Z0.0300 
G00 X1.1640 Y1.5824 
G01 Z-0.0050 F10.00 
G01 X1.1640 Y1.5824 
G01 X1.1638 Y1.5833 
G01 X1.1633 Y1.5850 
G01 X1.1633 Y1.5850 
G01 X1.1633 Y1.5850 
G01 X1.1630 Y1.5856 
G01 X1.1620 Y1.5873 
G01 X1.1601 Y1.5892 
G01 X1.1601 Y1.5892 
G01 X1.1562 Y1.5931 
G01 X1.1552 Y1.5937 
G01 X1.1539 Y1.5944 
G01 X1.1513 Y1.5951 
G01 X1.1487 Y1.5951 
G01 X1.1477 Y1.5948 
G01 X1.1461 Y1.5944 
G01 X1.1461 Y1.5944 
G01 X1.1461 Y1.5944 
G01 X1.1454 Y1.5940 
G01 X1.1438 Y1.5931 
G01 X1.1438 Y1.5931 
G01 X1.1438 Y1.5931 
G01 X1.1419 Y1.5912 
G01 X1.1419 Y1.5912 
G01 X1.1380 Y1.5873 
G01 X1.1367 Y1.5850 
G01 X1.1360 Y1.5824 
G01 X1.1360 Y1.5448 
G01 X1.1367 Y1.5422 
G01 X1.1380 Y1.5399 
G01 X1.1399 Y1.5380 
G01 X1.1422 Y1.5367 
G01 X1.1448 Y1.5360 
G01 X1.1552 Y1.5360 
G01 X1.1578 Y1.5367 
G01 X1.1601 Y1.5380 
G01 X1.1620 Y1.5399 
G01 X1.1633 Y1.5422 
G01 X1.1640 Y1.5448 
G01 X1.1640 Y1.5474 
G01 X1.1640 Y1.5824 
G00 Z0.0300 
G00 X1.5640 Y1.5824 
G01 Z-0.0050 F10.00 
G01 X1.5640 Y1.5824 
G01 X1.5638 Y1.5833 
G01 X1.5633 Y1.5850 
G01 X1.5633 Y1.5850 
G01 X1.5633 Y1.5850 
G01 X1.5630 Y1.5856 
G01 X1.5620 Y1.5873 
G01 X1.5601 Y1.5892 
G01 X1.5601 Y1.5892 
G01 X1.5562 Y1.5931 
G01 X1.5552 Y1.5937 
G01 X1.5539 Y1.5944 
G01 X1.5513 Y1.5951 
G01 X1.5487 Y1.5951 
G01 X1.5477 Y1.5948 
G01 X1.5461 Y1.5944 
G01 X1.5461 Y1.5944 
G01 X1.5461 Y1.5944 
G01 X1.5454 Y1.5940 
G01 X1.5438 Y1.5931 
G01 X1.5438 Y1.5931 
G01 X1.5419 Y1.5912 
G01 X1.5380 Y1.5873 
G01 X1.5367 Y1.5850 
G01 X1.5360 Y1.5824 
G01 X1.5360 Y0.7798 
G01 X1.5367 Y0.7772 
G01 X1.5380 Y0.7749 
G01 X1.5399 Y0.7730 
G01 X1.5422 Y0.7717 
G01 X1.5448 Y0.7710 
G01 X1.5474 Y0.7710 
G01 X1.5500 Y0.7717 
G01 X1.5523 Y0.7730 
G01 X1.5620 Y0.7827 
G01 X1.5633 Y0.7850 
G01 X1.5640 Y0.7876 
G01 X1.5640 Y0.7902 
G01 X1.5640 Y1.5824 
G00 Z0.0300 
G00 X0.2069 Y1.4562 
G01 Z-0.0050 F10.00 
G01 X0.2061 Y1.4547 
G01 X0.2056 Y1.4539 
G01 X0.2056 Y1.4539 
G01 X0.2056 Y1.4539 
G01 X0.2052 Y1.4524 
G01 X0.2049 Y1.4513 
G01 X0.2049 Y1.4487 
G01 X0.2056 Y1.4461 
G01 X0.2063 Y1.4449 
G01 X0.2069 Y1.4438 
G01 X0.2108 Y1.4399 
G01 X0.2108 Y1.4399 
G01 X0.2126 Y1.4381 
G01 X0.2127 Y1.4380 
G01 X0.2127 Y1.4380 
G01 X0.2143 Y1.4371 
G01 X0.2150 Y1.4367 
G01 X0.2150 Y1.4367 
G01 X0.2150 Y1.4367 
G01 X0.2166 Y1.4363 
G01 X0.2176 Y1.4360 
G01 X0.3124 Y1.4360 
G01 X0.3150 Y1.4367 
G01 X0.3173 Y1.4380 
G01 X0.3192 Y1.4399 
G01 X0.3270 Y1.4477 
G01 X0.3283 Y1.4500 
G01 X0.3290 Y1.4526 
G01 X0.3290 Y1.4552 
G01 X0.3283 Y1.4578 
G01 X0.3270 Y1.4601 
G01 X0.3251 Y1.4620 
G01 X0.3228 Y1.4633 
G01 X0.3202 Y1.4640 
G01 X0.2176 Y1.4640 
G01 X0.2150 Y1.4633 
G01 X0.2127 Y1.4620 
G01 X0.2108 Y1.4601 
G01 X0.2088 Y1.4581 
G01 X0.2069 Y1.4562 
G01 X0.2069 Y1.4562 
G00 Z0.0300 
G00 X0.5640 Y1.5824 
G01 Z-0.0050 F10.00 
G01 X0.5640 Y1.5824 
G01 X0.5638 Y1.5833 
G01 X0.5633 Y1.5850 
G01 X0.5633 Y1.5850 
G01 X0.5633 Y1.5850 
G01 X0.5630 Y1.5856 
G01 X0.5620 Y1.5873 
G01 X0.5601 Y1.5892 
G01 X0.5601 Y1.5892 
G01 X0.5562 Y1.5931 
G01 X0.5552 Y1.5937 
G01 X0.5539 Y1.5944 
G01 X0.5513 Y1.5951 
G01 X0.5487 Y1.5951 
G01 X0.5477 Y1.5948 
G01 X0.5461 Y1.5944 
G01 X0.5461 Y1.5944 
G01 X0.5461 Y1.5944 
G01 X0.5454 Y1.5940 
G01 X0.5438 Y1.5931 
G01 X0.5438 Y1.5931 
G01 X0.5419 Y1.5912 
G01 X0.5380 Y1.5873 
G01 X0.5367 Y1.5850 
G01 X0.5360 Y1.5824 
G01 X0.5360 Y1.0376 
G01 X0.5367 Y1.0350 
G01 X0.5380 Y1.0327 
G01 X0.5477 Y1.0230 
G01 X0.5500 Y1.0217 
G01 X0.5526 Y1.0210 
G01 X0.5552 Y1.0210 
G01 X0.5578 Y1.0217 
G01 X0.5601 Y1.0230 
G01 X0.5620 Y1.0249 
G01 X0.5633 Y1.0272 
G01 X0.5640 Y1.0298 
G01 X0.5640 Y1.0324 
G01 X0.5640 Y1.5824 
G00 Z0.0300 
G00 X0.8360 Y1.5824 
G01 Z-0.0050 F10.00 
G01 X0.8360 Y0.7876 
G01 X0.8366 Y0.7854 
G01 X0.8367 Y0.7850 
G01 X0.8368 Y0.7848 
G01 X0.8380 Y0.7827 
G01 X0.8399 Y0.7808 
G01 X0.8399 Y0.7808 
G01 X0.8458 Y0.7749 
G01 X0.8458 Y0.7749 
G01 X0.8476 Y0.7731 
G01 X0.8477 Y0.7730 
G01 X0.8478 Y0.7730 
G01 X0.8500 Y0.7717 
G01 X0.8525 Y0.7710 
G01 X0.8526 Y0.7710 
G01 X0.8552 Y0.7710 
G01 X0.8577 Y0.7717 
G01 X0.8578 Y0.7717 
G01 X0.8578 Y0.7717 
G01 X0.8601 Y0.7730 
G01 X0.8620 Y0.7749 
G01 X0.8620 Y0.7749 
G01 X0.8620 Y0.7750 
G01 X0.8633 Y0.7772 
G01 X0.8640 Y0.7797 
G01 X0.8640 Y0.7798 
G01 X0.8640 Y1.5824 
G01 X0.8633 Y1.5850 
G01 X0.8620 Y1.5873 
G01 X0.8601 Y1.5892 
G01 X0.8562 Y1.5931 
G01 X0.8562 Y1.5931 
G01 X0.8553 Y1.5936 
G01 X0.8539 Y1.5944 
G01 X0.8513 Y1.5951 
G01 X0.8487 Y1.5951 
G01 X0.8478 Y1.5949 
G01 X0.8461 Y1.5944 
G01 X0.8461 Y1.5944 
G01 X0.8461 Y1.5944 
G01 X0.8455 Y1.5941 
G01 X0.8438 Y1.5931 
G01 X0.8419 Y1.5912 
G01 X0.8419 Y1.5912 
G01 X0.8380 Y1.5873 
G01 X0.8374 Y1.5863 
G01 X0.8367 Y1.5850 
G01 X0.8360 Y1.5824 
G00 Z0.0300 
G00 X1.7539 Y1.5944 
G01 Z-0.0050 F10.00 
G01 X1.7513 Y1.5951 
G01 X1.7487 Y1.5951 
G01 X1.7476 Y1.5948 
G01 X1.7461 Y1.5944 
G01 X1.7461 Y1.5944 
G01 X1.7461 Y1.5944 
G01 X1.7453 Y1.5939 
G01 X1.7438 Y1.5931 
G01 X1.7438 Y1.5931 
G01 X1.7438 Y1.5931 
G01 X1.7434 Y1.5927 
G01 X1.7419 Y1.5912 
G01 X1.7419 Y1.5912 
G01 X1.7380 Y1.5873 
G01 X1.7374 Y1.5863 
G01 X1.7367 Y1.5850 
G01 X1.7360 Y1.5824 
G01 X1.7360 Y1.0298 
G01 X1.7367 Y1.0272 
G01 X1.7380 Y1.0249 
G01 X1.7399 Y1.0230 
G01 X1.7422 Y1.0217 
G01 X1.7448 Y1.0210 
G01 X1.7474 Y1.0210 
G01 X1.7500 Y1.0217 
G01 X1.7523 Y1.0230 
G01 X1.7542 Y1.0249 
G01 X1.7542 Y1.0249 
G01 X1.7601 Y1.0308 
G01 X1.7601 Y1.0308 
G01 X1.7620 Y1.0327 
G01 X1.7633 Y1.0349 
G01 X1.7633 Y1.0350 
G01 X1.7633 Y1.0351 
G01 X1.7640 Y1.0376 
G01 X1.7640 Y1.5824 
G01 X1.7633 Y1.5850 
G01 X1.7620 Y1.5873 
G01 X1.7601 Y1.5892 
G01 X1.7581 Y1.5912 
G01 X1.7581 Y1.5912 
G01 X1.7562 Y1.5931 
G01 X1.7551 Y1.5937 
G01 X1.7539 Y1.5944 
G00 Z0.0300 
G00 X1.6367 Y0.9272 
G01 Z-0.0050 F10.00 
G01 X1.6379 Y0.9252 
G01 X1.6380 Y0.9249 
G01 X1.6381 Y0.9248 
G01 X1.6399 Y0.9230 
G01 X1.6420 Y0.9218 
G01 X1.6422 Y0.9217 
G01 X1.6426 Y0.9216 
G01 X1.6448 Y0.9210 
G01 X1.6474 Y0.9210 
G01 X1.6476 Y0.9210 
G01 X1.6500 Y0.9217 
G01 X1.6520 Y0.9229 
G01 X1.6523 Y0.9230 
G01 X1.6526 Y0.9233 
G01 X1.6542 Y0.9249 
G01 X1.6542 Y0.9249 
G01 X1.6601 Y0.9308 
G01 X1.6601 Y0.9308 
G01 X1.6620 Y0.9327 
G01 X1.6633 Y0.9349 
G01 X1.6633 Y0.9350 
G01 X1.6633 Y0.9351 
G01 X1.6640 Y0.9376 
G01 X1.6640 Y1.5824 
G01 X1.6633 Y1.5850 
G01 X1.6620 Y1.5873 
G01 X1.6601 Y1.5892 
G01 X1.6562 Y1.5931 
G01 X1.6539 Y1.5944 
G01 X1.6513 Y1.5951 
G01 X1.6487 Y1.5951 
G01 X1.6461 Y1.5944 
G01 X1.6438 Y1.5931 
G01 X1.6419 Y1.5912 
G01 X1.6380 Y1.5873 
G01 X1.6367 Y1.5850 
G01 X1.6360 Y1.5824 
G01 X1.6360 Y0.9298 
G01 X1.6360 Y0.9296 
G01 X1.6367 Y0.9272 
G00 Z0.0300 
G00 X1.7702 Y0.9360 
G01 Z-0.0050 F10.00 
G01 X1.7728 Y0.9367 
G01 X1.7751 Y0.9380 
G01 X1.7770 Y0.9399 
G01 X1.7783 Y0.9422 
G01 X1.7790 Y0.9448 
G01 X1.7790 Y0.9474 
G01 X1.7783 Y0.9500 
G01 X1.7770 Y0.9523 
G01 X1.7751 Y0.9542 
G01 X1.7751 Y0.9542 
G01 X1.7542 Y0.9751 
G01 X1.7542 Y0.9751 
G01 X1.7523 Y0.9770 
G01 X1.7500 Y0.9783 
G01 X1.7474 Y0.9790 
G01 X1.7448 Y0.9790 
G01 X1.7422 Y0.9783 
G01 X1.7399 Y0.9770 
G01 X1.7380 Y0.9751 
G01 X1.7367 Y0.9728 
G01 X1.7360 Y0.9702 
G01 X1.7360 Y0.9448 
G01 X1.7367 Y0.9422 
G01 X1.7380 Y0.9399 
G01 X1.7399 Y0.9380 
G01 X1.7422 Y0.9367 
G01 X1.7448 Y0.9360 
G01 X1.7474 Y0.9360 
G01 X1.7702 Y0.9360 
G00 Z0.0300 
G00 X0.1835 Y1.9351 
G01 Z-0.0050 F10.00 
G01 X0.1165 Y1.9351 
G01 X0.1098 Y1.9338 
G01 X0.1034 Y1.9311 
G01 X0.0976 Y1.9273 
G01 X0.0927 Y1.9224 
G01 X0.0889 Y1.9166 
G01 X0.0862 Y1.9102 
G01 X0.0849 Y1.9035 
G01 X0.0849 Y1.8965 
G01 X0.0862 Y1.8898 
G01 X0.0889 Y1.8834 
G01 X0.0927 Y1.8776 
G01 X0.0976 Y1.8727 
G01 X0.1034 Y1.8689 
G01 X0.1098 Y1.8662 
G01 X0.1165 Y1.8649 
G01 X0.1835 Y1.8649 
G01 X0.1902 Y1.8662 
G01 X0.1966 Y1.8689 
G01 X0.2024 Y1.8727 
G01 X0.2073 Y1.8776 
G01 X0.2111 Y1.8834 
G01 X0.2138 Y1.8898 
G01 X0.2151 Y1.8965 
G01 X0.2151 Y1.9035 
G01 X0.2138 Y1.9102 
G01 X0.2111 Y1.9166 
G01 X0.2073 Y1.9224 
G01 X0.2024 Y1.9273 
G01 X0.1966 Y1.9311 
G01 X0.1902 Y1.9338 
G01 X0.1835 Y1.9351 
G00 Z0.0300 
G00 X0.1835 Y1.8351 
G01 Z-0.0050 F10.00 
G01 X0.1165 Y1.8351 
G01 X0.1098 Y1.8338 
G01 X0.1034 Y1.8311 
G01 X0.0976 Y1.8273 
G01 X0.0927 Y1.8224 
G01 X0.0889 Y1.8166 
G01 X0.0862 Y1.8102 
G01 X0.0849 Y1.8035 
G01 X0.0849 Y1.7965 
G01 X0.0862 Y1.7898 
G01 X0.0889 Y1.7834 
G01 X0.0927 Y1.7776 
G01 X0.0976 Y1.7727 
G01 X0.1034 Y1.7689 
G01 X0.1098 Y1.7662 
G01 X0.1165 Y1.7649 
G01 X0.1835 Y1.7649 
G01 X0.1902 Y1.7662 
G01 X0.1966 Y1.7689 
G01 X0.2024 Y1.7727 
G01 X0.2073 Y1.7776 
G01 X0.2111 Y1.7834 
G01 X0.2138 Y1.7898 
G01 X0.2151 Y1.7965 
G01 X0.2151 Y1.8035 
G01 X0.2138 Y1.8102 
G01 X0.2111 Y1.8166 
G01 X0.2073 Y1.8224 
G01 X0.2024 Y1.8273 
G01 X0.1966 Y1.8311 
G01 X0.1902 Y1.8338 
G01 X0.1835 Y1.8351 
G00 Z0.0300 
G00 X0.1835 Y1.7351 
G01 Z-0.0050 F10.00 
G01 X0.1165 Y1.7351 
G01 X0.1098 Y1.7338 
G01 X0.1034 Y1.7311 
G01 X0.0976 Y1.7273 
G01 X0.0927 Y1.7224 
G01 X0.0889 Y1.7166 
G01 X0.0862 Y1.7102 
G01 X0.0849 Y1.7035 
G01 X0.0849 Y1.6965 
G01 X0.0862 Y1.6898 
G01 X0.0889 Y1.6834 
G01 X0.0927 Y1.6776 
G01 X0.0976 Y1.6727 
G01 X0.1034 Y1.6689 
G01 X0.1098 Y1.6662 
G01 X0.1165 Y1.6649 
G01 X0.1835 Y1.6649 
G01 X0.1902 Y1.6662 
G01 X0.1966 Y1.6689 
G01 X0.2024 Y1.6727 
G01 X0.2073 Y1.6776 
G01 X0.2111 Y1.6834 
G01 X0.2138 Y1.6898 
G01 X0.2151 Y1.6965 
G01 X0.2151 Y1.7035 
G01 X0.2138 Y1.7102 
G01 X0.2111 Y1.7166 
G01 X0.2073 Y1.7224 
G01 X0.2024 Y1.7273 
G01 X0.1966 Y1.7311 
G01 X0.1902 Y1.7338 
G01 X0.1835 Y1.7351 
G00 Z0.0300 
G00 X0.1835 Y1.6351 
G01 Z-0.0050 F10.00 
G01 X0.1165 Y1.6351 
G01 X0.1098 Y1.6338 
G01 X0.1034 Y1.6311 
G01 X0.0976 Y1.6273 
G01 X0.0927 Y1.6224 
G01 X0.0889 Y1.6166 
G01 X0.0862 Y1.6102 
G01 X0.0849 Y1.6035 
G01 X0.0849 Y1.5965 
G01 X0.0862 Y1.5898 
G01 X0.0889 Y1.5834 
G01 X0.0927 Y1.5776 
G01 X0.0976 Y1.5727 
G01 X0.1034 Y1.5689 
G01 X0.1098 Y1.5662 
G01 X0.1165 Y1.5649 
G01 X0.1835 Y1.5649 
G01 X0.1902 Y1.5662 
G01 X0.1966 Y1.5689 
G01 X0.2024 Y1.5727 
G01 X0.2073 Y1.5776 
G01 X0.2111 Y1.5834 
G01 X0.2138 Y1.5898 
G01 X0.2151 Y1.5965 
G01 X0.2151 Y1.6035 
G01 X0.2138 Y1.6102 
G01 X0.2111 Y1.6166 
G01 X0.2073 Y1.6224 
G01 X0.2024 Y1.6273 
G01 X0.1966 Y1.6311 
G01 X0.1902 Y1.6338 
G01 X0.1835 Y1.6351 
G00 Z0.0300 
G00 X0.1835 Y1.5351 
G01 Z-0.0050 F10.00 
G01 X0.1165 Y1.5351 
G01 X0.1098 Y1.5338 
G01 X0.1034 Y1.5311 
G01 X0.0976 Y1.5273 
G01 X0.0927 Y1.5224 
G01 X0.0889 Y1.5166 
G01 X0.0862 Y1.5102 
G01 X0.0849 Y1.5035 
G01 X0.0849 Y1.4965 
G01 X0.0862 Y1.4898 
G01 X0.0889 Y1.4834 
G01 X0.0927 Y1.4776 
G01 X0.0976 Y1.4727 
G01 X0.1034 Y1.4689 
G01 X0.1098 Y1.4662 
G01 X0.1165 Y1.4649 
G01 X0.1835 Y1.4649 
G01 X0.1902 Y1.4662 
G01 X0.1966 Y1.4689 
G01 X0.2024 Y1.4727 
G01 X0.2073 Y1.4776 
G01 X0.2081 Y1.4789 
G01 X0.3528 Y1.4789 
G01 X0.3581 Y1.4803 
G01 X0.3630 Y1.4831 
G01 X0.3669 Y1.4870 
G01 X0.3697 Y1.4919 
G01 X0.3711 Y1.4972 
G01 X0.3711 Y1.7789 
G01 X0.6789 Y1.7789 
G01 X0.6789 Y1.7081 
G01 X0.6776 Y1.7073 
G01 X0.6727 Y1.7024 
G01 X0.6689 Y1.6966 
G01 X0.6662 Y1.6902 
G01 X0.6649 Y1.6835 
G01 X0.6649 Y1.6165 
G01 X0.6662 Y1.6098 
G01 X0.6689 Y1.6034 
G01 X0.6727 Y1.5976 
G01 X0.6776 Y1.5927 
G01 X0.6834 Y1.5889 
G01 X0.6898 Y1.5862 
G01 X0.6965 Y1.5849 
G01 X0.7035 Y1.5849 
G01 X0.7102 Y1.5862 
G01 X0.7166 Y1.5889 
G01 X0.7224 Y1.5927 
G01 X0.7273 Y1.5976 
G01 X0.7311 Y1.6034 
G01 X0.7338 Y1.6098 
G01 X0.7351 Y1.6165 
G01 X0.7351 Y1.6835 
G01 X0.7338 Y1.6902 
G01 X0.7311 Y1.6966 
G01 X0.7273 Y1.7024 
G01 X0.7224 Y1.7073 
G01 X0.7211 Y1.7081 
G01 X0.7211 Y1.8028 
G01 X0.7197 Y1.8081 
G01 X0.7169 Y1.8130 
G01 X0.7130 Y1.8169 
G01 X0.7081 Y1.8197 
G01 X0.7028 Y1.8211 
G01 X0.3472 Y1.8211 
G01 X0.3419 Y1.8197 
G01 X0.3370 Y1.8169 
G01 X0.3331 Y1.8130 
G01 X0.3303 Y1.8081 
G01 X0.3289 Y1.8028 
G01 X0.3289 Y1.5211 
G01 X0.2081 Y1.5211 
G01 X0.2073 Y1.5224 
G01 X0.2024 Y1.5273 
G01 X0.1966 Y1.5311 
G01 X0.1902 Y1.5338 
G01 X0.1835 Y1.5351 
G00 Z0.0300 
G00 X0.1835 Y1.4351 
G01 Z-0.0050 F10.00 
G01 X0.1165 Y1.4351 
G01 X0.1098 Y1.4338 
G01 X0.1034 Y1.4311 
G01 X0.0976 Y1.4273 
G01 X0.0927 Y1.4224 
G01 X0.0889 Y1.4166 
G01 X0.0862 Y1.4102 
G01 X0.0849 Y1.4035 
G01 X0.0849 Y1.3965 
G01 X0.0862 Y1.3898 
G01 X0.0889 Y1.3834 
G01 X0.0927 Y1.3776 
G01 X0.0976 Y1.3727 
G01 X0.1034 Y1.3689 
G01 X0.1098 Y1.3662 
G01 X0.1165 Y1.3649 
G01 X0.1835 Y1.3649 
G01 X0.1902 Y1.3662 
G01 X0.1966 Y1.3689 
G01 X0.2024 Y1.3727 
G01 X0.2073 Y1.3776 
G01 X0.2081 Y1.3789 
G01 X0.3215 Y1.3789 
G01 X0.3355 Y1.3649 
G01 X0.3645 Y1.3649 
G01 X0.3851 Y1.3855 
G01 X0.3851 Y1.4145 
G01 X0.3645 Y1.4351 
G01 X0.3355 Y1.4351 
G01 X0.3215 Y1.4211 
G01 X0.2081 Y1.4211 
G01 X0.2073 Y1.4224 
G01 X0.2024 Y1.4273 
G01 X0.1966 Y1.4311 
G01 X0.1902 Y1.4338 
G01 X0.1835 Y1.4351 
G00 Z0.0300 
G00 X0.1835 Y1.3351 
G01 Z-0.0050 F10.00 
G01 X0.1165 Y1.3351 
G01 X0.1098 Y1.3338 
G01 X0.1034 Y1.3311 
G01 X0.0976 Y1.3273 
G01 X0.0927 Y1.3224 
G01 X0.0889 Y1.3166 
G01 X0.0862 Y1.3102 
G01 X0.0849 Y1.3035 
G01 X0.0849 Y1.2965 
G01 X0.0862 Y1.2898 
G01 X0.0889 Y1.2834 
G01 X0.0927 Y1.2776 
G01 X0.0976 Y1.2727 
G01 X0.1034 Y1.2689 
G01 X0.1098 Y1.2662 
G01 X0.1165 Y1.2649 
G01 X0.1835 Y1.2649 
G01 X0.1902 Y1.2662 
G01 X0.1966 Y1.2689 
G01 X0.2024 Y1.2727 
G01 X0.2073 Y1.2776 
G01 X0.2111 Y1.2834 
G01 X0.2138 Y1.2898 
G01 X0.2151 Y1.2965 
G01 X0.2151 Y1.3035 
G01 X0.2138 Y1.3102 
G01 X0.2111 Y1.3166 
G01 X0.2073 Y1.3224 
G01 X0.2024 Y1.3273 
G01 X0.1966 Y1.3311 
G01 X0.1902 Y1.3338 
G01 X0.1835 Y1.3351 
G00 Z0.0300 
G00 X0.1835 Y1.2351 
G01 Z-0.0050 F10.00 
G01 X0.1165 Y1.2351 
G01 X0.1098 Y1.2338 
G01 X0.1034 Y1.2311 
G01 X0.0976 Y1.2273 
G01 X0.0927 Y1.2224 
G01 X0.0889 Y1.2166 
G01 X0.0862 Y1.2102 
G01 X0.0849 Y1.2035 
G01 X0.0849 Y1.1965 
G01 X0.0862 Y1.1898 
G01 X0.0889 Y1.1834 
G01 X0.0927 Y1.1776 
G01 X0.0976 Y1.1727 
G01 X0.1034 Y1.1689 
G01 X0.1098 Y1.1662 
G01 X0.1165 Y1.1649 
G01 X0.1835 Y1.1649 
G01 X0.1902 Y1.1662 
G01 X0.1966 Y1.1689 
G01 X0.2024 Y1.1727 
G01 X0.2073 Y1.1776 
G01 X0.2111 Y1.1834 
G01 X0.2138 Y1.1898 
G01 X0.2151 Y1.1965 
G01 X0.2151 Y1.2035 
G01 X0.2138 Y1.2102 
G01 X0.2111 Y1.2166 
G01 X0.2073 Y1.2224 
G01 X0.2024 Y1.2273 
G01 X0.1966 Y1.2311 
G01 X0.1902 Y1.2338 
G01 X0.1835 Y1.2351 
G00 Z0.0300 
G00 X2.0835 Y1.2351 
G01 Z-0.0050 F10.00 
G01 X2.0165 Y1.2351 
G01 X2.0098 Y1.2338 
G01 X2.0034 Y1.2311 
G01 X1.9976 Y1.2273 
G01 X1.9927 Y1.2224 
G01 X1.9889 Y1.2166 
G01 X1.9862 Y1.2102 
G01 X1.9849 Y1.2035 
G01 X1.9849 Y1.1965 
G01 X1.9862 Y1.1898 
G01 X1.9889 Y1.1834 
G01 X1.9927 Y1.1776 
G01 X1.9976 Y1.1727 
G01 X2.0034 Y1.1689 
G01 X2.0098 Y1.1662 
G01 X2.0165 Y1.1649 
G01 X2.0835 Y1.1649 
G01 X2.0902 Y1.1662 
G01 X2.0966 Y1.1689 
G01 X2.1024 Y1.1727 
G01 X2.1073 Y1.1776 
G01 X2.1111 Y1.1834 
G01 X2.1138 Y1.1898 
G01 X2.1151 Y1.1965 
G01 X2.1151 Y1.2035 
G01 X2.1138 Y1.2102 
G01 X2.1111 Y1.2166 
G01 X2.1073 Y1.2224 
G01 X2.1024 Y1.2273 
G01 X2.0966 Y1.2311 
G01 X2.0902 Y1.2338 
G01 X2.0835 Y1.2351 
G00 Z0.0300 
G00 X2.0835 Y1.1351 
G01 Z-0.0050 F10.00 
G01 X2.0165 Y1.1351 
G01 X2.0098 Y1.1338 
G01 X2.0034 Y1.1311 
G01 X1.9976 Y1.1273 
G01 X1.9927 Y1.1224 
G01 X1.9889 Y1.1166 
G01 X1.9862 Y1.1102 
G01 X1.9849 Y1.1035 
G01 X1.9849 Y1.0965 
G01 X1.9862 Y1.0898 
G01 X1.9889 Y1.0834 
G01 X1.9927 Y1.0776 
G01 X1.9976 Y1.0727 
G01 X2.0034 Y1.0689 
G01 X2.0098 Y1.0662 
G01 X2.0165 Y1.0649 
G01 X2.0835 Y1.0649 
G01 X2.0902 Y1.0662 
G01 X2.0966 Y1.0689 
G01 X2.1024 Y1.0727 
G01 X2.1073 Y1.0776 
G01 X2.1111 Y1.0834 
G01 X2.1138 Y1.0898 
G01 X2.1151 Y1.0965 
G01 X2.1151 Y1.1035 
G01 X2.1138 Y1.1102 
G01 X2.1111 Y1.1166 
G01 X2.1073 Y1.1224 
G01 X2.1024 Y1.1273 
G01 X2.0966 Y1.1311 
G01 X2.0902 Y1.1338 
G01 X2.0835 Y1.1351 
G00 Z0.0300 
G00 X2.0835 Y1.0351 
G01 Z-0.0050 F10.00 
G01 X2.0165 Y1.0351 
G01 X2.0098 Y1.0338 
G01 X2.0034 Y1.0311 
G01 X1.9976 Y1.0273 
G01 X1.9927 Y1.0224 
G01 X1.9919 Y1.0211 
G01 X1.8285 Y1.0211 
G01 X1.8211 Y1.0285 
G01 X1.8211 Y1.5919 
G01 X1.8224 Y1.5927 
G01 X1.8273 Y1.5976 
G01 X1.8311 Y1.6034 
G01 X1.8338 Y1.6098 
G01 X1.8351 Y1.6165 
G01 X1.8351 Y1.6835 
G01 X1.8338 Y1.6902 
G01 X1.8311 Y1.6966 
G01 X1.8273 Y1.7024 
G01 X1.8224 Y1.7073 
G01 X1.8166 Y1.7111 
G01 X1.8102 Y1.7138 
G01 X1.8035 Y1.7151 
G01 X1.7965 Y1.7151 
G01 X1.7898 Y1.7138 
G01 X1.7834 Y1.7111 
G01 X1.7776 Y1.7073 
G01 X1.7727 Y1.7024 
G01 X1.7689 Y1.6966 
G01 X1.7662 Y1.6902 
G01 X1.7649 Y1.6835 
G01 X1.7649 Y1.6165 
G01 X1.7662 Y1.6098 
G01 X1.7689 Y1.6034 
G01 X1.7727 Y1.5976 
G01 X1.7776 Y1.5927 
G01 X1.7789 Y1.5919 
G01 X1.7789 Y1.0285 
G01 X1.7649 Y1.0145 
G01 X1.7649 Y0.9855 
G01 X1.7855 Y0.9649 
G01 X1.8145 Y0.9649 
G01 X1.8285 Y0.9789 
G01 X1.9919 Y0.9789 
G01 X1.9927 Y0.9776 
G01 X1.9976 Y0.9727 
G01 X2.0034 Y0.9689 
G01 X2.0098 Y0.9662 
G01 X2.0165 Y0.9649 
G01 X2.0835 Y0.9649 
G01 X2.0902 Y0.9662 
G01 X2.0966 Y0.9689 
G01 X2.1024 Y0.9727 
G01 X2.1073 Y0.9776 
G01 X2.1111 Y0.9834 
G01 X2.1138 Y0.9898 
G01 X2.1151 Y0.9965 
G01 X2.1151 Y1.0035 
G01 X2.1138 Y1.0102 
G01 X2.1111 Y1.0166 
G01 X2.1073 Y1.0224 
G01 X2.1024 Y1.0273 
G01 X2.0966 Y1.0311 
G01 X2.0902 Y1.0338 
G01 X2.0835 Y1.0351 
G00 Z0.0300 
G00 X2.0835 Y0.9351 
G01 Z-0.0050 F10.00 
G01 X2.0165 Y0.9351 
G01 X2.0098 Y0.9338 
G01 X2.0034 Y0.9311 
G01 X1.9976 Y0.9273 
G01 X1.9927 Y0.9224 
G01 X1.9919 Y0.9211 
G01 X1.7285 Y0.9211 
G01 X1.7211 Y0.9285 
G01 X1.7211 Y1.5919 
G01 X1.7224 Y1.5927 
G01 X1.7273 Y1.5976 
G01 X1.7311 Y1.6034 
G01 X1.7338 Y1.6098 
G01 X1.7351 Y1.6165 
G01 X1.7351 Y1.6835 
G01 X1.7338 Y1.6902 
G01 X1.7311 Y1.6966 
G01 X1.7273 Y1.7024 
G01 X1.7224 Y1.7073 
G01 X1.7166 Y1.7111 
G01 X1.7102 Y1.7138 
G01 X1.7035 Y1.7151 
G01 X1.6965 Y1.7151 
G01 X1.6898 Y1.7138 
G01 X1.6834 Y1.7111 
G01 X1.6776 Y1.7073 
G01 X1.6727 Y1.7024 
G01 X1.6689 Y1.6966 
G01 X1.6662 Y1.6902 
G01 X1.6649 Y1.6835 
G01 X1.6649 Y1.6165 
G01 X1.6662 Y1.6098 
G01 X1.6689 Y1.6034 
G01 X1.6727 Y1.5976 
G01 X1.6776 Y1.5927 
G01 X1.6789 Y1.5919 
G01 X1.6789 Y0.9285 
G01 X1.6649 Y0.9145 
G01 X1.6649 Y0.8855 
G01 X1.6855 Y0.8649 
G01 X1.7145 Y0.8649 
G01 X1.7285 Y0.8789 
G01 X1.9919 Y0.8789 
G01 X1.9927 Y0.8776 
G01 X1.9976 Y0.8727 
G01 X2.0034 Y0.8689 
G01 X2.0098 Y0.8662 
G01 X2.0165 Y0.8649 
G01 X2.0835 Y0.8649 
G01 X2.0902 Y0.8662 
G01 X2.0966 Y0.8689 
G01 X2.1024 Y0.8727 
G01 X2.1073 Y0.8776 
G01 X2.1111 Y0.8834 
G01 X2.1138 Y0.8898 
G01 X2.1151 Y0.8965 
G01 X2.1151 Y0.9035 
G01 X2.1138 Y0.9102 
G01 X2.1111 Y0.9166 
G01 X2.1073 Y0.9224 
G01 X2.1024 Y0.9273 
G01 X2.0966 Y0.9311 
G01 X2.0902 Y0.9338 
G01 X2.0835 Y0.9351 
G00 Z0.0300 
G00 X2.0835 Y0.8351 
G01 Z-0.0050 F10.00 
G01 X2.0165 Y0.8351 
G01 X2.0098 Y0.8338 
G01 X2.0034 Y0.8311 
G01 X1.9976 Y0.8273 
G01 X1.9927 Y0.8224 
G01 X1.9889 Y0.8166 
G01 X1.9862 Y0.8102 
G01 X1.9849 Y0.8035 
G01 X1.9849 Y0.7965 
G01 X1.9862 Y0.7898 
G01 X1.9889 Y0.7834 
G01 X1.9927 Y0.7776 
G01 X1.9976 Y0.7727 
G01 X2.0034 Y0.7689 
G01 X2.0098 Y0.7662 
G01 X2.0165 Y0.7649 
G01 X2.0835 Y0.7649 
G01 X2.0902 Y0.7662 
G01 X2.0966 Y0.7689 
G01 X2.1024 Y0.7727 
G01 X2.1073 Y0.7776 
G01 X2.1111 Y0.7834 
G01 X2.1138 Y0.7898 
G01 X2.1151 Y0.7965 
G01 X2.1151 Y0.8035 
G01 X2.1138 Y0.8102 
G01 X2.1111 Y0.8166 
G01 X2.1073 Y0.8224 
G01 X2.1024 Y0.8273 
G01 X2.0966 Y0.8311 
G01 X2.0902 Y0.8338 
G01 X2.0835 Y0.8351 
G00 Z0.0300 
G00 X2.0835 Y0.7351 
G01 Z-0.0050 F10.00 
G01 X2.0165 Y0.7351 
G01 X2.0098 Y0.7338 
G01 X2.0034 Y0.7311 
G01 X1.9976 Y0.7273 
G01 X1.9927 Y0.7224 
G01 X1.9889 Y0.7166 
G01 X1.9862 Y0.7102 
G01 X1.9849 Y0.7035 
G01 X1.9849 Y0.6965 
G01 X1.9862 Y0.6898 
G01 X1.9889 Y0.6834 
G01 X1.9927 Y0.6776 
G01 X1.9976 Y0.6727 
G01 X2.0034 Y0.6689 
G01 X2.0098 Y0.6662 
G01 X2.0165 Y0.6649 
G01 X2.0835 Y0.6649 
G01 X2.0902 Y0.6662 
G01 X2.0966 Y0.6689 
G01 X2.1024 Y0.6727 
G01 X2.1073 Y0.6776 
G01 X2.1111 Y0.6834 
G01 X2.1138 Y0.6898 
G01 X2.1151 Y0.6965 
G01 X2.1151 Y0.7035 
G01 X2.1138 Y0.7102 
G01 X2.1111 Y0.7166 
G01 X2.1073 Y0.7224 
G01 X2.1024 Y0.7273 
G01 X2.0966 Y0.7311 
G01 X2.0902 Y0.7338 
G01 X2.0835 Y0.7351 
G00 Z0.0300 
G00 X2.0835 Y0.6351 
G01 Z-0.0050 F10.00 
G01 X2.0165 Y0.6351 
G01 X2.0098 Y0.6338 
G01 X2.0034 Y0.6311 
G01 X1.9976 Y0.6273 
G01 X1.9927 Y0.6224 
G01 X1.9889 Y0.6166 
G01 X1.9862 Y0.6102 
G01 X1.9849 Y0.6035 
G01 X1.9849 Y0.5965 
G01 X1.9862 Y0.5898 
G01 X1.9889 Y0.5834 
G01 X1.9927 Y0.5776 
G01 X1.9976 Y0.5727 
G01 X2.0034 Y0.5689 
G01 X2.0098 Y0.5662 
G01 X2.0165 Y0.5649 
G01 X2.0835 Y0.5649 
G01 X2.0902 Y0.5662 
G01 X2.0966 Y0.5689 
G01 X2.1024 Y0.5727 
G01 X2.1073 Y0.5776 
G01 X2.1111 Y0.5834 
G01 X2.1138 Y0.5898 
G01 X2.1151 Y0.5965 
G01 X2.1151 Y0.6035 
G01 X2.1138 Y0.6102 
G01 X2.1111 Y0.6166 
G01 X2.1073 Y0.6224 
G01 X2.1024 Y0.6273 
G01 X2.0966 Y0.6311 
G01 X2.0902 Y0.6338 
G01 X2.0835 Y0.6351 
G00 Z0.0300 
G00 X2.0835 Y0.5351 
G01 Z-0.0050 F10.00 
G01 X2.0165 Y0.5351 
G01 X2.0098 Y0.5338 
G01 X2.0034 Y0.5311 
G01 X1.9976 Y0.5273 
G01 X1.9927 Y0.5224 
G01 X1.9889 Y0.5166 
G01 X1.9862 Y0.5102 
G01 X1.9849 Y0.5035 
G01 X1.9849 Y0.4965 
G01 X1.9862 Y0.4898 
G01 X1.9889 Y0.4834 
G01 X1.9927 Y0.4776 
G01 X1.9976 Y0.4727 
G01 X2.0034 Y0.4689 
G01 X2.0098 Y0.4662 
G01 X2.0165 Y0.4649 
G01 X2.0835 Y0.4649 
G01 X2.0902 Y0.4662 
G01 X2.0966 Y0.4689 
G01 X2.1024 Y0.4727 
G01 X2.1073 Y0.4776 
G01 X2.1111 Y0.4834 
G01 X2.1138 Y0.4898 
G01 X2.1151 Y0.4965 
G01 X2.1151 Y0.5035 
G01 X2.1138 Y0.5102 
G01 X2.1111 Y0.5166 
G01 X2.1073 Y0.5224 
G01 X2.1024 Y0.5273 
G01 X2.0966 Y0.5311 
G01 X2.0902 Y0.5338 
G01 X2.0835 Y0.5351 
G00 Z0.0300 
G00 X0.1835 Y1.0851 
G01 Z-0.0050 F10.00 
G01 X0.1165 Y1.0851 
G01 X0.1098 Y1.0838 
G01 X0.1034 Y1.0811 
G01 X0.0976 Y1.0773 
G01 X0.0927 Y1.0724 
G01 X0.0889 Y1.0666 
G01 X0.0862 Y1.0602 
G01 X0.0849 Y1.0535 
G01 X0.0849 Y1.0465 
G01 X0.0862 Y1.0398 
G01 X0.0889 Y1.0334 
G01 X0.0927 Y1.0276 
G01 X0.0976 Y1.0227 
G01 X0.1034 Y1.0189 
G01 X0.1098 Y1.0162 
G01 X0.1165 Y1.0149 
G01 X0.1835 Y1.0149 
G01 X0.1902 Y1.0162 
G01 X0.1966 Y1.0189 
G01 X0.2024 Y1.0227 
G01 X0.2073 Y1.0276 
G01 X0.2111 Y1.0334 
G01 X0.2138 Y1.0398 
G01 X0.2151 Y1.0465 
G01 X0.2151 Y1.0535 
G01 X0.2138 Y1.0602 
G01 X0.2111 Y1.0666 
G01 X0.2073 Y1.0724 
G01 X0.2024 Y1.0773 
G01 X0.1966 Y1.0811 
G01 X0.1902 Y1.0838 
G01 X0.1835 Y1.0851 
G00 Z0.0300 
G00 X0.1835 Y0.9851 
G01 Z-0.0050 F10.00 
G01 X0.1165 Y0.9851 
G01 X0.1098 Y0.9838 
G01 X0.1034 Y0.9811 
G01 X0.0976 Y0.9773 
G01 X0.0927 Y0.9724 
G01 X0.0889 Y0.9666 
G01 X0.0862 Y0.9602 
G01 X0.0849 Y0.9535 
G01 X0.0849 Y0.9465 
G01 X0.0862 Y0.9398 
G01 X0.0889 Y0.9334 
G01 X0.0927 Y0.9276 
G01 X0.0976 Y0.9227 
G01 X0.1034 Y0.9189 
G01 X0.1098 Y0.9162 
G01 X0.1165 Y0.9149 
G01 X0.1835 Y0.9149 
G01 X0.1902 Y0.9162 
G01 X0.1966 Y0.9189 
G01 X0.2024 Y0.9227 
G01 X0.2073 Y0.9276 
G01 X0.2111 Y0.9334 
G01 X0.2138 Y0.9398 
G01 X0.2151 Y0.9465 
G01 X0.2151 Y0.9535 
G01 X0.2138 Y0.9602 
G01 X0.2111 Y0.9666 
G01 X0.2073 Y0.9724 
G01 X0.2024 Y0.9773 
G01 X0.1966 Y0.9811 
G01 X0.1902 Y0.9838 
G01 X0.1835 Y0.9851 
G00 Z0.0300 
G00 X0.1835 Y0.8851 
G01 Z-0.0050 F10.00 
G01 X0.1165 Y0.8851 
G01 X0.1098 Y0.8838 
G01 X0.1034 Y0.8811 
G01 X0.0976 Y0.8773 
G01 X0.0927 Y0.8724 
G01 X0.0889 Y0.8666 
G01 X0.0862 Y0.8602 
G01 X0.0849 Y0.8535 
G01 X0.0849 Y0.8465 
G01 X0.0862 Y0.8398 
G01 X0.0889 Y0.8334 
G01 X0.0927 Y0.8276 
G01 X0.0976 Y0.8227 
G01 X0.1034 Y0.8189 
G01 X0.1098 Y0.8162 
G01 X0.1165 Y0.8149 
G01 X0.1835 Y0.8149 
G01 X0.1902 Y0.8162 
G01 X0.1966 Y0.8189 
G01 X0.2024 Y0.8227 
G01 X0.2073 Y0.8276 
G01 X0.2111 Y0.8334 
G01 X0.2138 Y0.8398 
G01 X0.2151 Y0.8465 
G01 X0.2151 Y0.8535 
G01 X0.2138 Y0.8602 
G01 X0.2111 Y0.8666 
G01 X0.2073 Y0.8724 
G01 X0.2024 Y0.8773 
G01 X0.1966 Y0.8811 
G01 X0.1902 Y0.8838 
G01 X0.1835 Y0.8851 
G00 Z0.0300 
G00 X0.1835 Y0.7851 
G01 Z-0.0050 F10.00 
G01 X0.1165 Y0.7851 
G01 X0.1098 Y0.7838 
G01 X0.1034 Y0.7811 
G01 X0.0976 Y0.7773 
G01 X0.0927 Y0.7724 
G01 X0.0889 Y0.7666 
G01 X0.0862 Y0.7602 
G01 X0.0849 Y0.7535 
G01 X0.0849 Y0.7465 
G01 X0.0862 Y0.7398 
G01 X0.0889 Y0.7334 
G01 X0.0927 Y0.7276 
G01 X0.0976 Y0.7227 
G01 X0.1034 Y0.7189 
G01 X0.1098 Y0.7162 
G01 X0.1165 Y0.7149 
G01 X0.1835 Y0.7149 
G01 X0.1902 Y0.7162 
G01 X0.1966 Y0.7189 
G01 X0.2024 Y0.7227 
G01 X0.2073 Y0.7276 
G01 X0.2081 Y0.7289 
G01 X0.7715 Y0.7289 
G01 X0.7855 Y0.7149 
G01 X0.8145 Y0.7149 
G01 X0.8351 Y0.7355 
G01 X0.8351 Y0.7645 
G01 X0.8211 Y0.7785 
G01 X0.8211 Y1.5919 
G01 X0.8224 Y1.5927 
G01 X0.8273 Y1.5976 
G01 X0.8311 Y1.6034 
G01 X0.8338 Y1.6098 
G01 X0.8351 Y1.6165 
G01 X0.8351 Y1.6835 
G01 X0.8338 Y1.6902 
G01 X0.8311 Y1.6966 
G01 X0.8273 Y1.7024 
G01 X0.8224 Y1.7073 
G01 X0.8166 Y1.7111 
G01 X0.8102 Y1.7138 
G01 X0.8035 Y1.7151 
G01 X0.7965 Y1.7151 
G01 X0.7898 Y1.7138 
G01 X0.7834 Y1.7111 
G01 X0.7776 Y1.7073 
G01 X0.7727 Y1.7024 
G01 X0.7689 Y1.6966 
G01 X0.7662 Y1.6902 
G01 X0.7649 Y1.6835 
G01 X0.7649 Y1.6165 
G01 X0.7662 Y1.6098 
G01 X0.7689 Y1.6034 
G01 X0.7727 Y1.5976 
G01 X0.7776 Y1.5927 
G01 X0.7789 Y1.5919 
G01 X0.7789 Y0.7785 
G01 X0.7715 Y0.7711 
G01 X0.2081 Y0.7711 
G01 X0.2073 Y0.7724 
G01 X0.2024 Y0.7773 
G01 X0.1966 Y0.7811 
G01 X0.1902 Y0.7838 
G01 X0.1835 Y0.7851 
G00 Z0.0300 
G00 X0.1835 Y0.6851 
G01 Z-0.0050 F10.00 
G01 X0.1165 Y0.6851 
G01 X0.1098 Y0.6838 
G01 X0.1034 Y0.6811 
G01 X0.0976 Y0.6773 
G01 X0.0927 Y0.6724 
G01 X0.0889 Y0.6666 
G01 X0.0862 Y0.6602 
G01 X0.0849 Y0.6535 
G01 X0.0849 Y0.6465 
G01 X0.0862 Y0.6398 
G01 X0.0889 Y0.6334 
G01 X0.0927 Y0.6276 
G01 X0.0976 Y0.6227 
G01 X0.1034 Y0.6189 
G01 X0.1098 Y0.6162 
G01 X0.1165 Y0.6149 
G01 X0.1835 Y0.6149 
G01 X0.1902 Y0.6162 
G01 X0.1966 Y0.6189 
G01 X0.2024 Y0.6227 
G01 X0.2073 Y0.6276 
G01 X0.2081 Y0.6289 
G01 X0.8715 Y0.6289 
G01 X0.8855 Y0.6149 
G01 X0.9145 Y0.6149 
G01 X0.9351 Y0.6355 
G01 X0.9351 Y0.6645 
G01 X0.9211 Y0.6785 
G01 X0.9211 Y1.5919 
G01 X0.9224 Y1.5927 
G01 X0.9273 Y1.5976 
G01 X0.9311 Y1.6034 
G01 X0.9338 Y1.6098 
G01 X0.9351 Y1.6165 
G01 X0.9351 Y1.6835 
G01 X0.9338 Y1.6902 
G01 X0.9311 Y1.6966 
G01 X0.9273 Y1.7024 
G01 X0.9224 Y1.7073 
G01 X0.9166 Y1.7111 
G01 X0.9102 Y1.7138 
G01 X0.9035 Y1.7151 
G01 X0.8965 Y1.7151 
G01 X0.8898 Y1.7138 
G01 X0.8834 Y1.7111 
G01 X0.8776 Y1.7073 
G01 X0.8727 Y1.7024 
G01 X0.8689 Y1.6966 
G01 X0.8662 Y1.6902 
G01 X0.8649 Y1.6835 
G01 X0.8649 Y1.6165 
G01 X0.8662 Y1.6098 
G01 X0.8689 Y1.6034 
G01 X0.8727 Y1.5976 
G01 X0.8776 Y1.5927 
G01 X0.8789 Y1.5919 
G01 X0.8789 Y0.6785 
G01 X0.8715 Y0.6711 
G01 X0.2081 Y0.6711 
G01 X0.2073 Y0.6724 
G01 X0.2024 Y0.6773 
G01 X0.1966 Y0.6811 
G01 X0.1902 Y0.6838 
G01 X0.1835 Y0.6851 
G00 Z0.0300 
G00 X0.1835 Y0.5851 
G01 Z-0.0050 F10.00 
G01 X0.1165 Y0.5851 
G01 X0.1098 Y0.5838 
G01 X0.1034 Y0.5811 
G01 X0.0976 Y0.5773 
G01 X0.0927 Y0.5724 
G01 X0.0889 Y0.5666 
G01 X0.0862 Y0.5602 
G01 X0.0849 Y0.5535 
G01 X0.0849 Y0.5465 
G01 X0.0862 Y0.5398 
G01 X0.0889 Y0.5334 
G01 X0.0927 Y0.5276 
G01 X0.0976 Y0.5227 
G01 X0.1034 Y0.5189 
G01 X0.1098 Y0.5162 
G01 X0.1165 Y0.5149 
G01 X0.1835 Y0.5149 
G01 X0.1902 Y0.5162 
G01 X0.1966 Y0.5189 
G01 X0.2024 Y0.5227 
G01 X0.2073 Y0.5276 
G01 X0.2081 Y0.5289 
G01 X0.9715 Y0.5289 
G01 X0.9855 Y0.5149 
G01 X1.0145 Y0.5149 
G01 X1.0351 Y0.5355 
G01 X1.0351 Y0.5645 
G01 X1.0211 Y0.5785 
G01 X1.0211 Y1.5919 
G01 X1.0224 Y1.5927 
G01 X1.0273 Y1.5976 
G01 X1.0311 Y1.6034 
G01 X1.0338 Y1.6098 
G01 X1.0351 Y1.6165 
G01 X1.0351 Y1.6835 
G01 X1.0338 Y1.6902 
G01 X1.0311 Y1.6966 
G01 X1.0273 Y1.7024 
G01 X1.0224 Y1.7073 
G01 X1.0166 Y1.7111 
G01 X1.0102 Y1.7138 
G01 X1.0035 Y1.7151 
G01 X0.9965 Y1.7151 
G01 X0.9898 Y1.7138 
G01 X0.9834 Y1.7111 
G01 X0.9776 Y1.7073 
G01 X0.9727 Y1.7024 
G01 X0.9689 Y1.6966 
G01 X0.9662 Y1.6902 
G01 X0.9649 Y1.6835 
G01 X0.9649 Y1.6165 
G01 X0.9662 Y1.6098 
G01 X0.9689 Y1.6034 
G01 X0.9727 Y1.5976 
G01 X0.9776 Y1.5927 
G01 X0.9789 Y1.5919 
G01 X0.9789 Y0.5785 
G01 X0.9715 Y0.5711 
G01 X0.2081 Y0.5711 
G01 X0.2073 Y0.5724 
G01 X0.2024 Y0.5773 
G01 X0.1966 Y0.5811 
G01 X0.1902 Y0.5838 
G01 X0.1835 Y0.5851 
G00 Z0.0300 
G00 X0.1835 Y0.4851 
G01 Z-0.0050 F10.00 
G01 X0.1165 Y0.4851 
G01 X0.1098 Y0.4838 
G01 X0.1034 Y0.4811 
G01 X0.0976 Y0.4773 
G01 X0.0927 Y0.4724 
G01 X0.0889 Y0.4666 
G01 X0.0862 Y0.4602 
G01 X0.0849 Y0.4535 
G01 X0.0849 Y0.4465 
G01 X0.0862 Y0.4398 
G01 X0.0889 Y0.4334 
G01 X0.0927 Y0.4276 
G01 X0.0976 Y0.4227 
G01 X0.1034 Y0.4189 
G01 X0.1098 Y0.4162 
G01 X0.1165 Y0.4149 
G01 X0.1835 Y0.4149 
G01 X0.1902 Y0.4162 
G01 X0.1966 Y0.4189 
G01 X0.2024 Y0.4227 
G01 X0.2073 Y0.4276 
G01 X0.2111 Y0.4334 
G01 X0.2138 Y0.4398 
G01 X0.2151 Y0.4465 
G01 X0.2151 Y0.4535 
G01 X0.2138 Y0.4602 
G01 X0.2111 Y0.4666 
G01 X0.2073 Y0.4724 
G01 X0.2024 Y0.4773 
G01 X0.1966 Y0.4811 
G01 X0.1902 Y0.4838 
G01 X0.1835 Y0.4851 
G00 Z0.0300 
G00 X0.1835 Y0.3851 
G01 Z-0.0050 F10.00 
G01 X0.1165 Y0.3851 
G01 X0.1098 Y0.3838 
G01 X0.1034 Y0.3811 
G01 X0.0976 Y0.3773 
G01 X0.0927 Y0.3724 
G01 X0.0889 Y0.3666 
G01 X0.0862 Y0.3602 
G01 X0.0849 Y0.3535 
G01 X0.0849 Y0.3465 
G01 X0.0862 Y0.3398 
G01 X0.0889 Y0.3334 
G01 X0.0927 Y0.3276 
G01 X0.0976 Y0.3227 
G01 X0.1034 Y0.3189 
G01 X0.1098 Y0.3162 
G01 X0.1165 Y0.3149 
G01 X0.1835 Y0.3149 
G01 X0.1902 Y0.3162 
G01 X0.1966 Y0.3189 
G01 X0.2024 Y0.3227 
G01 X0.2073 Y0.3276 
G01 X0.2111 Y0.3334 
G01 X0.2138 Y0.3398 
G01 X0.2151 Y0.3465 
G01 X0.2151 Y0.3535 
G01 X0.2138 Y0.3602 
G01 X0.2111 Y0.3666 
G01 X0.2073 Y0.3724 
G01 X0.2024 Y0.3773 
G01 X0.1966 Y0.3811 
G01 X0.1902 Y0.3838 
G01 X0.1835 Y0.3851 
G00 Z0.0300 
G00 X0.1835 Y0.2851 
G01 Z-0.0050 F10.00 
G01 X0.1165 Y0.2851 
G01 X0.1098 Y0.2838 
G01 X0.1034 Y0.2811 
G01 X0.0976 Y0.2773 
G01 X0.0927 Y0.2724 
G01 X0.0889 Y0.2666 
G01 X0.0862 Y0.2602 
G01 X0.0849 Y0.2535 
G01 X0.0849 Y0.2465 
G01 X0.0862 Y0.2398 
G01 X0.0889 Y0.2334 
G01 X0.0927 Y0.2276 
G01 X0.0976 Y0.2227 
G01 X0.1034 Y0.2189 
G01 X0.1098 Y0.2162 
G01 X0.1165 Y0.2149 
G01 X0.1835 Y0.2149 
G01 X0.1902 Y0.2162 
G01 X0.1966 Y0.2189 
G01 X0.2024 Y0.2227 
G01 X0.2073 Y0.2276 
G01 X0.2111 Y0.2334 
G01 X0.2138 Y0.2398 
G01 X0.2151 Y0.2465 
G01 X0.2151 Y0.2535 
G01 X0.2138 Y0.2602 
G01 X0.2111 Y0.2666 
G01 X0.2073 Y0.2724 
G01 X0.2024 Y0.2773 
G01 X0.1966 Y0.2811 
G01 X0.1902 Y0.2838 
G01 X0.1835 Y0.2851 
G00 Z0.0300 
G00 X0.1835 Y0.1851 
G01 Z-0.0050 F10.00 
G01 X0.1165 Y0.1851 
G01 X0.1098 Y0.1838 
G01 X0.1034 Y0.1811 
G01 X0.0976 Y0.1773 
G01 X0.0927 Y0.1724 
G01 X0.0889 Y0.1666 
G01 X0.0862 Y0.1602 
G01 X0.0849 Y0.1535 
G01 X0.0849 Y0.1465 
G01 X0.0862 Y0.1398 
G01 X0.0889 Y0.1334 
G01 X0.0927 Y0.1276 
G01 X0.0976 Y0.1227 
G01 X0.1034 Y0.1189 
G01 X0.1098 Y0.1162 
G01 X0.1165 Y0.1149 
G01 X0.1835 Y0.1149 
G01 X0.1902 Y0.1162 
G01 X0.1966 Y0.1189 
G01 X0.2024 Y0.1227 
G01 X0.2073 Y0.1276 
G01 X0.2111 Y0.1334 
G01 X0.2138 Y0.1398 
G01 X0.2151 Y0.1465 
G01 X0.2151 Y0.1535 
G01 X0.2138 Y0.1602 
G01 X0.2111 Y0.1666 
G01 X0.2073 Y0.1724 
G01 X0.2024 Y0.1773 
G01 X0.1966 Y0.1811 
G01 X0.1902 Y0.1838 
G01 X0.1835 Y0.1851 
G00 Z0.0300 
G00 X0.4649 Y1.6835 
G01 Z-0.0050 F10.00 
G01 X0.4649 Y1.6165 
G01 X0.4662 Y1.6098 
G01 X0.4689 Y1.6034 
G01 X0.4727 Y1.5976 
G01 X0.4776 Y1.5927 
G01 X0.4789 Y1.5919 
G01 X0.4789 Y1.0285 
G01 X0.4649 Y1.0145 
G01 X0.4649 Y0.9855 
G01 X0.4855 Y0.9649 
G01 X0.5145 Y0.9649 
G01 X0.5351 Y0.9855 
G01 X0.5351 Y1.0145 
G01 X0.5211 Y1.0285 
G01 X0.5211 Y1.5919 
G01 X0.5224 Y1.5927 
G01 X0.5273 Y1.5976 
G01 X0.5311 Y1.6034 
G01 X0.5338 Y1.6098 
G01 X0.5351 Y1.6165 
G01 X0.5351 Y1.6835 
G01 X0.5338 Y1.6902 
G01 X0.5311 Y1.6966 
G01 X0.5273 Y1.7024 
G01 X0.5224 Y1.7073 
G01 X0.5166 Y1.7111 
G01 X0.5102 Y1.7138 
G01 X0.5035 Y1.7151 
G01 X0.4965 Y1.7151 
G01 X0.4898 Y1.7138 
G01 X0.4834 Y1.7111 
G01 X0.4776 Y1.7073 
G01 X0.4727 Y1.7024 
G01 X0.4689 Y1.6966 
G01 X0.4662 Y1.6902 
G01 X0.4649 Y1.6835 
G00 Z0.0300 
G00 X0.5649 Y1.6835 
G01 Z-0.0050 F10.00 
G01 X0.5649 Y1.6165 
G01 X0.5662 Y1.6098 
G01 X0.5689 Y1.6034 
G01 X0.5727 Y1.5976 
G01 X0.5776 Y1.5927 
G01 X0.5789 Y1.5919 
G01 X0.5789 Y0.9285 
G01 X0.5649 Y0.9145 
G01 X0.5649 Y0.8855 
G01 X0.5855 Y0.8649 
G01 X0.6145 Y0.8649 
G01 X0.6351 Y0.8855 
G01 X0.6351 Y0.9145 
G01 X0.6211 Y0.9285 
G01 X0.6211 Y1.5919 
G01 X0.6224 Y1.5927 
G01 X0.6273 Y1.5976 
G01 X0.6311 Y1.6034 
G01 X0.6338 Y1.6098 
G01 X0.6351 Y1.6165 
G01 X0.6351 Y1.6835 
G01 X0.6338 Y1.6902 
G01 X0.6311 Y1.6966 
G01 X0.6273 Y1.7024 
G01 X0.6224 Y1.7073 
G01 X0.6166 Y1.7111 
G01 X0.6102 Y1.7138 
G01 X0.6035 Y1.7151 
G01 X0.5965 Y1.7151 
G01 X0.5898 Y1.7138 
G01 X0.5834 Y1.7111 
G01 X0.5776 Y1.7073 
G01 X0.5727 Y1.7024 
G01 X0.5689 Y1.6966 
G01 X0.5662 Y1.6902 
G01 X0.5649 Y1.6835 
G00 Z0.0300 
G00 X1.1649 Y1.6835 
G01 Z-0.0050 F10.00 
G01 X1.1649 Y1.6165 
G01 X1.1662 Y1.6098 
G01 X1.1689 Y1.6034 
G01 X1.1727 Y1.5976 
G01 X1.1776 Y1.5927 
G01 X1.1789 Y1.5919 
G01 X1.1789 Y1.5211 
G01 X1.1211 Y1.5211 
G01 X1.1211 Y1.5919 
G01 X1.1224 Y1.5927 
G01 X1.1273 Y1.5976 
G01 X1.1311 Y1.6034 
G01 X1.1338 Y1.6098 
G01 X1.1351 Y1.6165 
G01 X1.1351 Y1.6835 
G01 X1.1338 Y1.6902 
G01 X1.1311 Y1.6966 
G01 X1.1273 Y1.7024 
G01 X1.1224 Y1.7073 
G01 X1.1166 Y1.7111 
G01 X1.1102 Y1.7138 
G01 X1.1035 Y1.7151 
G01 X1.0965 Y1.7151 
G01 X1.0898 Y1.7138 
G01 X1.0834 Y1.7111 
G01 X1.0776 Y1.7073 
G01 X1.0727 Y1.7024 
G01 X1.0689 Y1.6966 
G01 X1.0662 Y1.6902 
G01 X1.0649 Y1.6835 
G01 X1.0649 Y1.6165 
G01 X1.0662 Y1.6098 
G01 X1.0689 Y1.6034 
G01 X1.0727 Y1.5976 
G01 X1.0776 Y1.5927 
G01 X1.0789 Y1.5919 
G01 X1.0789 Y1.4972 
G01 X1.0803 Y1.4919 
G01 X1.0831 Y1.4870 
G01 X1.0870 Y1.4831 
G01 X1.0919 Y1.4803 
G01 X1.0972 Y1.4789 
G01 X1.2028 Y1.4789 
G01 X1.2081 Y1.4803 
G01 X1.2130 Y1.4831 
G01 X1.2169 Y1.4870 
G01 X1.2197 Y1.4919 
G01 X1.2211 Y1.4972 
G01 X1.2211 Y1.5919 
G01 X1.2224 Y1.5927 
G01 X1.2273 Y1.5976 
G01 X1.2311 Y1.6034 
G01 X1.2338 Y1.6098 
G01 X1.2351 Y1.6165 
G01 X1.2351 Y1.6835 
G01 X1.2338 Y1.6902 
G01 X1.2311 Y1.6966 
G01 X1.2273 Y1.7024 
G01 X1.2224 Y1.7073 
G01 X1.2166 Y1.7111 
G01 X1.2102 Y1.7138 
G01 X1.2035 Y1.7151 
G01 X1.1965 Y1.7151 
G01 X1.1898 Y1.7138 
G01 X1.1834 Y1.7111 
G01 X1.1776 Y1.7073 
G01 X1.1727 Y1.7024 
G01 X1.1689 Y1.6966 
G01 X1.1662 Y1.6902 
G01 X1.1649 Y1.6835 
G00 Z0.0300 
G00 X1.3649 Y1.6835 
G01 Z-0.0050 F10.00 
G01 X1.3649 Y1.6165 
G01 X1.3662 Y1.6098 
G01 X1.3689 Y1.6034 
G01 X1.3727 Y1.5976 
G01 X1.3776 Y1.5927 
G01 X1.3789 Y1.5919 
G01 X1.3789 Y0.5785 
G01 X1.3649 Y0.5645 
G01 X1.3649 Y0.5355 
G01 X1.3855 Y0.5149 
G01 X1.4145 Y0.5149 
G01 X1.4351 Y0.5355 
G01 X1.4351 Y0.5645 
G01 X1.4211 Y0.5785 
G01 X1.4211 Y1.5919 
G01 X1.4224 Y1.5927 
G01 X1.4273 Y1.5976 
G01 X1.4311 Y1.6034 
G01 X1.4338 Y1.6098 
G01 X1.4351 Y1.6165 
G01 X1.4351 Y1.6835 
G01 X1.4338 Y1.6902 
G01 X1.4311 Y1.6966 
G01 X1.4273 Y1.7024 
G01 X1.4224 Y1.7073 
G01 X1.4166 Y1.7111 
G01 X1.4102 Y1.7138 
G01 X1.4035 Y1.7151 
G01 X1.3965 Y1.7151 
G01 X1.3898 Y1.7138 
G01 X1.3834 Y1.7111 
G01 X1.3776 Y1.7073 
G01 X1.3727 Y1.7024 
G01 X1.3689 Y1.6966 
G01 X1.3662 Y1.6902 
G01 X1.3649 Y1.6835 
G00 Z0.0300 
G00 X1.4649 Y1.6835 
G01 Z-0.0050 F10.00 
G01 X1.4649 Y1.6165 
G01 X1.4662 Y1.6098 
G01 X1.4689 Y1.6034 
G01 X1.4727 Y1.5976 
G01 X1.4776 Y1.5927 
G01 X1.4789 Y1.5919 
G01 X1.4789 Y0.6785 
G01 X1.4649 Y0.6645 
G01 X1.4649 Y0.6355 
G01 X1.4855 Y0.6149 
G01 X1.5145 Y0.6149 
G01 X1.5351 Y0.6355 
G01 X1.5351 Y0.6645 
G01 X1.5211 Y0.6785 
G01 X1.5211 Y1.5919 
G01 X1.5224 Y1.5927 
G01 X1.5273 Y1.5976 
G01 X1.5311 Y1.6034 
G01 X1.5338 Y1.6098 
G01 X1.5351 Y1.6165 
G01 X1.5351 Y1.6835 
G01 X1.5338 Y1.6902 
G01 X1.5311 Y1.6966 
G01 X1.5273 Y1.7024 
G01 X1.5224 Y1.7073 
G01 X1.5166 Y1.7111 
G01 X1.5102 Y1.7138 
G01 X1.5035 Y1.7151 
G01 X1.4965 Y1.7151 
G01 X1.4898 Y1.7138 
G01 X1.4834 Y1.7111 
G01 X1.4776 Y1.7073 
G01 X1.4727 Y1.7024 
G01 X1.4689 Y1.6966 
G01 X1.4662 Y1.6902 
G01 X1.4649 Y1.6835 
G00 Z0.0300 
G00 X1.5649 Y1.6835 
G01 Z-0.0050 F10.00 
G01 X1.5649 Y1.6165 
G01 X1.5662 Y1.6098 
G01 X1.5689 Y1.6034 
G01 X1.5727 Y1.5976 
G01 X1.5776 Y1.5927 
G01 X1.5789 Y1.5919 
G01 X1.5789 Y0.7785 
G01 X1.5649 Y0.7645 
G01 X1.5649 Y0.7355 
G01 X1.5855 Y0.7149 
G01 X1.6145 Y0.7149 
G01 X1.6351 Y0.7355 
G01 X1.6351 Y0.7645 
G01 X1.6211 Y0.7785 
G01 X1.6211 Y1.5919 
G01 X1.6224 Y1.5927 
G01 X1.6273 Y1.5976 
G01 X1.6311 Y1.6034 
G01 X1.6338 Y1.6098 
G01 X1.6351 Y1.6165 
G01 X1.6351 Y1.6835 
G01 X1.6338 Y1.6902 
G01 X1.6311 Y1.6966 
G01 X1.6273 Y1.7024 
G01 X1.6224 Y1.7073 
G01 X1.6166 Y1.7111 
G01 X1.6102 Y1.7138 
G01 X1.6035 Y1.7151 
G01 X1.5965 Y1.7151 
G01 X1.5898 Y1.7138 
G01 X1.5834 Y1.7111 
G01 X1.5776 Y1.7073 
G01 X1.5727 Y1.7024 
G01 X1.5689 Y1.6966 
G01 X1.5662 Y1.6902 
G01 X1.5649 Y1.6835 
G00 Z0.0300 
G00 X1.3351 Y1.3855 
G01 Z-0.0050 F10.00 
G01 X1.3351 Y1.4145 
G01 X1.3211 Y1.4285 
G01 X1.3211 Y1.5919 
G01 X1.3224 Y1.5927 
G01 X1.3273 Y1.5976 
G01 X1.3311 Y1.6034 
G01 X1.3338 Y1.6098 
G01 X1.3351 Y1.6165 
G01 X1.3351 Y1.6835 
G01 X1.3338 Y1.6902 
G01 X1.3311 Y1.6966 
G01 X1.3273 Y1.7024 
G01 X1.3224 Y1.7073 
G01 X1.3166 Y1.7111 
G01 X1.3102 Y1.7138 
G01 X1.3035 Y1.7151 
G01 X1.2965 Y1.7151 
G01 X1.2898 Y1.7138 
G01 X1.2834 Y1.7111 
G01 X1.2776 Y1.7073 
G01 X1.2727 Y1.7024 
G01 X1.2689 Y1.6966 
G01 X1.2662 Y1.6902 
G01 X1.2649 Y1.6835 
G01 X1.2649 Y1.6165 
G01 X1.2662 Y1.6098 
G01 X1.2689 Y1.6034 
G01 X1.2727 Y1.5976 
G01 X1.2776 Y1.5927 
G01 X1.2789 Y1.5919 
G01 X1.2789 Y1.4285 
G01 X1.2649 Y1.4145 
G01 X1.2649 Y1.3855 
G01 X1.2855 Y1.3649 
G01 X1.3145 Y1.3649 
G01 X1.3351 Y1.3855 
G00 Z0.0300 
G00 X0.8552 Y0.6860 
G01 Z-0.0050 F10.00 
G01 X0.8578 Y0.6867 
G01 X0.8601 Y0.6880 
G01 X0.8620 Y0.6899 
G01 X0.8633 Y0.6922 
G01 X0.8640 Y0.6948 
G01 X0.8640 Y0.7202 
G01 X0.8633 Y0.7228 
G01 X0.8620 Y0.7251 
G01 X0.8601 Y0.7270 
G01 X0.8578 Y0.7283 
G01 X0.8552 Y0.7290 
G01 X0.8526 Y0.7290 
G01 X0.8500 Y0.7283 
G01 X0.8477 Y0.7270 
G01 X0.8230 Y0.7023 
G01 X0.8217 Y0.7000 
G01 X0.8210 Y0.6974 
G01 X0.8210 Y0.6948 
G01 X0.8217 Y0.6922 
G01 X0.8230 Y0.6899 
G01 X0.8249 Y0.6880 
G01 X0.8272 Y0.6867 
G01 X0.8298 Y0.6860 
G01 X0.8324 Y0.6860 
G01 X0.8552 Y0.6860 
G00 Z0.0300 
G00 X0.2127 Y0.7120 
G01 Z-0.0050 F10.00 
G01 X0.2127 Y0.7120 
G01 X0.2126 Y0.7119 
G01 X0.2088 Y0.7081 
G01 X0.2088 Y0.7081 
G01 X0.2069 Y0.7062 
G01 X0.2058 Y0.7043 
G01 X0.2056 Y0.7039 
G01 X0.2056 Y0.7039 
G01 X0.2056 Y0.7039 
G01 X0.2051 Y0.7021 
G01 X0.2049 Y0.7013 
G01 X0.2049 Y0.6987 
G01 X0.2056 Y0.6961 
G01 X0.2064 Y0.6947 
G01 X0.2069 Y0.6938 
G01 X0.2069 Y0.6938 
G01 X0.2069 Y0.6938 
G01 X0.2127 Y0.6880 
G01 X0.2150 Y0.6867 
G01 X0.2176 Y0.6860 
G01 X0.7702 Y0.6860 
G01 X0.7728 Y0.6867 
G01 X0.7751 Y0.6880 
G01 X0.7770 Y0.6899 
G01 X0.7783 Y0.6922 
G01 X0.7790 Y0.6948 
G01 X0.7790 Y0.6974 
G01 X0.7783 Y0.7000 
G01 X0.7770 Y0.7023 
G01 X0.7751 Y0.7042 
G01 X0.7673 Y0.7120 
G01 X0.7650 Y0.7133 
G01 X0.7624 Y0.7140 
G01 X0.2176 Y0.7140 
G01 X0.2150 Y0.7133 
G01 X0.2136 Y0.7125 
G01 X0.2127 Y0.7120 
G00 Z0.0300 
G00 X0.9360 Y1.5824 
G01 Z-0.0050 F10.00 
G01 X0.9360 Y0.6876 
G01 X0.9366 Y0.6854 
G01 X0.9367 Y0.6850 
G01 X0.9368 Y0.6848 
G01 X0.9380 Y0.6827 
G01 X0.9399 Y0.6808 
G01 X0.9399 Y0.6808 
G01 X0.9458 Y0.6749 
G01 X0.9458 Y0.6749 
G01 X0.9476 Y0.6731 
G01 X0.9477 Y0.6730 
G01 X0.9478 Y0.6730 
G01 X0.9500 Y0.6717 
G01 X0.9525 Y0.6710 
G01 X0.9526 Y0.6710 
G01 X0.9552 Y0.6710 
G01 X0.9577 Y0.6717 
G01 X0.9578 Y0.6717 
G01 X0.9578 Y0.6717 
G01 X0.9601 Y0.6730 
G01 X0.9620 Y0.6749 
G01 X0.9620 Y0.6749 
G01 X0.9620 Y0.6750 
G01 X0.9633 Y0.6772 
G01 X0.9640 Y0.6797 
G01 X0.9640 Y0.6798 
G01 X0.9640 Y1.5824 
G01 X0.9633 Y1.5850 
G01 X0.9620 Y1.5873 
G01 X0.9601 Y1.5892 
G01 X0.9562 Y1.5931 
G01 X0.9562 Y1.5931 
G01 X0.9553 Y1.5936 
G01 X0.9539 Y1.5944 
G01 X0.9513 Y1.5951 
G01 X0.9487 Y1.5951 
G01 X0.9478 Y1.5949 
G01 X0.9461 Y1.5944 
G01 X0.9461 Y1.5944 
G01 X0.9461 Y1.5944 
G01 X0.9455 Y1.5941 
G01 X0.9438 Y1.5931 
G01 X0.9419 Y1.5912 
G01 X0.9419 Y1.5912 
G01 X0.9380 Y1.5873 
G01 X0.9374 Y1.5863 
G01 X0.9367 Y1.5850 
G01 X0.9360 Y1.5824 
G00 Z0.0300 
G00 X0.9552 Y0.5860 
G01 Z-0.0050 F10.00 
G01 X0.9578 Y0.5867 
G01 X0.9601 Y0.5880 
G01 X0.9620 Y0.5899 
G01 X0.9633 Y0.5922 
G01 X0.9640 Y0.5948 
G01 X0.9640 Y0.6202 
G01 X0.9633 Y0.6228 
G01 X0.9620 Y0.6251 
G01 X0.9601 Y0.6270 
G01 X0.9578 Y0.6283 
G01 X0.9552 Y0.6290 
G01 X0.9526 Y0.6290 
G01 X0.9500 Y0.6283 
G01 X0.9477 Y0.6270 
G01 X0.9230 Y0.6023 
G01 X0.9217 Y0.6000 
G01 X0.9210 Y0.5974 
G01 X0.9210 Y0.5948 
G01 X0.9217 Y0.5922 
G01 X0.9230 Y0.5899 
G01 X0.9249 Y0.5880 
G01 X0.9272 Y0.5867 
G01 X0.9298 Y0.5860 
G01 X0.9324 Y0.5860 
G01 X0.9552 Y0.5860 
G00 Z0.0300 
G00 X0.2127 Y0.6120 
G01 Z-0.0050 F10.00 
G01 X0.2127 Y0.6120 
G01 X0.2126 Y0.6119 
G01 X0.2088 Y0.6081 
G01 X0.2088 Y0.6081 
G01 X0.2069 Y0.6062 
G01 X0.2058 Y0.6043 
G01 X0.2056 Y0.6039 
G01 X0.2056 Y0.6039 
G01 X0.2056 Y0.6039 
G01 X0.2051 Y0.6021 
G01 X0.2049 Y0.6013 
G01 X0.2049 Y0.5987 
G01 X0.2056 Y0.5961 
G01 X0.2064 Y0.5947 
G01 X0.2069 Y0.5938 
G01 X0.2069 Y0.5938 
G01 X0.2127 Y0.5880 
G01 X0.2150 Y0.5867 
G01 X0.2176 Y0.5860 
G01 X0.8702 Y0.5860 
G01 X0.8728 Y0.5867 
G01 X0.8751 Y0.5880 
G01 X0.8770 Y0.5899 
G01 X0.8783 Y0.5922 
G01 X0.8790 Y0.5948 
G01 X0.8790 Y0.5974 
G01 X0.8783 Y0.6000 
G01 X0.8770 Y0.6023 
G01 X0.8751 Y0.6042 
G01 X0.8751 Y0.6042 
G01 X0.8692 Y0.6101 
G01 X0.8692 Y0.6101 
G01 X0.8673 Y0.6120 
G01 X0.8651 Y0.6133 
G01 X0.8650 Y0.6133 
G01 X0.8649 Y0.6133 
G01 X0.8624 Y0.6140 
G01 X0.2176 Y0.6140 
G01 X0.2150 Y0.6133 
G01 X0.2136 Y0.6125 
G01 X0.2127 Y0.6120 
G00 Z0.0300 
G00 X1.9824 Y0.9640 
G01 Z-0.0050 F10.00 
G01 X1.8376 Y0.9640 
G01 X1.8350 Y0.9633 
G01 X1.8327 Y0.9620 
G01 X1.8308 Y0.9601 
G01 X1.8308 Y0.9601 
G01 X1.8249 Y0.9542 
G01 X1.8249 Y0.9542 
G01 X1.8231 Y0.9524 
G01 X1.8230 Y0.9523 
G01 X1.8230 Y0.9522 
G01 X1.8217 Y0.9500 
G01 X1.8210 Y0.9475 
G01 X1.8210 Y0.9474 
G01 X1.8210 Y0.9448 
G01 X1.8217 Y0.9423 
G01 X1.8217 Y0.9422 
G01 X1.8217 Y0.9422 
G01 X1.8230 Y0.9399 
G01 X1.8249 Y0.9380 
G01 X1.8249 Y0.9380 
G01 X1.8250 Y0.9380 
G01 X1.8272 Y0.9367 
G01 X1.8297 Y0.9360 
G01 X1.8298 Y0.9360 
G01 X1.9824 Y0.9360 
G01 X1.9850 Y0.9367 
G01 X1.9873 Y0.9380 
G01 X1.9892 Y0.9399 
G01 X1.9892 Y0.9399 
G01 X1.9912 Y0.9419 
G01 X1.9912 Y0.9419 
G01 X1.9931 Y0.9438 
G01 X1.9942 Y0.9458 
G01 X1.9944 Y0.9461 
G01 X1.9944 Y0.9461 
G01 X1.9948 Y0.9474 
G01 X1.9951 Y0.9487 
G01 X1.9951 Y0.9513 
G01 X1.9945 Y0.9537 
G01 X1.9944 Y0.9539 
G01 X1.9944 Y0.9539 
G01 X1.9944 Y0.9539 
G01 X1.9931 Y0.9562 
G01 X1.9873 Y0.9620 
G01 X1.9863 Y0.9626 
G01 X1.9850 Y0.9633 
G01 X1.9824 Y0.9640 
G00 Z0.0300 
G00 X0.0101 Y2.0399 
G01 Z-0.0050 F10.00 
G01 X2.2899 Y2.0399 
G01 X2.2899 Y0.0101 
G01 X0.0101 Y0.0101 
G01 X0.0101 Y2.0399 
G00 Z0.0300 
G00 X2.2662 Y0.0250 
G01 Z-0.0050 F10.00 
G01 X2.2688 Y0.0257 
G01 X2.2711 Y0.0270 
G01 X2.2730 Y0.0289 
G01 X2.2743 Y0.0312 
G01 X2.2750 Y0.0338 
G01 X2.2750 Y2.0162 
G01 X2.2743 Y2.0188 
G01 X2.2730 Y2.0211 
G01 X2.2711 Y2.0230 
G01 X2.2688 Y2.0243 
G01 X2.2662 Y2.0250 
G01 X0.0338 Y2.0250 
G01 X0.0312 Y2.0243 
G01 X0.0289 Y2.0230 
G01 X0.0270 Y2.0211 
G01 X0.0257 Y2.0188 
G01 X0.0250 Y2.0162 
G01 X0.0250 Y0.0338 
G01 X0.0257 Y0.0312 
G01 X0.0270 Y0.0289 
G01 X0.0289 Y0.0270 
G01 X0.0312 Y0.0257 
G01 X0.0338 Y0.0250 
G01 X0.0364 Y0.0250 
G01 X2.2662 Y0.0250 
G00 Z0.0300 
G00 X1.0450 Y0.5686 
G01 Z-0.0050 F10.00 
G01 X1.0450 Y0.5314 
G01 X1.0186 Y0.5050 
G01 X0.9814 Y0.5050 
G01 X0.9704 Y0.5160 
G01 X0.9669 Y0.5180 
G01 X0.9631 Y0.5190 
G01 X0.2169 Y0.5190 
G01 X0.2148 Y0.5184 
G01 X0.2131 Y0.5180 
G01 X0.2131 Y0.5180 
G01 X0.2131 Y0.5180 
G01 X0.2121 Y0.5174 
G01 X0.2096 Y0.5160 
G01 X0.2096 Y0.5160 
G01 X0.2096 Y0.5159 
G01 X0.2029 Y0.5093 
G01 X0.2009 Y0.5058 
G01 X0.2009 Y0.5058 
G01 X0.2009 Y0.5058 
G01 X0.2005 Y0.5041 
G01 X0.1999 Y0.5020 
G01 X0.1999 Y0.4980 
G01 X0.2004 Y0.4960 
G01 X0.2009 Y0.4942 
G01 X0.2009 Y0.4942 
G01 X0.2009 Y0.4942 
G01 X0.2014 Y0.4933 
G01 X0.2029 Y0.4907 
G01 X0.2057 Y0.4879 
G01 X0.2057 Y0.4879 
G01 X0.2181 Y0.4755 
G01 X0.2250 Y0.4590 
G01 X0.2250 Y0.4410 
G01 X0.2181 Y0.4245 
G01 X0.2057 Y0.4121 
G01 X0.2057 Y0.4121 
G01 X0.2030 Y0.4093 
G01 X0.2029 Y0.4093 
G01 X0.2009 Y0.4058 
G01 X0.1999 Y0.4020 
G01 X0.1999 Y0.3980 
G01 X0.2009 Y0.3942 
G01 X0.2010 Y0.3941 
G01 X0.2029 Y0.3907 
G01 X0.2181 Y0.3755 
G01 X0.2250 Y0.3590 
G01 X0.2250 Y0.3410 
G01 X0.2181 Y0.3245 
G01 X0.2029 Y0.3093 
G01 X0.2009 Y0.3058 
G01 X0.1999 Y0.3020 
G01 X0.1999 Y0.2980 
G01 X0.1999 Y0.2978 
G01 X0.2009 Y0.2942 
G01 X0.2029 Y0.2908 
G01 X0.2029 Y0.2907 
G01 X0.2057 Y0.2879 
G01 X0.2057 Y0.2879 
G01 X0.2181 Y0.2755 
G01 X0.2250 Y0.2590 
G01 X0.2250 Y0.2410 
G01 X0.2181 Y0.2245 
G01 X0.2029 Y0.2093 
G01 X0.2009 Y0.2058 
G01 X0.1999 Y0.2020 
G01 X0.1999 Y0.1980 
G01 X0.1999 Y0.1978 
G01 X0.2009 Y0.1942 
G01 X0.2029 Y0.1908 
G01 X0.2029 Y0.1907 
G01 X0.2057 Y0.1879 
G01 X0.2057 Y0.1879 
G01 X0.2181 Y0.1755 
G01 X0.2250 Y0.1590 
G01 X0.2250 Y0.1410 
G01 X0.2181 Y0.1245 
G01 X0.2055 Y0.1119 
G01 X0.1890 Y0.1050 
G01 X0.1110 Y0.1050 
G01 X0.0945 Y0.1119 
G01 X0.0819 Y0.1245 
G01 X0.0750 Y0.1410 
G01 X0.0750 Y0.1590 
G01 X0.0819 Y0.1755 
G01 X0.0943 Y0.1879 
G01 X0.0943 Y0.1879 
G01 X0.0970 Y0.1907 
G01 X0.0971 Y0.1907 
G01 X0.0991 Y0.1942 
G01 X0.1001 Y0.1980 
G01 X0.1001 Y0.2020 
G01 X0.0991 Y0.2058 
G01 X0.0990 Y0.2059 
G01 X0.0971 Y0.2093 
G01 X0.0819 Y0.2245 
G01 X0.0750 Y0.2410 
G01 X0.0750 Y0.2590 
G01 X0.0819 Y0.2755 
G01 X0.0943 Y0.2879 
G01 X0.0943 Y0.2879 
G01 X0.0970 Y0.2907 
G01 X0.0971 Y0.2907 
G01 X0.0991 Y0.2942 
G01 X0.1001 Y0.2980 
G01 X0.1001 Y0.3020 
G01 X0.0991 Y0.3058 
G01 X0.0990 Y0.3059 
G01 X0.0971 Y0.3093 
G01 X0.0819 Y0.3245 
G01 X0.0750 Y0.3410 
G01 X0.0750 Y0.3590 
G01 X0.0819 Y0.3755 
G01 X0.0971 Y0.3907 
G01 X0.0991 Y0.3942 
G01 X0.1001 Y0.3980 
G01 X0.1001 Y0.4020 
G01 X0.1001 Y0.4022 
G01 X0.0991 Y0.4058 
G01 X0.0971 Y0.4092 
G01 X0.0971 Y0.4093 
G01 X0.0943 Y0.4121 
G01 X0.0943 Y0.4121 
G01 X0.0819 Y0.4245 
G01 X0.0750 Y0.4410 
G01 X0.0750 Y0.4590 
G01 X0.0819 Y0.4755 
G01 X0.0943 Y0.4879 
G01 X0.0943 Y0.4879 
G01 X0.0970 Y0.4907 
G01 X0.0971 Y0.4907 
G01 X0.0991 Y0.4942 
G01 X0.1001 Y0.4980 
G01 X0.1001 Y0.5020 
G01 X0.0991 Y0.5058 
G01 X0.0990 Y0.5059 
G01 X0.0971 Y0.5093 
G01 X0.0819 Y0.5245 
G01 X0.0750 Y0.5410 
G01 X0.0750 Y0.5590 
G01 X0.0819 Y0.5755 
G01 X0.0943 Y0.5879 
G01 X0.0943 Y0.5879 
G01 X0.0970 Y0.5907 
G01 X0.0971 Y0.5907 
G01 X0.0991 Y0.5942 
G01 X0.1001 Y0.5980 
G01 X0.1001 Y0.6020 
G01 X0.0991 Y0.6058 
G01 X0.0990 Y0.6059 
G01 X0.0971 Y0.6093 
G01 X0.0819 Y0.6245 
G01 X0.0750 Y0.6410 
G01 X0.0750 Y0.6590 
G01 X0.0819 Y0.6755 
G01 X0.0943 Y0.6879 
G01 X0.0943 Y0.6879 
G01 X0.0970 Y0.6907 
G01 X0.0971 Y0.6907 
G01 X0.0991 Y0.6942 
G01 X0.1001 Y0.6980 
G01 X0.1001 Y0.7020 
G01 X0.0991 Y0.7058 
G01 X0.0990 Y0.7059 
G01 X0.0971 Y0.7093 
G01 X0.0819 Y0.7245 
G01 X0.0750 Y0.7410 
G01 X0.0750 Y0.7590 
G01 X0.0819 Y0.7755 
G01 X0.0943 Y0.7879 
G01 X0.0943 Y0.7879 
G01 X0.0970 Y0.7907 
G01 X0.0971 Y0.7907 
G01 X0.0991 Y0.7942 
G01 X0.1001 Y0.7980 
G01 X0.1001 Y0.8020 
G01 X0.0991 Y0.8058 
G01 X0.0990 Y0.8059 
G01 X0.0971 Y0.8093 
G01 X0.0819 Y0.8245 
G01 X0.0750 Y0.8410 
G01 X0.0750 Y0.8590 
G01 X0.0819 Y0.8755 
G01 X0.0943 Y0.8879 
G01 X0.0943 Y0.8879 
G01 X0.0970 Y0.8907 
G01 X0.0971 Y0.8907 
G01 X0.0991 Y0.8942 
G01 X0.1001 Y0.8980 
G01 X0.1001 Y0.9020 
G01 X0.0991 Y0.9058 
G01 X0.0990 Y0.9059 
G01 X0.0971 Y0.9093 
G01 X0.0819 Y0.9245 
G01 X0.0750 Y0.9410 
G01 X0.0750 Y0.9590 
G01 X0.0819 Y0.9755 
G01 X0.0943 Y0.9879 
G01 X0.0943 Y0.9879 
G01 X0.0971 Y0.9907 
G01 X0.0986 Y0.9934 
G01 X0.0991 Y0.9942 
G01 X0.0991 Y0.9942 
G01 X0.1001 Y0.9980 
G01 X0.1001 Y1.0020 
G01 X0.0991 Y1.0058 
G01 X0.0971 Y1.0093 
G01 X0.0819 Y1.0245 
G01 X0.0750 Y1.0410 
G01 X0.0750 Y1.0590 
G01 X0.0819 Y1.0755 
G01 X0.0945 Y1.0881 
G01 X0.1110 Y1.0950 
G01 X0.1890 Y1.0950 
G01 X0.2055 Y1.0881 
G01 X0.2181 Y1.0755 
G01 X0.2250 Y1.0590 
G01 X0.2250 Y1.0410 
G01 X0.2181 Y1.0245 
G01 X0.2029 Y1.0093 
G01 X0.2009 Y1.0058 
G01 X0.1999 Y1.0020 
G01 X0.1999 Y0.9980 
G01 X0.1999 Y0.9978 
G01 X0.2009 Y0.9942 
G01 X0.2029 Y0.9908 
G01 X0.2029 Y0.9907 
G01 X0.2057 Y0.9879 
G01 X0.2057 Y0.9879 
G01 X0.2181 Y0.9755 
G01 X0.2250 Y0.9590 
G01 X0.2250 Y0.9410 
G01 X0.2181 Y0.9245 
G01 X0.2029 Y0.9093 
G01 X0.2009 Y0.9058 
G01 X0.1999 Y0.9020 
G01 X0.1999 Y0.8980 
G01 X0.1999 Y0.8978 
G01 X0.2009 Y0.8942 
G01 X0.2029 Y0.8908 
G01 X0.2029 Y0.8907 
G01 X0.2057 Y0.8879 
G01 X0.2057 Y0.8879 
G01 X0.2181 Y0.8755 
G01 X0.2250 Y0.8590 
G01 X0.2250 Y0.8410 
G01 X0.2181 Y0.8245 
G01 X0.2029 Y0.8093 
G01 X0.2009 Y0.8058 
G01 X0.1999 Y0.8020 
G01 X0.1999 Y0.7980 
G01 X0.1999 Y0.7978 
G01 X0.2009 Y0.7942 
G01 X0.2029 Y0.7908 
G01 X0.2029 Y0.7907 
G01 X0.2057 Y0.7879 
G01 X0.2057 Y0.7879 
G01 X0.2096 Y0.7840 
G01 X0.2131 Y0.7820 
G01 X0.2169 Y0.7810 
G01 X0.7559 Y0.7810 
G01 X0.7597 Y0.7820 
G01 X0.7632 Y0.7840 
G01 X0.7660 Y0.7868 
G01 X0.7680 Y0.7903 
G01 X0.7690 Y0.7941 
G01 X0.7690 Y1.5831 
G01 X0.7680 Y1.5869 
G01 X0.7660 Y1.5904 
G01 X0.7632 Y1.5932 
G01 X0.7621 Y1.5943 
G01 X0.7621 Y1.5943 
G01 X0.7593 Y1.5970 
G01 X0.7593 Y1.5971 
G01 X0.7558 Y1.5991 
G01 X0.7520 Y1.6001 
G01 X0.7480 Y1.6001 
G01 X0.7442 Y1.5991 
G01 X0.7441 Y1.5990 
G01 X0.7407 Y1.5971 
G01 X0.7255 Y1.5819 
G01 X0.7090 Y1.5750 
G01 X0.6910 Y1.5750 
G01 X0.6745 Y1.5819 
G01 X0.6593 Y1.5971 
G01 X0.6558 Y1.5991 
G01 X0.6520 Y1.6001 
G01 X0.6480 Y1.6001 
G01 X0.6442 Y1.5991 
G01 X0.6407 Y1.5971 
G01 X0.6379 Y1.5943 
G01 X0.6379 Y1.5943 
G01 X0.6340 Y1.5904 
G01 X0.6320 Y1.5869 
G01 X0.6310 Y1.5831 
G01 X0.6310 Y0.9369 
G01 X0.6320 Y0.9332 
G01 X0.6320 Y0.9331 
G01 X0.6321 Y0.9330 
G01 X0.6340 Y0.9296 
G01 X0.6450 Y0.9186 
G01 X0.6450 Y0.8814 
G01 X0.6186 Y0.8550 
G01 X0.5814 Y0.8550 
G01 X0.5550 Y0.8814 
G01 X0.5550 Y0.9186 
G01 X0.5660 Y0.9296 
G01 X0.5680 Y0.9331 
G01 X0.5690 Y0.9369 
G01 X0.5690 Y0.9709 
G01 X0.5680 Y0.9747 
G01 X0.5660 Y0.9782 
G01 X0.5632 Y0.9810 
G01 X0.5597 Y0.9830 
G01 X0.5559 Y0.9840 
G01 X0.5519 Y0.9840 
G01 X0.5481 Y0.9830 
G01 X0.5446 Y0.9810 
G01 X0.5418 Y0.9782 
G01 X0.5418 Y0.9782 
G01 X0.5186 Y0.9550 
G01 X0.4814 Y0.9550 
G01 X0.4550 Y0.9814 
G01 X0.4550 Y1.0186 
G01 X0.4660 Y1.0296 
G01 X0.4680 Y1.0331 
G01 X0.4690 Y1.0369 
G01 X0.4690 Y1.5831 
G01 X0.4686 Y1.5847 
G01 X0.4680 Y1.5869 
G01 X0.4660 Y1.5904 
G01 X0.4632 Y1.5932 
G01 X0.4632 Y1.5932 
G01 X0.4619 Y1.5945 
G01 X0.4550 Y1.6110 
G01 X0.4550 Y1.6890 
G01 X0.4619 Y1.7055 
G01 X0.4745 Y1.7181 
G01 X0.4910 Y1.7250 
G01 X0.5090 Y1.7250 
G01 X0.5255 Y1.7181 
G01 X0.5407 Y1.7029 
G01 X0.5442 Y1.7009 
G01 X0.5480 Y1.6999 
G01 X0.5520 Y1.6999 
G01 X0.5522 Y1.6999 
G01 X0.5558 Y1.7009 
G01 X0.5592 Y1.7029 
G01 X0.5593 Y1.7029 
G01 X0.5621 Y1.7057 
G01 X0.5621 Y1.7057 
G01 X0.5745 Y1.7181 
G01 X0.5910 Y1.7250 
G01 X0.6090 Y1.7250 
G01 X0.6255 Y1.7181 
G01 X0.6407 Y1.7029 
G01 X0.6433 Y1.7014 
G01 X0.6442 Y1.7009 
G01 X0.6442 Y1.7009 
G01 X0.6442 Y1.7009 
G01 X0.6460 Y1.7004 
G01 X0.6480 Y1.6999 
G01 X0.6520 Y1.6999 
G01 X0.6536 Y1.7003 
G01 X0.6558 Y1.7009 
G01 X0.6593 Y1.7029 
G01 X0.6593 Y1.7029 
G01 X0.6621 Y1.7057 
G01 X0.6621 Y1.7057 
G01 X0.6660 Y1.7096 
G01 X0.6680 Y1.7131 
G01 X0.6680 Y1.7131 
G01 X0.6680 Y1.7131 
G01 X0.6684 Y1.7148 
G01 X0.6690 Y1.7169 
G01 X0.6690 Y1.7559 
G01 X0.6680 Y1.7597 
G01 X0.6660 Y1.7632 
G01 X0.6632 Y1.7660 
G01 X0.6597 Y1.7680 
G01 X0.6559 Y1.7690 
G01 X0.3941 Y1.7690 
G01 X0.3903 Y1.7680 
G01 X0.3868 Y1.7660 
G01 X0.3840 Y1.7632 
G01 X0.3820 Y1.7597 
G01 X0.3810 Y1.7559 
G01 X0.3810 Y1.4938 
G01 X0.3763 Y1.4824 
G01 X0.3676 Y1.4738 
G01 X0.3674 Y1.4737 
G01 X0.3665 Y1.4733 
G01 X0.3657 Y1.4727 
G01 X0.3649 Y1.4722 
G01 X0.3642 Y1.4715 
G01 X0.3634 Y1.4709 
G01 X0.3628 Y1.4701 
G01 X0.3621 Y1.4694 
G01 X0.3616 Y1.4685 
G01 X0.3609 Y1.4677 
G01 X0.3606 Y1.4668 
G01 X0.3601 Y1.4659 
G01 X0.3598 Y1.4650 
G01 X0.3594 Y1.4640 
G01 X0.3593 Y1.4631 
G01 X0.3590 Y1.4621 
G01 X0.3590 Y1.4611 
G01 X0.3589 Y1.4601 
G01 X0.3590 Y1.4591 
G01 X0.3590 Y1.4581 
G01 X0.3593 Y1.4571 
G01 X0.3594 Y1.4562 
G01 X0.3598 Y1.4552 
G01 X0.3601 Y1.4543 
G01 X0.3606 Y1.4534 
G01 X0.3609 Y1.4525 
G01 X0.3616 Y1.4517 
G01 X0.3621 Y1.4508 
G01 X0.3628 Y1.4501 
G01 X0.3634 Y1.4493 
G01 X0.3642 Y1.4487 
G01 X0.3649 Y1.4480 
G01 X0.3657 Y1.4475 
G01 X0.3665 Y1.4469 
G01 X0.3669 Y1.4468 
G01 X0.3950 Y1.4186 
G01 X0.3950 Y1.3814 
G01 X0.3686 Y1.3550 
G01 X0.3314 Y1.3550 
G01 X0.3204 Y1.3660 
G01 X0.3169 Y1.3680 
G01 X0.3131 Y1.3690 
G01 X0.2169 Y1.3690 
G01 X0.2131 Y1.3680 
G01 X0.2096 Y1.3660 
G01 X0.2068 Y1.3632 
G01 X0.2029 Y1.3593 
G01 X0.2009 Y1.3558 
G01 X0.1999 Y1.3520 
G01 X0.1999 Y1.3480 
G01 X0.2009 Y1.3442 
G01 X0.2029 Y1.3407 
G01 X0.2057 Y1.3379 
G01 X0.2181 Y1.3255 
G01 X0.2250 Y1.3090 
G01 X0.2250 Y1.2910 
G01 X0.2181 Y1.2745 
G01 X0.2029 Y1.2593 
G01 X0.2009 Y1.2558 
G01 X0.1999 Y1.2520 
G01 X0.1999 Y1.2480 
G01 X0.1999 Y1.2478 
G01 X0.2009 Y1.2442 
G01 X0.2029 Y1.2408 
G01 X0.2029 Y1.2407 
G01 X0.2057 Y1.2379 
G01 X0.2057 Y1.2379 
G01 X0.2181 Y1.2255 
G01 X0.2250 Y1.2090 
G01 X0.2250 Y1.1910 
G01 X0.2181 Y1.1745 
G01 X0.2055 Y1.1619 
G01 X0.1890 Y1.1550 
G01 X0.1110 Y1.1550 
G01 X0.0945 Y1.1619 
G01 X0.0819 Y1.1745 
G01 X0.0750 Y1.1910 
G01 X0.0750 Y1.2090 
G01 X0.0819 Y1.2255 
G01 X0.0943 Y1.2379 
G01 X0.0943 Y1.2379 
G01 X0.0970 Y1.2407 
G01 X0.0971 Y1.2407 
G01 X0.0991 Y1.2442 
G01 X0.1001 Y1.2480 
G01 X0.1001 Y1.2520 
G01 X0.0991 Y1.2558 
G01 X0.0990 Y1.2559 
G01 X0.0971 Y1.2593 
G01 X0.0819 Y1.2745 
G01 X0.0750 Y1.2910 
G01 X0.0750 Y1.3090 
G01 X0.0819 Y1.3255 
G01 X0.0943 Y1.3379 
G01 X0.0943 Y1.3379 
G01 X0.0970 Y1.3407 
G01 X0.0971 Y1.3407 
G01 X0.0991 Y1.3442 
G01 X0.1001 Y1.3480 
G01 X0.1001 Y1.3520 
G01 X0.0991 Y1.3558 
G01 X0.0990 Y1.3559 
G01 X0.0971 Y1.3593 
G01 X0.0819 Y1.3745 
G01 X0.0750 Y1.3910 
G01 X0.0750 Y1.4090 
G01 X0.0819 Y1.4255 
G01 X0.0943 Y1.4379 
G01 X0.0943 Y1.4379 
G01 X0.0970 Y1.4407 
G01 X0.0971 Y1.4407 
G01 X0.0991 Y1.4442 
G01 X0.1001 Y1.4480 
G01 X0.1001 Y1.4520 
G01 X0.0991 Y1.4558 
G01 X0.0990 Y1.4559 
G01 X0.0971 Y1.4593 
G01 X0.0819 Y1.4745 
G01 X0.0750 Y1.4910 
G01 X0.0750 Y1.5090 
G01 X0.0819 Y1.5255 
G01 X0.0943 Y1.5379 
G01 X0.0943 Y1.5379 
G01 X0.0970 Y1.5407 
G01 X0.0971 Y1.5407 
G01 X0.0991 Y1.5442 
G01 X0.1001 Y1.5480 
G01 X0.1001 Y1.5520 
G01 X0.0991 Y1.5558 
G01 X0.0990 Y1.5559 
G01 X0.0971 Y1.5593 
G01 X0.0819 Y1.5745 
G01 X0.0750 Y1.5910 
G01 X0.0750 Y1.6090 
G01 X0.0819 Y1.6255 
G01 X0.0943 Y1.6379 
G01 X0.0943 Y1.6379 
G01 X0.0970 Y1.6407 
G01 X0.0971 Y1.6407 
G01 X0.0991 Y1.6442 
G01 X0.1001 Y1.6480 
G01 X0.1001 Y1.6520 
G01 X0.0991 Y1.6558 
G01 X0.0990 Y1.6559 
G01 X0.0971 Y1.6593 
G01 X0.0819 Y1.6745 
G01 X0.0750 Y1.6910 
G01 X0.0750 Y1.7090 
G01 X0.0819 Y1.7255 
G01 X0.0943 Y1.7379 
G01 X0.0943 Y1.7379 
G01 X0.0970 Y1.7407 
G01 X0.0971 Y1.7407 
G01 X0.0991 Y1.7442 
G01 X0.1001 Y1.7480 
G01 X0.1001 Y1.7520 
G01 X0.0991 Y1.7558 
G01 X0.0990 Y1.7559 
G01 X0.0971 Y1.7593 
G01 X0.0819 Y1.7745 
G01 X0.0750 Y1.7910 
G01 X0.0750 Y1.8090 
G01 X0.0819 Y1.8255 
G01 X0.0943 Y1.8379 
G01 X0.0943 Y1.8379 
G01 X0.0970 Y1.8407 
G01 X0.0971 Y1.8407 
G01 X0.0991 Y1.8442 
G01 X0.1001 Y1.8480 
G01 X0.1001 Y1.8520 
G01 X0.0991 Y1.8558 
G01 X0.0990 Y1.8559 
G01 X0.0971 Y1.8593 
G01 X0.0819 Y1.8745 
G01 X0.0750 Y1.8910 
G01 X0.0750 Y1.9090 
G01 X0.0819 Y1.9255 
G01 X0.0945 Y1.9381 
G01 X0.1110 Y1.9450 
G01 X0.1890 Y1.9450 
G01 X0.2055 Y1.9381 
G01 X0.2181 Y1.9255 
G01 X0.2250 Y1.9090 
G01 X0.2250 Y1.8910 
G01 X0.2181 Y1.8745 
G01 X0.2029 Y1.8593 
G01 X0.2009 Y1.8558 
G01 X0.1999 Y1.8520 
G01 X0.1999 Y1.8480 
G01 X0.1999 Y1.8478 
G01 X0.2009 Y1.8442 
G01 X0.2029 Y1.8408 
G01 X0.2029 Y1.8407 
G01 X0.2057 Y1.8379 
G01 X0.2057 Y1.8379 
G01 X0.2181 Y1.8255 
G01 X0.2250 Y1.8090 
G01 X0.2250 Y1.7910 
G01 X0.2181 Y1.7745 
G01 X0.2029 Y1.7593 
G01 X0.2009 Y1.7558 
G01 X0.1999 Y1.7520 
G01 X0.1999 Y1.7480 
G01 X0.1999 Y1.7478 
G01 X0.2009 Y1.7442 
G01 X0.2029 Y1.7408 
G01 X0.2029 Y1.7407 
G01 X0.2057 Y1.7379 
G01 X0.2057 Y1.7379 
G01 X0.2181 Y1.7255 
G01 X0.2250 Y1.7090 
G01 X0.2250 Y1.6910 
G01 X0.2181 Y1.6745 
G01 X0.2029 Y1.6593 
G01 X0.2009 Y1.6558 
G01 X0.1999 Y1.6520 
G01 X0.1999 Y1.6480 
G01 X0.1999 Y1.6478 
G01 X0.2009 Y1.6442 
G01 X0.2029 Y1.6408 
G01 X0.2029 Y1.6407 
G01 X0.2057 Y1.6379 
G01 X0.2057 Y1.6379 
G01 X0.2181 Y1.6255 
G01 X0.2250 Y1.6090 
G01 X0.2250 Y1.5910 
G01 X0.2181 Y1.5745 
G01 X0.2029 Y1.5593 
G01 X0.2014 Y1.5567 
G01 X0.2009 Y1.5558 
G01 X0.2009 Y1.5558 
G01 X0.2009 Y1.5558 
G01 X0.2004 Y1.5540 
G01 X0.1999 Y1.5520 
G01 X0.1999 Y1.5480 
G01 X0.2003 Y1.5464 
G01 X0.2009 Y1.5442 
G01 X0.2029 Y1.5407 
G01 X0.2029 Y1.5407 
G01 X0.2057 Y1.5379 
G01 X0.2057 Y1.5379 
G01 X0.2096 Y1.5340 
G01 X0.2131 Y1.5320 
G01 X0.2131 Y1.5320 
G01 X0.2131 Y1.5320 
G01 X0.2148 Y1.5316 
G01 X0.2169 Y1.5310 
G01 X0.3059 Y1.5310 
G01 X0.3097 Y1.5320 
G01 X0.3132 Y1.5340 
G01 X0.3160 Y1.5368 
G01 X0.3180 Y1.5403 
G01 X0.3190 Y1.5441 
G01 X0.3190 Y1.8062 
G01 X0.3237 Y1.8176 
G01 X0.3324 Y1.8263 
G01 X0.3438 Y1.8310 
G01 X0.7062 Y1.8310 
G01 X0.7176 Y1.8263 
G01 X0.7263 Y1.8176 
G01 X0.7310 Y1.8062 
G01 X0.7310 Y1.7169 
G01 X0.7320 Y1.7131 
G01 X0.7340 Y1.7096 
G01 X0.7368 Y1.7068 
G01 X0.7407 Y1.7029 
G01 X0.7442 Y1.7009 
G01 X0.7480 Y1.6999 
G01 X0.7520 Y1.6999 
G01 X0.7558 Y1.7009 
G01 X0.7593 Y1.7029 
G01 X0.7621 Y1.7057 
G01 X0.7745 Y1.7181 
G01 X0.7910 Y1.7250 
G01 X0.8090 Y1.7250 
G01 X0.8255 Y1.7181 
G01 X0.8407 Y1.7029 
G01 X0.8442 Y1.7009 
G01 X0.8480 Y1.6999 
G01 X0.8520 Y1.6999 
G01 X0.8522 Y1.6999 
G01 X0.8558 Y1.7009 
G01 X0.8592 Y1.7029 
G01 X0.8593 Y1.7029 
G01 X0.8621 Y1.7057 
G01 X0.8621 Y1.7057 
G01 X0.8745 Y1.7181 
G01 X0.8910 Y1.7250 
G01 X0.9090 Y1.7250 
G01 X0.9255 Y1.7181 
G01 X0.9407 Y1.7029 
G01 X0.9442 Y1.7009 
G01 X0.9480 Y1.6999 
G01 X0.9520 Y1.6999 
G01 X0.9522 Y1.6999 
G01 X0.9558 Y1.7009 
G01 X0.9592 Y1.7029 
G01 X0.9593 Y1.7029 
G01 X0.9621 Y1.7057 
G01 X0.9621 Y1.7057 
G01 X0.9745 Y1.7181 
G01 X0.9910 Y1.7250 
G01 X1.0090 Y1.7250 
G01 X1.0255 Y1.7181 
G01 X1.0407 Y1.7029 
G01 X1.0415 Y1.7025 
G01 X1.0442 Y1.7009 
G01 X1.0480 Y1.6999 
G01 X1.0520 Y1.6999 
G01 X1.0558 Y1.7009 
G01 X1.0593 Y1.7029 
G01 X1.0608 Y1.7044 
G01 X1.0621 Y1.7057 
G01 X1.0621 Y1.7057 
G01 X1.0745 Y1.7181 
G01 X1.0910 Y1.7250 
G01 X1.1090 Y1.7250 
G01 X1.1255 Y1.7181 
G01 X1.1407 Y1.7029 
G01 X1.1442 Y1.7009 
G01 X1.1480 Y1.6999 
G01 X1.1520 Y1.6999 
G01 X1.1522 Y1.6999 
G01 X1.1558 Y1.7009 
G01 X1.1592 Y1.7029 
G01 X1.1593 Y1.7029 
G01 X1.1621 Y1.7057 
G01 X1.1621 Y1.7057 
G01 X1.1745 Y1.7181 
G01 X1.1910 Y1.7250 
G01 X1.2090 Y1.7250 
G01 X1.2255 Y1.7181 
G01 X1.2407 Y1.7029 
G01 X1.2442 Y1.7009 
G01 X1.2480 Y1.6999 
G01 X1.2520 Y1.6999 
G01 X1.2522 Y1.6999 
G01 X1.2558 Y1.7009 
G01 X1.2592 Y1.7029 
G01 X1.2593 Y1.7029 
G01 X1.2621 Y1.7057 
G01 X1.2621 Y1.7057 
G01 X1.2745 Y1.7181 
G01 X1.2910 Y1.7250 
G01 X1.3090 Y1.7250 
G01 X1.3255 Y1.7181 
G01 X1.3407 Y1.7029 
G01 X1.3442 Y1.7009 
G01 X1.3480 Y1.6999 
G01 X1.3520 Y1.6999 
G01 X1.3522 Y1.6999 
G01 X1.3558 Y1.7009 
G01 X1.3592 Y1.7029 
G01 X1.3593 Y1.7029 
G01 X1.3621 Y1.7057 
G01 X1.3621 Y1.7057 
G01 X1.3745 Y1.7181 
G01 X1.3910 Y1.7250 
G01 X1.4090 Y1.7250 
G01 X1.4255 Y1.7181 
G01 X1.4407 Y1.7029 
G01 X1.4442 Y1.7009 
G01 X1.4480 Y1.6999 
G01 X1.4520 Y1.6999 
G01 X1.4522 Y1.6999 
G01 X1.4558 Y1.7009 
G01 X1.4592 Y1.7029 
G01 X1.4593 Y1.7029 
G01 X1.4621 Y1.7057 
G01 X1.4621 Y1.7057 
G01 X1.4745 Y1.7181 
G01 X1.4910 Y1.7250 
G01 X1.5090 Y1.7250 
G01 X1.5255 Y1.7181 
G01 X1.5407 Y1.7029 
G01 X1.5442 Y1.7009 
G01 X1.5480 Y1.6999 
G01 X1.5520 Y1.6999 
G01 X1.5522 Y1.6999 
G01 X1.5558 Y1.7009 
G01 X1.5592 Y1.7029 
G01 X1.5593 Y1.7029 
G01 X1.5621 Y1.7057 
G01 X1.5621 Y1.7057 
G01 X1.5745 Y1.7181 
G01 X1.5910 Y1.7250 
G01 X1.6090 Y1.7250 
G01 X1.6255 Y1.7181 
G01 X1.6407 Y1.7029 
G01 X1.6442 Y1.7009 
G01 X1.6480 Y1.6999 
G01 X1.6520 Y1.6999 
G01 X1.6522 Y1.6999 
G01 X1.6558 Y1.7009 
G01 X1.6592 Y1.7029 
G01 X1.6593 Y1.7029 
G01 X1.6621 Y1.7057 
G01 X1.6621 Y1.7057 
G01 X1.6745 Y1.7181 
G01 X1.6910 Y1.7250 
G01 X1.7090 Y1.7250 
G01 X1.7255 Y1.7181 
G01 X1.7407 Y1.7029 
G01 X1.7442 Y1.7009 
G01 X1.7480 Y1.6999 
G01 X1.7520 Y1.6999 
G01 X1.7522 Y1.6999 
G01 X1.7558 Y1.7009 
G01 X1.7592 Y1.7029 
G01 X1.7593 Y1.7029 
G01 X1.7621 Y1.7057 
G01 X1.7621 Y1.7057 
G01 X1.7745 Y1.7181 
G01 X1.7910 Y1.7250 
G01 X1.8090 Y1.7250 
G01 X1.8255 Y1.7181 
G01 X1.8381 Y1.7055 
G01 X1.8450 Y1.6890 
G01 X1.8450 Y1.6110 
G01 X1.8381 Y1.5945 
G01 X1.8340 Y1.5904 
G01 X1.8320 Y1.5869 
G01 X1.8310 Y1.5831 
G01 X1.8310 Y1.0441 
G01 X1.8320 Y1.0403 
G01 X1.8340 Y1.0368 
G01 X1.8368 Y1.0340 
G01 X1.8403 Y1.0320 
G01 X1.8441 Y1.0310 
G01 X1.9831 Y1.0310 
G01 X1.9869 Y1.0320 
G01 X1.9904 Y1.0340 
G01 X1.9932 Y1.0368 
G01 X1.9943 Y1.0379 
G01 X1.9943 Y1.0379 
G01 X1.9970 Y1.0407 
G01 X1.9971 Y1.0407 
G01 X1.9991 Y1.0442 
G01 X2.0001 Y1.0480 
G01 X2.0001 Y1.0520 
G01 X1.9991 Y1.0558 
G01 X1.9990 Y1.0559 
G01 X1.9971 Y1.0593 
G01 X1.9819 Y1.0745 
G01 X1.9750 Y1.0910 
G01 X1.9750 Y1.1090 
G01 X1.9819 Y1.1255 
G01 X1.9943 Y1.1379 
G01 X1.9943 Y1.1379 
G01 X1.9970 Y1.1407 
G01 X1.9971 Y1.1407 
G01 X1.9991 Y1.1442 
G01 X2.0001 Y1.1480 
G01 X2.0001 Y1.1520 
G01 X1.9991 Y1.1558 
G01 X1.9990 Y1.1559 
G01 X1.9971 Y1.1593 
G01 X1.9819 Y1.1745 
G01 X1.9750 Y1.1910 
G01 X1.9750 Y1.2090 
G01 X1.9819 Y1.2255 
G01 X1.9945 Y1.2381 
G01 X2.0110 Y1.2450 
G01 X2.0890 Y1.2450 
G01 X2.1055 Y1.2381 
G01 X2.1181 Y1.2255 
G01 X2.1250 Y1.2090 
G01 X2.1250 Y1.1910 
G01 X2.1181 Y1.1745 
G01 X2.1029 Y1.1593 
G01 X2.1009 Y1.1558 
G01 X2.0999 Y1.1520 
G01 X2.0999 Y1.1480 
G01 X2.0999 Y1.1478 
G01 X2.1009 Y1.1442 
G01 X2.1029 Y1.1408 
G01 X2.1029 Y1.1407 
G01 X2.1057 Y1.1379 
G01 X2.1057 Y1.1379 
G01 X2.1181 Y1.1255 
G01 X2.1250 Y1.1090 
G01 X2.1250 Y1.0910 
G01 X2.1181 Y1.0745 
G01 X2.1029 Y1.0593 
G01 X2.1009 Y1.0558 
G01 X2.0999 Y1.0520 
G01 X2.0999 Y1.0480 
G01 X2.0999 Y1.0478 
G01 X2.1009 Y1.0442 
G01 X2.1029 Y1.0408 
G01 X2.1029 Y1.0407 
G01 X2.1057 Y1.0379 
G01 X2.1057 Y1.0379 
G01 X2.1181 Y1.0255 
G01 X2.1250 Y1.0090 
G01 X2.1250 Y0.9910 
G01 X2.1181 Y0.9745 
G01 X2.1029 Y0.9593 
G01 X2.1009 Y0.9558 
G01 X2.0999 Y0.9520 
G01 X2.0999 Y0.9480 
G01 X2.0999 Y0.9478 
G01 X2.1009 Y0.9442 
G01 X2.1029 Y0.9408 
G01 X2.1029 Y0.9407 
G01 X2.1057 Y0.9379 
G01 X2.1057 Y0.9379 
G01 X2.1181 Y0.9255 
G01 X2.1250 Y0.9090 
G01 X2.1250 Y0.8910 
G01 X2.1181 Y0.8745 
G01 X2.1029 Y0.8593 
G01 X2.1009 Y0.8558 
G01 X2.0999 Y0.8520 
G01 X2.0999 Y0.8480 
G01 X2.0999 Y0.8478 
G01 X2.1009 Y0.8442 
G01 X2.1029 Y0.8408 
G01 X2.1029 Y0.8407 
G01 X2.1057 Y0.8379 
G01 X2.1057 Y0.8379 
G01 X2.1181 Y0.8255 
G01 X2.1250 Y0.8090 
G01 X2.1250 Y0.7910 
G01 X2.1181 Y0.7745 
G01 X2.1029 Y0.7593 
G01 X2.1009 Y0.7558 
G01 X2.0999 Y0.7520 
G01 X2.0999 Y0.7480 
G01 X2.0999 Y0.7478 
G01 X2.1009 Y0.7442 
G01 X2.1029 Y0.7408 
G01 X2.1029 Y0.7407 
G01 X2.1057 Y0.7379 
G01 X2.1057 Y0.7379 
G01 X2.1181 Y0.7255 
