( This gcode generated by /Applications/EAGLE-7.5.0/ulp/pcb-gcode.ulp )
( Copyright 2005 by John Johnson. See readme.txt for licensing terms. )

( This file generated from the board /Users/ekwan333/Documents/eagle/MouseSensor3/MouseSensor3.brd )
( This file generated 4/28/16 5:38 PM )

G20

G90
G00 Z0.5000 
G00 X0 Y0
M03
G04 P3.000000
G00 Z0.0300 
G00 X-0.0101 Y2.0399 
G01 Z-0.0050 F10.00 
G01 X-2.2899 Y2.0399 
G01 X-2.2899 Y0.0101 
G01 X-0.0101 Y0.0101 
G01 X-0.0101 Y2.0399 
G00 Z0.0300 
G00 X-0.1835 Y1.9351 
G01 Z-0.0050 F10.00 
G01 X-0.1165 Y1.9351 
G01 X-0.1098 Y1.9338 
G01 X-0.1034 Y1.9311 
G01 X-0.0976 Y1.9273 
G01 X-0.0927 Y1.9224 
G01 X-0.0889 Y1.9166 
G01 X-0.0862 Y1.9102 
G01 X-0.0849 Y1.9035 
G01 X-0.0849 Y1.8965 
G01 X-0.0862 Y1.8898 
G01 X-0.0889 Y1.8834 
G01 X-0.0927 Y1.8776 
G01 X-0.0976 Y1.8727 
G01 X-0.1034 Y1.8689 
G01 X-0.1098 Y1.8662 
G01 X-0.1165 Y1.8649 
G01 X-0.1835 Y1.8649 
G01 X-0.1902 Y1.8662 
G01 X-0.1966 Y1.8689 
G01 X-0.2024 Y1.8727 
G01 X-0.2073 Y1.8776 
G01 X-0.2111 Y1.8834 
G01 X-0.2138 Y1.8898 
G01 X-0.2151 Y1.8965 
G01 X-0.2151 Y1.9035 
G01 X-0.2138 Y1.9102 
G01 X-0.2111 Y1.9166 
G01 X-0.2073 Y1.9224 
G01 X-0.2024 Y1.9273 
G01 X-0.1966 Y1.9311 
G01 X-0.1902 Y1.9338 
G01 X-0.1835 Y1.9351 
G00 Z0.0300 
G00 X-0.1835 Y1.8351 
G01 Z-0.0050 F10.00 
G01 X-0.1165 Y1.8351 
G01 X-0.1098 Y1.8338 
G01 X-0.1034 Y1.8311 
G01 X-0.0976 Y1.8273 
G01 X-0.0927 Y1.8224 
G01 X-0.0889 Y1.8166 
G01 X-0.0862 Y1.8102 
G01 X-0.0849 Y1.8035 
G01 X-0.0849 Y1.7965 
G01 X-0.0862 Y1.7898 
G01 X-0.0889 Y1.7834 
G01 X-0.0927 Y1.7776 
G01 X-0.0976 Y1.7727 
G01 X-0.1034 Y1.7689 
G01 X-0.1098 Y1.7662 
G01 X-0.1165 Y1.7649 
G01 X-0.1835 Y1.7649 
G01 X-0.1902 Y1.7662 
G01 X-0.1966 Y1.7689 
G01 X-0.2024 Y1.7727 
G01 X-0.2073 Y1.7776 
G01 X-0.2111 Y1.7834 
G01 X-0.2138 Y1.7898 
G01 X-0.2151 Y1.7965 
G01 X-0.2151 Y1.8035 
G01 X-0.2138 Y1.8102 
G01 X-0.2111 Y1.8166 
G01 X-0.2073 Y1.8224 
G01 X-0.2024 Y1.8273 
G01 X-0.1966 Y1.8311 
G01 X-0.1902 Y1.8338 
G01 X-0.1835 Y1.8351 
G00 Z0.0300 
G00 X-0.1835 Y1.7351 
G01 Z-0.0050 F10.00 
G01 X-0.1165 Y1.7351 
G01 X-0.1098 Y1.7338 
G01 X-0.1034 Y1.7311 
G01 X-0.0976 Y1.7273 
G01 X-0.0927 Y1.7224 
G01 X-0.0889 Y1.7166 
G01 X-0.0862 Y1.7102 
G01 X-0.0849 Y1.7035 
G01 X-0.0849 Y1.6965 
G01 X-0.0862 Y1.6898 
G01 X-0.0889 Y1.6834 
G01 X-0.0927 Y1.6776 
G01 X-0.0976 Y1.6727 
G01 X-0.1034 Y1.6689 
G01 X-0.1098 Y1.6662 
G01 X-0.1165 Y1.6649 
G01 X-0.1835 Y1.6649 
G01 X-0.1902 Y1.6662 
G01 X-0.1966 Y1.6689 
G01 X-0.2024 Y1.6727 
G01 X-0.2073 Y1.6776 
G01 X-0.2111 Y1.6834 
G01 X-0.2138 Y1.6898 
G01 X-0.2151 Y1.6965 
G01 X-0.2151 Y1.7035 
G01 X-0.2138 Y1.7102 
G01 X-0.2111 Y1.7166 
G01 X-0.2073 Y1.7224 
G01 X-0.2024 Y1.7273 
G01 X-0.1966 Y1.7311 
G01 X-0.1902 Y1.7338 
G01 X-0.1835 Y1.7351 
G00 Z0.0300 
G00 X-0.1835 Y1.6351 
G01 Z-0.0050 F10.00 
G01 X-0.1165 Y1.6351 
G01 X-0.1098 Y1.6338 
G01 X-0.1034 Y1.6311 
G01 X-0.0976 Y1.6273 
G01 X-0.0927 Y1.6224 
G01 X-0.0889 Y1.6166 
G01 X-0.0862 Y1.6102 
G01 X-0.0849 Y1.6035 
G01 X-0.0849 Y1.5965 
G01 X-0.0862 Y1.5898 
G01 X-0.0889 Y1.5834 
G01 X-0.0927 Y1.5776 
G01 X-0.0976 Y1.5727 
G01 X-0.1034 Y1.5689 
G01 X-0.1098 Y1.5662 
G01 X-0.1165 Y1.5649 
G01 X-0.1835 Y1.5649 
G01 X-0.1902 Y1.5662 
G01 X-0.1966 Y1.5689 
G01 X-0.2024 Y1.5727 
G01 X-0.2073 Y1.5776 
G01 X-0.2111 Y1.5834 
G01 X-0.2138 Y1.5898 
G01 X-0.2151 Y1.5965 
G01 X-0.2151 Y1.6035 
G01 X-0.2138 Y1.6102 
G01 X-0.2111 Y1.6166 
G01 X-0.2073 Y1.6224 
G01 X-0.2024 Y1.6273 
G01 X-0.1966 Y1.6311 
G01 X-0.1902 Y1.6338 
G01 X-0.1835 Y1.6351 
G00 Z0.0300 
G00 X-0.1835 Y1.5351 
G01 Z-0.0050 F10.00 
G01 X-0.1165 Y1.5351 
G01 X-0.1098 Y1.5338 
G01 X-0.1034 Y1.5311 
G01 X-0.0976 Y1.5273 
G01 X-0.0927 Y1.5224 
G01 X-0.0889 Y1.5166 
G01 X-0.0862 Y1.5102 
G01 X-0.0849 Y1.5035 
G01 X-0.0849 Y1.4965 
G01 X-0.0862 Y1.4898 
G01 X-0.0889 Y1.4834 
G01 X-0.0927 Y1.4776 
G01 X-0.0976 Y1.4727 
G01 X-0.1034 Y1.4689 
G01 X-0.1098 Y1.4662 
G01 X-0.1165 Y1.4649 
G01 X-0.1835 Y1.4649 
G01 X-0.1902 Y1.4662 
G01 X-0.1966 Y1.4689 
G01 X-0.2024 Y1.4727 
G01 X-0.2073 Y1.4776 
G01 X-0.2111 Y1.4834 
G01 X-0.2138 Y1.4898 
G01 X-0.2151 Y1.4965 
G01 X-0.2151 Y1.5035 
G01 X-0.2138 Y1.5102 
G01 X-0.2111 Y1.5166 
G01 X-0.2073 Y1.5224 
G01 X-0.2024 Y1.5273 
G01 X-0.1966 Y1.5311 
G01 X-0.1902 Y1.5338 
G01 X-0.1835 Y1.5351 
G00 Z0.0300 
G00 X-0.1835 Y1.4351 
G01 Z-0.0050 F10.00 
G01 X-0.1165 Y1.4351 
G01 X-0.1098 Y1.4338 
G01 X-0.1034 Y1.4311 
G01 X-0.0976 Y1.4273 
G01 X-0.0927 Y1.4224 
G01 X-0.0889 Y1.4166 
G01 X-0.0862 Y1.4102 
G01 X-0.0849 Y1.4035 
G01 X-0.0849 Y1.3965 
G01 X-0.0862 Y1.3898 
G01 X-0.0889 Y1.3834 
G01 X-0.0927 Y1.3776 
G01 X-0.0976 Y1.3727 
G01 X-0.1034 Y1.3689 
G01 X-0.1098 Y1.3662 
G01 X-0.1165 Y1.3649 
G01 X-0.1835 Y1.3649 
G01 X-0.1902 Y1.3662 
G01 X-0.1966 Y1.3689 
G01 X-0.2024 Y1.3727 
G01 X-0.2073 Y1.3776 
G01 X-0.2111 Y1.3834 
G01 X-0.2138 Y1.3898 
G01 X-0.2151 Y1.3965 
G01 X-0.2151 Y1.4035 
G01 X-0.2138 Y1.4102 
G01 X-0.2111 Y1.4166 
G01 X-0.2073 Y1.4224 
G01 X-0.2024 Y1.4273 
G01 X-0.1966 Y1.4311 
G01 X-0.1902 Y1.4338 
G01 X-0.1835 Y1.4351 
G00 Z0.0300 
G00 X-0.1835 Y1.3351 
G01 Z-0.0050 F10.00 
G01 X-0.1165 Y1.3351 
G01 X-0.1098 Y1.3338 
G01 X-0.1034 Y1.3311 
G01 X-0.0976 Y1.3273 
G01 X-0.0927 Y1.3224 
G01 X-0.0889 Y1.3166 
G01 X-0.0862 Y1.3102 
G01 X-0.0849 Y1.3035 
G01 X-0.0849 Y1.2965 
G01 X-0.0862 Y1.2898 
G01 X-0.0889 Y1.2834 
G01 X-0.0927 Y1.2776 
G01 X-0.0976 Y1.2727 
G01 X-0.1034 Y1.2689 
G01 X-0.1098 Y1.2662 
G01 X-0.1165 Y1.2649 
G01 X-0.1835 Y1.2649 
G01 X-0.1902 Y1.2662 
G01 X-0.1966 Y1.2689 
G01 X-0.2024 Y1.2727 
G01 X-0.2073 Y1.2776 
G01 X-0.2111 Y1.2834 
G01 X-0.2138 Y1.2898 
G01 X-0.2151 Y1.2965 
G01 X-0.2151 Y1.3035 
G01 X-0.2138 Y1.3102 
G01 X-0.2111 Y1.3166 
G01 X-0.2073 Y1.3224 
G01 X-0.2024 Y1.3273 
G01 X-0.1966 Y1.3311 
G01 X-0.1902 Y1.3338 
G01 X-0.1835 Y1.3351 
G00 Z0.0300 
G00 X-0.1835 Y1.2351 
G01 Z-0.0050 F10.00 
G01 X-0.1165 Y1.2351 
G01 X-0.1098 Y1.2338 
G01 X-0.1034 Y1.2311 
G01 X-0.0976 Y1.2273 
G01 X-0.0927 Y1.2224 
G01 X-0.0889 Y1.2166 
G01 X-0.0862 Y1.2102 
G01 X-0.0849 Y1.2035 
G01 X-0.0849 Y1.1965 
G01 X-0.0862 Y1.1898 
G01 X-0.0889 Y1.1834 
G01 X-0.0927 Y1.1776 
G01 X-0.0976 Y1.1727 
G01 X-0.1034 Y1.1689 
G01 X-0.1098 Y1.1662 
G01 X-0.1165 Y1.1649 
G01 X-0.1835 Y1.1649 
G01 X-0.1902 Y1.1662 
G01 X-0.1966 Y1.1689 
G01 X-0.2024 Y1.1727 
G01 X-0.2073 Y1.1776 
G01 X-0.2111 Y1.1834 
G01 X-0.2138 Y1.1898 
G01 X-0.2151 Y1.1965 
G01 X-0.2151 Y1.2035 
G01 X-0.2138 Y1.2102 
G01 X-0.2111 Y1.2166 
G01 X-0.2073 Y1.2224 
G01 X-0.2024 Y1.2273 
G01 X-0.1966 Y1.2311 
G01 X-0.1902 Y1.2338 
G01 X-0.1835 Y1.2351 
G00 Z0.0300 
G00 X-0.6351 Y0.8855 
G01 Z-0.0050 F10.00 
G01 X-0.6351 Y0.9145 
G01 X-0.6145 Y0.9351 
G01 X-0.5855 Y0.9351 
G01 X-0.5649 Y0.9145 
G01 X-0.5649 Y0.8855 
G01 X-0.5855 Y0.8649 
G01 X-0.6145 Y0.8649 
G01 X-0.6351 Y0.8855 
G00 Z0.0300 
G00 X-1.6351 Y0.7355 
G01 Z-0.0050 F10.00 
G01 X-1.6351 Y0.7645 
G01 X-1.6145 Y0.7851 
G01 X-1.5855 Y0.7851 
G01 X-1.5649 Y0.7645 
G01 X-1.5649 Y0.7355 
G01 X-1.5855 Y0.7149 
G01 X-1.6145 Y0.7149 
G01 X-1.6351 Y0.7355 
G00 Z0.0300 
G00 X-0.3851 Y1.3855 
G01 Z-0.0050 F10.00 
G01 X-0.3851 Y1.4145 
G01 X-0.3645 Y1.4351 
G01 X-0.3355 Y1.4351 
G01 X-0.3149 Y1.4145 
G01 X-0.3149 Y1.3855 
G01 X-0.3355 Y1.3649 
G01 X-0.3645 Y1.3649 
G01 X-0.3851 Y1.3855 
G00 Z0.0300 
G00 X-0.8351 Y0.7355 
G01 Z-0.0050 F10.00 
G01 X-0.8351 Y0.7645 
G01 X-0.8145 Y0.7851 
G01 X-0.7855 Y0.7851 
G01 X-0.7649 Y0.7645 
G01 X-0.7649 Y0.7355 
G01 X-0.7855 Y0.7149 
G01 X-0.8145 Y0.7149 
G01 X-0.8351 Y0.7355 
G00 Z0.0300 
G00 X-0.9351 Y0.6355 
G01 Z-0.0050 F10.00 
G01 X-0.9351 Y0.6645 
G01 X-0.9145 Y0.6851 
G01 X-0.8855 Y0.6851 
G01 X-0.8649 Y0.6645 
G01 X-0.8649 Y0.6355 
G01 X-0.8855 Y0.6149 
G01 X-0.9145 Y0.6149 
G01 X-0.9351 Y0.6355 
G00 Z0.0300 
G00 X-1.0351 Y0.5355 
G01 Z-0.0050 F10.00 
G01 X-1.0351 Y0.5645 
G01 X-1.0145 Y0.5851 
G01 X-0.9855 Y0.5851 
G01 X-0.9649 Y0.5645 
G01 X-0.9649 Y0.5355 
G01 X-0.9855 Y0.5149 
G01 X-1.0145 Y0.5149 
G01 X-1.0351 Y0.5355 
G00 Z0.0300 
G00 X-1.7351 Y0.8855 
G01 Z-0.0050 F10.00 
G01 X-1.7351 Y0.9145 
G01 X-1.7145 Y0.9351 
G01 X-1.6855 Y0.9351 
G01 X-1.6649 Y0.9145 
G01 X-1.6649 Y0.8855 
G01 X-1.6855 Y0.8649 
G01 X-1.7145 Y0.8649 
G01 X-1.7351 Y0.8855 
G00 Z0.0300 
G00 X-1.8351 Y0.9855 
G01 Z-0.0050 F10.00 
G01 X-1.8351 Y1.0145 
G01 X-1.8145 Y1.0351 
G01 X-1.7855 Y1.0351 
G01 X-1.7649 Y1.0145 
G01 X-1.7649 Y0.9855 
G01 X-1.7855 Y0.9649 
G01 X-1.8145 Y0.9649 
G01 X-1.8351 Y0.9855 
G00 Z0.0300 
G00 X-2.0835 Y1.2351 
G01 Z-0.0050 F10.00 
G01 X-2.0165 Y1.2351 
G01 X-2.0098 Y1.2338 
G01 X-2.0034 Y1.2311 
G01 X-1.9976 Y1.2273 
G01 X-1.9927 Y1.2224 
G01 X-1.9889 Y1.2166 
G01 X-1.9862 Y1.2102 
G01 X-1.9849 Y1.2035 
G01 X-1.9849 Y1.1965 
G01 X-1.9862 Y1.1898 
G01 X-1.9889 Y1.1834 
G01 X-1.9927 Y1.1776 
G01 X-1.9976 Y1.1727 
G01 X-2.0034 Y1.1689 
G01 X-2.0098 Y1.1662 
G01 X-2.0165 Y1.1649 
G01 X-2.0835 Y1.1649 
G01 X-2.0902 Y1.1662 
G01 X-2.0966 Y1.1689 
G01 X-2.1024 Y1.1727 
G01 X-2.1073 Y1.1776 
G01 X-2.1111 Y1.1834 
G01 X-2.1138 Y1.1898 
G01 X-2.1151 Y1.1965 
G01 X-2.1151 Y1.2035 
G01 X-2.1138 Y1.2102 
G01 X-2.1111 Y1.2166 
G01 X-2.1073 Y1.2224 
G01 X-2.1024 Y1.2273 
G01 X-2.0966 Y1.2311 
G01 X-2.0902 Y1.2338 
G01 X-2.0835 Y1.2351 
G00 Z0.0300 
G00 X-2.0835 Y1.1351 
G01 Z-0.0050 F10.00 
G01 X-2.0165 Y1.1351 
G01 X-2.0098 Y1.1338 
G01 X-2.0034 Y1.1311 
G01 X-1.9976 Y1.1273 
G01 X-1.9927 Y1.1224 
G01 X-1.9889 Y1.1166 
G01 X-1.9862 Y1.1102 
G01 X-1.9849 Y1.1035 
G01 X-1.9849 Y1.0965 
G01 X-1.9862 Y1.0898 
G01 X-1.9889 Y1.0834 
G01 X-1.9927 Y1.0776 
G01 X-1.9976 Y1.0727 
G01 X-2.0034 Y1.0689 
G01 X-2.0098 Y1.0662 
G01 X-2.0165 Y1.0649 
G01 X-2.0835 Y1.0649 
G01 X-2.0902 Y1.0662 
G01 X-2.0966 Y1.0689 
G01 X-2.1024 Y1.0727 
G01 X-2.1073 Y1.0776 
G01 X-2.1111 Y1.0834 
G01 X-2.1138 Y1.0898 
G01 X-2.1151 Y1.0965 
G01 X-2.1151 Y1.1035 
G01 X-2.1138 Y1.1102 
G01 X-2.1111 Y1.1166 
G01 X-2.1073 Y1.1224 
G01 X-2.1024 Y1.1273 
G01 X-2.0966 Y1.1311 
G01 X-2.0902 Y1.1338 
G01 X-2.0835 Y1.1351 
G00 Z0.0300 
G00 X-2.0835 Y1.0351 
G01 Z-0.0050 F10.00 
G01 X-2.0165 Y1.0351 
G01 X-2.0098 Y1.0338 
G01 X-2.0034 Y1.0311 
G01 X-1.9976 Y1.0273 
G01 X-1.9927 Y1.0224 
G01 X-1.9889 Y1.0166 
G01 X-1.9862 Y1.0102 
G01 X-1.9849 Y1.0035 
G01 X-1.9849 Y0.9965 
G01 X-1.9862 Y0.9898 
G01 X-1.9889 Y0.9834 
G01 X-1.9927 Y0.9776 
G01 X-1.9976 Y0.9727 
G01 X-2.0034 Y0.9689 
G01 X-2.0098 Y0.9662 
G01 X-2.0165 Y0.9649 
G01 X-2.0835 Y0.9649 
G01 X-2.0902 Y0.9662 
G01 X-2.0966 Y0.9689 
G01 X-2.1024 Y0.9727 
G01 X-2.1073 Y0.9776 
G01 X-2.1111 Y0.9834 
G01 X-2.1138 Y0.9898 
G01 X-2.1151 Y0.9965 
G01 X-2.1151 Y1.0035 
G01 X-2.1138 Y1.0102 
G01 X-2.1111 Y1.0166 
G01 X-2.1073 Y1.0224 
G01 X-2.1024 Y1.0273 
G01 X-2.0966 Y1.0311 
G01 X-2.0902 Y1.0338 
G01 X-2.0835 Y1.0351 
G00 Z0.0300 
G00 X-2.0835 Y0.9351 
G01 Z-0.0050 F10.00 
G01 X-2.0165 Y0.9351 
G01 X-2.0098 Y0.9338 
G01 X-2.0034 Y0.9311 
G01 X-1.9976 Y0.9273 
G01 X-1.9927 Y0.9224 
G01 X-1.9889 Y0.9166 
G01 X-1.9862 Y0.9102 
G01 X-1.9849 Y0.9035 
G01 X-1.9849 Y0.8965 
G01 X-1.9862 Y0.8898 
G01 X-1.9889 Y0.8834 
G01 X-1.9927 Y0.8776 
G01 X-1.9976 Y0.8727 
G01 X-2.0034 Y0.8689 
G01 X-2.0098 Y0.8662 
G01 X-2.0165 Y0.8649 
G01 X-2.0835 Y0.8649 
G01 X-2.0902 Y0.8662 
G01 X-2.0966 Y0.8689 
G01 X-2.1024 Y0.8727 
G01 X-2.1073 Y0.8776 
G01 X-2.1111 Y0.8834 
G01 X-2.1138 Y0.8898 
G01 X-2.1151 Y0.8965 
G01 X-2.1151 Y0.9035 
G01 X-2.1138 Y0.9102 
G01 X-2.1111 Y0.9166 
G01 X-2.1073 Y0.9224 
G01 X-2.1024 Y0.9273 
G01 X-2.0966 Y0.9311 
G01 X-2.0902 Y0.9338 
G01 X-2.0835 Y0.9351 
G00 Z0.0300 
G00 X-2.0835 Y0.8351 
G01 Z-0.0050 F10.00 
G01 X-2.0165 Y0.8351 
G01 X-2.0098 Y0.8338 
G01 X-2.0034 Y0.8311 
G01 X-1.9976 Y0.8273 
G01 X-1.9927 Y0.8224 
G01 X-1.9889 Y0.8166 
G01 X-1.9862 Y0.8102 
G01 X-1.9849 Y0.8035 
G01 X-1.9849 Y0.7965 
G01 X-1.9862 Y0.7898 
G01 X-1.9889 Y0.7834 
G01 X-1.9927 Y0.7776 
G01 X-1.9976 Y0.7727 
G01 X-2.0034 Y0.7689 
G01 X-2.0098 Y0.7662 
G01 X-2.0165 Y0.7649 
G01 X-2.0835 Y0.7649 
G01 X-2.0902 Y0.7662 
G01 X-2.0966 Y0.7689 
G01 X-2.1024 Y0.7727 
G01 X-2.1073 Y0.7776 
G01 X-2.1111 Y0.7834 
G01 X-2.1138 Y0.7898 
G01 X-2.1151 Y0.7965 
G01 X-2.1151 Y0.8035 
G01 X-2.1138 Y0.8102 
G01 X-2.1111 Y0.8166 
G01 X-2.1073 Y0.8224 
G01 X-2.1024 Y0.8273 
G01 X-2.0966 Y0.8311 
G01 X-2.0902 Y0.8338 
G01 X-2.0835 Y0.8351 
G00 Z0.0300 
G00 X-2.0835 Y0.7351 
G01 Z-0.0050 F10.00 
G01 X-2.0165 Y0.7351 
G01 X-2.0098 Y0.7338 
G01 X-2.0034 Y0.7311 
G01 X-1.9976 Y0.7273 
G01 X-1.9927 Y0.7224 
G01 X-1.9889 Y0.7166 
G01 X-1.9862 Y0.7102 
G01 X-1.9849 Y0.7035 
G01 X-1.9849 Y0.6965 
G01 X-1.9862 Y0.6898 
G01 X-1.9889 Y0.6834 
G01 X-1.9927 Y0.6776 
G01 X-1.9976 Y0.6727 
G01 X-2.0034 Y0.6689 
G01 X-2.0098 Y0.6662 
G01 X-2.0165 Y0.6649 
G01 X-2.0835 Y0.6649 
G01 X-2.0902 Y0.6662 
G01 X-2.0966 Y0.6689 
G01 X-2.1024 Y0.6727 
G01 X-2.1073 Y0.6776 
G01 X-2.1111 Y0.6834 
G01 X-2.1138 Y0.6898 
G01 X-2.1151 Y0.6965 
G01 X-2.1151 Y0.7035 
G01 X-2.1138 Y0.7102 
G01 X-2.1111 Y0.7166 
G01 X-2.1073 Y0.7224 
G01 X-2.1024 Y0.7273 
G01 X-2.0966 Y0.7311 
G01 X-2.0902 Y0.7338 
G01 X-2.0835 Y0.7351 
G00 Z0.0300 
G00 X-2.0835 Y0.6351 
G01 Z-0.0050 F10.00 
G01 X-2.0165 Y0.6351 
G01 X-2.0098 Y0.6338 
G01 X-2.0034 Y0.6311 
G01 X-1.9976 Y0.6273 
G01 X-1.9927 Y0.6224 
G01 X-1.9889 Y0.6166 
G01 X-1.9862 Y0.6102 
G01 X-1.9849 Y0.6035 
G01 X-1.9849 Y0.5965 
G01 X-1.9862 Y0.5898 
G01 X-1.9889 Y0.5834 
G01 X-1.9927 Y0.5776 
G01 X-1.9976 Y0.5727 
G01 X-2.0034 Y0.5689 
G01 X-2.0098 Y0.5662 
G01 X-2.0165 Y0.5649 
G01 X-2.0835 Y0.5649 
G01 X-2.0902 Y0.5662 
G01 X-2.0966 Y0.5689 
G01 X-2.1024 Y0.5727 
G01 X-2.1073 Y0.5776 
G01 X-2.1111 Y0.5834 
G01 X-2.1138 Y0.5898 
G01 X-2.1151 Y0.5965 
G01 X-2.1151 Y0.6035 
G01 X-2.1138 Y0.6102 
G01 X-2.1111 Y0.6166 
G01 X-2.1073 Y0.6224 
G01 X-2.1024 Y0.6273 
G01 X-2.0966 Y0.6311 
G01 X-2.0902 Y0.6338 
G01 X-2.0835 Y0.6351 
G00 Z0.0300 
G00 X-2.0835 Y0.5351 
G01 Z-0.0050 F10.00 
G01 X-2.0165 Y0.5351 
G01 X-2.0098 Y0.5338 
G01 X-2.0034 Y0.5311 
G01 X-1.9976 Y0.5273 
G01 X-1.9927 Y0.5224 
G01 X-1.9889 Y0.5166 
G01 X-1.9862 Y0.5102 
G01 X-1.9849 Y0.5035 
G01 X-1.9849 Y0.4965 
G01 X-1.9862 Y0.4898 
G01 X-1.9889 Y0.4834 
G01 X-1.9927 Y0.4776 
G01 X-1.9976 Y0.4727 
G01 X-2.0034 Y0.4689 
G01 X-2.0098 Y0.4662 
G01 X-2.0165 Y0.4649 
G01 X-2.0835 Y0.4649 
G01 X-2.0902 Y0.4662 
G01 X-2.0966 Y0.4689 
G01 X-2.1024 Y0.4727 
G01 X-2.1073 Y0.4776 
G01 X-2.1111 Y0.4834 
G01 X-2.1138 Y0.4898 
G01 X-2.1151 Y0.4965 
G01 X-2.1151 Y0.5035 
G01 X-2.1138 Y0.5102 
G01 X-2.1111 Y0.5166 
G01 X-2.1073 Y0.5224 
G01 X-2.1024 Y0.5273 
G01 X-2.0966 Y0.5311 
G01 X-2.0902 Y0.5338 
G01 X-2.0835 Y0.5351 
G00 Z0.0300 
G00 X-2.0835 Y1.9351 
G01 Z-0.0050 F10.00 
G01 X-2.0165 Y1.9351 
G01 X-2.0098 Y1.9338 
G01 X-2.0034 Y1.9311 
G01 X-1.9976 Y1.9273 
G01 X-1.9927 Y1.9224 
G01 X-1.9889 Y1.9166 
G01 X-1.9862 Y1.9102 
G01 X-1.9849 Y1.9035 
G01 X-1.9849 Y1.8965 
G01 X-1.9862 Y1.8898 
G01 X-1.9889 Y1.8834 
G01 X-1.9927 Y1.8776 
G01 X-1.9976 Y1.8727 
G01 X-2.0034 Y1.8689 
G01 X-2.0098 Y1.8662 
G01 X-2.0165 Y1.8649 
G01 X-2.0835 Y1.8649 
G01 X-2.0902 Y1.8662 
G01 X-2.0966 Y1.8689 
G01 X-2.1024 Y1.8727 
G01 X-2.1073 Y1.8776 
G01 X-2.1111 Y1.8834 
G01 X-2.1138 Y1.8898 
G01 X-2.1151 Y1.8965 
G01 X-2.1151 Y1.9035 
G01 X-2.1138 Y1.9102 
G01 X-2.1111 Y1.9166 
G01 X-2.1073 Y1.9224 
G01 X-2.1024 Y1.9273 
G01 X-2.0966 Y1.9311 
G01 X-2.0902 Y1.9338 
G01 X-2.0835 Y1.9351 
G00 Z0.0300 
G00 X-2.0835 Y1.8351 
G01 Z-0.0050 F10.00 
G01 X-2.0165 Y1.8351 
G01 X-2.0098 Y1.8338 
G01 X-2.0034 Y1.8311 
G01 X-1.9976 Y1.8273 
G01 X-1.9927 Y1.8224 
G01 X-1.9889 Y1.8166 
G01 X-1.9862 Y1.8102 
G01 X-1.9849 Y1.8035 
G01 X-1.9849 Y1.7965 
G01 X-1.9862 Y1.7898 
G01 X-1.9889 Y1.7834 
G01 X-1.9927 Y1.7776 
G01 X-1.9976 Y1.7727 
G01 X-2.0034 Y1.7689 
G01 X-2.0098 Y1.7662 
G01 X-2.0165 Y1.7649 
G01 X-2.0835 Y1.7649 
G01 X-2.0902 Y1.7662 
G01 X-2.0966 Y1.7689 
G01 X-2.1024 Y1.7727 
G01 X-2.1073 Y1.7776 
G01 X-2.1111 Y1.7834 
G01 X-2.1138 Y1.7898 
G01 X-2.1151 Y1.7965 
G01 X-2.1151 Y1.8035 
G01 X-2.1138 Y1.8102 
G01 X-2.1111 Y1.8166 
G01 X-2.1073 Y1.8224 
G01 X-2.1024 Y1.8273 
G01 X-2.0966 Y1.8311 
G01 X-2.0902 Y1.8338 
G01 X-2.0835 Y1.8351 
G00 Z0.0300 
G00 X-2.0835 Y1.7351 
G01 Z-0.0050 F10.00 
G01 X-2.0165 Y1.7351 
G01 X-2.0098 Y1.7338 
G01 X-2.0034 Y1.7311 
G01 X-1.9976 Y1.7273 
G01 X-1.9927 Y1.7224 
G01 X-1.9889 Y1.7166 
G01 X-1.9862 Y1.7102 
G01 X-1.9849 Y1.7035 
G01 X-1.9849 Y1.6965 
G01 X-1.9862 Y1.6898 
G01 X-1.9889 Y1.6834 
G01 X-1.9927 Y1.6776 
G01 X-1.9976 Y1.6727 
G01 X-2.0034 Y1.6689 
G01 X-2.0098 Y1.6662 
G01 X-2.0165 Y1.6649 
G01 X-2.0835 Y1.6649 
G01 X-2.0902 Y1.6662 
G01 X-2.0966 Y1.6689 
G01 X-2.1024 Y1.6727 
G01 X-2.1073 Y1.6776 
G01 X-2.1111 Y1.6834 
G01 X-2.1138 Y1.6898 
G01 X-2.1151 Y1.6965 
G01 X-2.1151 Y1.7035 
G01 X-2.1138 Y1.7102 
G01 X-2.1111 Y1.7166 
G01 X-2.1073 Y1.7224 
G01 X-2.1024 Y1.7273 
G01 X-2.0966 Y1.7311 
G01 X-2.0902 Y1.7338 
G01 X-2.0835 Y1.7351 
G00 Z0.0300 
G00 X-2.0835 Y1.6351 
G01 Z-0.0050 F10.00 
G01 X-2.0165 Y1.6351 
G01 X-2.0098 Y1.6338 
G01 X-2.0034 Y1.6311 
G01 X-1.9976 Y1.6273 
G01 X-1.9927 Y1.6224 
G01 X-1.9889 Y1.6166 
G01 X-1.9862 Y1.6102 
G01 X-1.9849 Y1.6035 
G01 X-1.9849 Y1.5965 
G01 X-1.9862 Y1.5898 
G01 X-1.9889 Y1.5834 
G01 X-1.9927 Y1.5776 
G01 X-1.9976 Y1.5727 
G01 X-2.0034 Y1.5689 
G01 X-2.0098 Y1.5662 
G01 X-2.0165 Y1.5649 
G01 X-2.0835 Y1.5649 
G01 X-2.0902 Y1.5662 
G01 X-2.0966 Y1.5689 
G01 X-2.1024 Y1.5727 
G01 X-2.1073 Y1.5776 
G01 X-2.1111 Y1.5834 
G01 X-2.1138 Y1.5898 
G01 X-2.1151 Y1.5965 
G01 X-2.1151 Y1.6035 
G01 X-2.1138 Y1.6102 
G01 X-2.1111 Y1.6166 
G01 X-2.1073 Y1.6224 
G01 X-2.1024 Y1.6273 
G01 X-2.0966 Y1.6311 
G01 X-2.0902 Y1.6338 
G01 X-2.0835 Y1.6351 
G00 Z0.0300 
G00 X-2.0835 Y1.5351 
G01 Z-0.0050 F10.00 
G01 X-2.0165 Y1.5351 
G01 X-2.0098 Y1.5338 
G01 X-2.0034 Y1.5311 
G01 X-1.9976 Y1.5273 
G01 X-1.9927 Y1.5224 
G01 X-1.9889 Y1.5166 
G01 X-1.9862 Y1.5102 
G01 X-1.9849 Y1.5035 
G01 X-1.9849 Y1.4965 
G01 X-1.9862 Y1.4898 
G01 X-1.9889 Y1.4834 
G01 X-1.9927 Y1.4776 
G01 X-1.9976 Y1.4727 
G01 X-2.0034 Y1.4689 
G01 X-2.0098 Y1.4662 
G01 X-2.0165 Y1.4649 
G01 X-2.0835 Y1.4649 
G01 X-2.0902 Y1.4662 
G01 X-2.0966 Y1.4689 
G01 X-2.1024 Y1.4727 
G01 X-2.1073 Y1.4776 
G01 X-2.1111 Y1.4834 
G01 X-2.1138 Y1.4898 
G01 X-2.1151 Y1.4965 
G01 X-2.1151 Y1.5035 
G01 X-2.1138 Y1.5102 
G01 X-2.1111 Y1.5166 
G01 X-2.1073 Y1.5224 
G01 X-2.1024 Y1.5273 
G01 X-2.0966 Y1.5311 
G01 X-2.0902 Y1.5338 
G01 X-2.0835 Y1.5351 
G00 Z0.0300 
G00 X-2.0835 Y1.4351 
G01 Z-0.0050 F10.00 
G01 X-2.0165 Y1.4351 
G01 X-2.0098 Y1.4338 
G01 X-2.0034 Y1.4311 
G01 X-1.9976 Y1.4273 
G01 X-1.9927 Y1.4224 
G01 X-1.9889 Y1.4166 
G01 X-1.9862 Y1.4102 
G01 X-1.9849 Y1.4035 
G01 X-1.9849 Y1.3965 
G01 X-1.9862 Y1.3898 
G01 X-1.9889 Y1.3834 
G01 X-1.9927 Y1.3776 
G01 X-1.9976 Y1.3727 
G01 X-2.0034 Y1.3689 
G01 X-2.0098 Y1.3662 
G01 X-2.0165 Y1.3649 
G01 X-2.0835 Y1.3649 
G01 X-2.0902 Y1.3662 
G01 X-2.0966 Y1.3689 
G01 X-2.1024 Y1.3727 
G01 X-2.1073 Y1.3776 
G01 X-2.1111 Y1.3834 
G01 X-2.1138 Y1.3898 
G01 X-2.1151 Y1.3965 
G01 X-2.1151 Y1.4035 
G01 X-2.1138 Y1.4102 
G01 X-2.1111 Y1.4166 
G01 X-2.1073 Y1.4224 
G01 X-2.1024 Y1.4273 
G01 X-2.0966 Y1.4311 
G01 X-2.0902 Y1.4338 
G01 X-2.0835 Y1.4351 
G00 Z0.0300 
G00 X-0.1835 Y1.0851 
G01 Z-0.0050 F10.00 
G01 X-0.1165 Y1.0851 
G01 X-0.1098 Y1.0838 
G01 X-0.1034 Y1.0811 
G01 X-0.0976 Y1.0773 
G01 X-0.0927 Y1.0724 
G01 X-0.0889 Y1.0666 
G01 X-0.0862 Y1.0602 
G01 X-0.0849 Y1.0535 
G01 X-0.0849 Y1.0465 
G01 X-0.0862 Y1.0398 
G01 X-0.0889 Y1.0334 
G01 X-0.0927 Y1.0276 
G01 X-0.0976 Y1.0227 
G01 X-0.1034 Y1.0189 
G01 X-0.1098 Y1.0162 
G01 X-0.1165 Y1.0149 
G01 X-0.1835 Y1.0149 
G01 X-0.1902 Y1.0162 
G01 X-0.1966 Y1.0189 
G01 X-0.2024 Y1.0227 
G01 X-0.2073 Y1.0276 
G01 X-0.2111 Y1.0334 
G01 X-0.2138 Y1.0398 
G01 X-0.2151 Y1.0465 
G01 X-0.2151 Y1.0535 
G01 X-0.2138 Y1.0602 
G01 X-0.2111 Y1.0666 
G01 X-0.2073 Y1.0724 
G01 X-0.2024 Y1.0773 
G01 X-0.1966 Y1.0811 
G01 X-0.1902 Y1.0838 
G01 X-0.1835 Y1.0851 
G00 Z0.0300 
G00 X-0.1835 Y0.9851 
G01 Z-0.0050 F10.00 
G01 X-0.1165 Y0.9851 
G01 X-0.1098 Y0.9838 
G01 X-0.1034 Y0.9811 
G01 X-0.0976 Y0.9773 
G01 X-0.0927 Y0.9724 
G01 X-0.0889 Y0.9666 
G01 X-0.0862 Y0.9602 
G01 X-0.0849 Y0.9535 
G01 X-0.0849 Y0.9465 
G01 X-0.0862 Y0.9398 
G01 X-0.0889 Y0.9334 
G01 X-0.0927 Y0.9276 
G01 X-0.0976 Y0.9227 
G01 X-0.1034 Y0.9189 
G01 X-0.1098 Y0.9162 
G01 X-0.1165 Y0.9149 
G01 X-0.1835 Y0.9149 
G01 X-0.1902 Y0.9162 
G01 X-0.1966 Y0.9189 
G01 X-0.2024 Y0.9227 
G01 X-0.2073 Y0.9276 
G01 X-0.2111 Y0.9334 
G01 X-0.2138 Y0.9398 
G01 X-0.2151 Y0.9465 
G01 X-0.2151 Y0.9535 
G01 X-0.2138 Y0.9602 
G01 X-0.2111 Y0.9666 
G01 X-0.2073 Y0.9724 
G01 X-0.2024 Y0.9773 
G01 X-0.1966 Y0.9811 
G01 X-0.1902 Y0.9838 
G01 X-0.1835 Y0.9851 
G00 Z0.0300 
G00 X-0.1835 Y0.8851 
G01 Z-0.0050 F10.00 
G01 X-0.1165 Y0.8851 
G01 X-0.1098 Y0.8838 
G01 X-0.1034 Y0.8811 
G01 X-0.0976 Y0.8773 
G01 X-0.0927 Y0.8724 
G01 X-0.0889 Y0.8666 
G01 X-0.0862 Y0.8602 
G01 X-0.0849 Y0.8535 
G01 X-0.0849 Y0.8465 
G01 X-0.0862 Y0.8398 
G01 X-0.0889 Y0.8334 
G01 X-0.0927 Y0.8276 
G01 X-0.0976 Y0.8227 
G01 X-0.1034 Y0.8189 
G01 X-0.1098 Y0.8162 
G01 X-0.1165 Y0.8149 
G01 X-0.1835 Y0.8149 
G01 X-0.1902 Y0.8162 
G01 X-0.1966 Y0.8189 
G01 X-0.2024 Y0.8227 
G01 X-0.2073 Y0.8276 
G01 X-0.2111 Y0.8334 
G01 X-0.2138 Y0.8398 
G01 X-0.2151 Y0.8465 
G01 X-0.2151 Y0.8535 
G01 X-0.2138 Y0.8602 
G01 X-0.2111 Y0.8666 
G01 X-0.2073 Y0.8724 
G01 X-0.2024 Y0.8773 
G01 X-0.1966 Y0.8811 
G01 X-0.1902 Y0.8838 
G01 X-0.1835 Y0.8851 
G00 Z0.0300 
G00 X-0.1835 Y0.7851 
G01 Z-0.0050 F10.00 
G01 X-0.1165 Y0.7851 
G01 X-0.1098 Y0.7838 
G01 X-0.1034 Y0.7811 
G01 X-0.0976 Y0.7773 
G01 X-0.0927 Y0.7724 
G01 X-0.0889 Y0.7666 
G01 X-0.0862 Y0.7602 
G01 X-0.0849 Y0.7535 
G01 X-0.0849 Y0.7465 
G01 X-0.0862 Y0.7398 
G01 X-0.0889 Y0.7334 
G01 X-0.0927 Y0.7276 
G01 X-0.0976 Y0.7227 
G01 X-0.1034 Y0.7189 
G01 X-0.1098 Y0.7162 
G01 X-0.1165 Y0.7149 
G01 X-0.1835 Y0.7149 
G01 X-0.1902 Y0.7162 
G01 X-0.1966 Y0.7189 
G01 X-0.2024 Y0.7227 
G01 X-0.2073 Y0.7276 
G01 X-0.2111 Y0.7334 
G01 X-0.2138 Y0.7398 
G01 X-0.2151 Y0.7465 
G01 X-0.2151 Y0.7535 
G01 X-0.2138 Y0.7602 
G01 X-0.2111 Y0.7666 
G01 X-0.2073 Y0.7724 
G01 X-0.2024 Y0.7773 
G01 X-0.1966 Y0.7811 
G01 X-0.1902 Y0.7838 
G01 X-0.1835 Y0.7851 
G00 Z0.0300 
G00 X-0.1835 Y0.6851 
G01 Z-0.0050 F10.00 
G01 X-0.1165 Y0.6851 
G01 X-0.1098 Y0.6838 
G01 X-0.1034 Y0.6811 
G01 X-0.0976 Y0.6773 
G01 X-0.0927 Y0.6724 
G01 X-0.0889 Y0.6666 
G01 X-0.0862 Y0.6602 
G01 X-0.0849 Y0.6535 
G01 X-0.0849 Y0.6465 
G01 X-0.0862 Y0.6398 
G01 X-0.0889 Y0.6334 
G01 X-0.0927 Y0.6276 
G01 X-0.0976 Y0.6227 
G01 X-0.1034 Y0.6189 
G01 X-0.1098 Y0.6162 
G01 X-0.1165 Y0.6149 
G01 X-0.1835 Y0.6149 
G01 X-0.1902 Y0.6162 
G01 X-0.1966 Y0.6189 
G01 X-0.2024 Y0.6227 
G01 X-0.2073 Y0.6276 
G01 X-0.2111 Y0.6334 
G01 X-0.2138 Y0.6398 
G01 X-0.2151 Y0.6465 
G01 X-0.2151 Y0.6535 
G01 X-0.2138 Y0.6602 
G01 X-0.2111 Y0.6666 
G01 X-0.2073 Y0.6724 
G01 X-0.2024 Y0.6773 
G01 X-0.1966 Y0.6811 
G01 X-0.1902 Y0.6838 
G01 X-0.1835 Y0.6851 
G00 Z0.0300 
G00 X-0.1835 Y0.5851 
G01 Z-0.0050 F10.00 
G01 X-0.1165 Y0.5851 
G01 X-0.1098 Y0.5838 
G01 X-0.1034 Y0.5811 
G01 X-0.0976 Y0.5773 
G01 X-0.0927 Y0.5724 
G01 X-0.0889 Y0.5666 
G01 X-0.0862 Y0.5602 
G01 X-0.0849 Y0.5535 
G01 X-0.0849 Y0.5465 
G01 X-0.0862 Y0.5398 
G01 X-0.0889 Y0.5334 
G01 X-0.0927 Y0.5276 
G01 X-0.0976 Y0.5227 
G01 X-0.1034 Y0.5189 
G01 X-0.1098 Y0.5162 
G01 X-0.1165 Y0.5149 
G01 X-0.1835 Y0.5149 
G01 X-0.1902 Y0.5162 
G01 X-0.1966 Y0.5189 
G01 X-0.2024 Y0.5227 
G01 X-0.2073 Y0.5276 
G01 X-0.2111 Y0.5334 
G01 X-0.2138 Y0.5398 
G01 X-0.2151 Y0.5465 
G01 X-0.2151 Y0.5535 
G01 X-0.2138 Y0.5602 
G01 X-0.2111 Y0.5666 
G01 X-0.2073 Y0.5724 
G01 X-0.2024 Y0.5773 
G01 X-0.1966 Y0.5811 
G01 X-0.1902 Y0.5838 
G01 X-0.1835 Y0.5851 
G00 Z0.0300 
G00 X-0.1835 Y0.4851 
G01 Z-0.0050 F10.00 
G01 X-0.1165 Y0.4851 
G01 X-0.1098 Y0.4838 
G01 X-0.1034 Y0.4811 
G01 X-0.0976 Y0.4773 
G01 X-0.0927 Y0.4724 
G01 X-0.0889 Y0.4666 
G01 X-0.0862 Y0.4602 
G01 X-0.0849 Y0.4535 
G01 X-0.0849 Y0.4465 
G01 X-0.0862 Y0.4398 
G01 X-0.0889 Y0.4334 
G01 X-0.0927 Y0.4276 
G01 X-0.0976 Y0.4227 
G01 X-0.1034 Y0.4189 
G01 X-0.1098 Y0.4162 
G01 X-0.1165 Y0.4149 
G01 X-0.1835 Y0.4149 
G01 X-0.1902 Y0.4162 
G01 X-0.1966 Y0.4189 
G01 X-0.2024 Y0.4227 
G01 X-0.2073 Y0.4276 
G01 X-0.2111 Y0.4334 
G01 X-0.2138 Y0.4398 
G01 X-0.2151 Y0.4465 
G01 X-0.2151 Y0.4535 
G01 X-0.2138 Y0.4602 
G01 X-0.2111 Y0.4666 
G01 X-0.2073 Y0.4724 
G01 X-0.2024 Y0.4773 
G01 X-0.1966 Y0.4811 
G01 X-0.1902 Y0.4838 
G01 X-0.1835 Y0.4851 
G00 Z0.0300 
G00 X-0.1835 Y0.3851 
G01 Z-0.0050 F10.00 
G01 X-0.1165 Y0.3851 
G01 X-0.1098 Y0.3838 
G01 X-0.1034 Y0.3811 
G01 X-0.0976 Y0.3773 
G01 X-0.0927 Y0.3724 
G01 X-0.0889 Y0.3666 
G01 X-0.0862 Y0.3602 
G01 X-0.0849 Y0.3535 
G01 X-0.0849 Y0.3465 
G01 X-0.0862 Y0.3398 
G01 X-0.0889 Y0.3334 
G01 X-0.0927 Y0.3276 
G01 X-0.0976 Y0.3227 
G01 X-0.1034 Y0.3189 
G01 X-0.1098 Y0.3162 
G01 X-0.1165 Y0.3149 
G01 X-0.1835 Y0.3149 
G01 X-0.1902 Y0.3162 
G01 X-0.1966 Y0.3189 
G01 X-0.2024 Y0.3227 
G01 X-0.2073 Y0.3276 
G01 X-0.2111 Y0.3334 
G01 X-0.2138 Y0.3398 
G01 X-0.2151 Y0.3465 
G01 X-0.2151 Y0.3535 
G01 X-0.2138 Y0.3602 
G01 X-0.2111 Y0.3666 
G01 X-0.2073 Y0.3724 
G01 X-0.2024 Y0.3773 
G01 X-0.1966 Y0.3811 
G01 X-0.1902 Y0.3838 
G01 X-0.1835 Y0.3851 
G00 Z0.0300 
G00 X-0.1835 Y0.2851 
G01 Z-0.0050 F10.00 
G01 X-0.1165 Y0.2851 
G01 X-0.1098 Y0.2838 
G01 X-0.1034 Y0.2811 
G01 X-0.0976 Y0.2773 
G01 X-0.0927 Y0.2724 
G01 X-0.0889 Y0.2666 
G01 X-0.0862 Y0.2602 
G01 X-0.0849 Y0.2535 
G01 X-0.0849 Y0.2465 
G01 X-0.0862 Y0.2398 
G01 X-0.0889 Y0.2334 
G01 X-0.0927 Y0.2276 
G01 X-0.0976 Y0.2227 
G01 X-0.1034 Y0.2189 
G01 X-0.1098 Y0.2162 
G01 X-0.1165 Y0.2149 
G01 X-0.1835 Y0.2149 
G01 X-0.1902 Y0.2162 
G01 X-0.1966 Y0.2189 
G01 X-0.2024 Y0.2227 
G01 X-0.2073 Y0.2276 
G01 X-0.2111 Y0.2334 
G01 X-0.2138 Y0.2398 
G01 X-0.2151 Y0.2465 
G01 X-0.2151 Y0.2535 
G01 X-0.2138 Y0.2602 
G01 X-0.2111 Y0.2666 
G01 X-0.2073 Y0.2724 
G01 X-0.2024 Y0.2773 
G01 X-0.1966 Y0.2811 
G01 X-0.1902 Y0.2838 
G01 X-0.1835 Y0.2851 
G00 Z0.0300 
G00 X-0.1835 Y0.1851 
G01 Z-0.0050 F10.00 
G01 X-0.1165 Y0.1851 
G01 X-0.1098 Y0.1838 
G01 X-0.1034 Y0.1811 
G01 X-0.0976 Y0.1773 
G01 X-0.0927 Y0.1724 
G01 X-0.0889 Y0.1666 
G01 X-0.0862 Y0.1602 
G01 X-0.0849 Y0.1535 
G01 X-0.0849 Y0.1465 
G01 X-0.0862 Y0.1398 
G01 X-0.0889 Y0.1334 
G01 X-0.0927 Y0.1276 
G01 X-0.0976 Y0.1227 
G01 X-0.1034 Y0.1189 
G01 X-0.1098 Y0.1162 
G01 X-0.1165 Y0.1149 
G01 X-0.1835 Y0.1149 
G01 X-0.1902 Y0.1162 
G01 X-0.1966 Y0.1189 
G01 X-0.2024 Y0.1227 
G01 X-0.2073 Y0.1276 
G01 X-0.2111 Y0.1334 
G01 X-0.2138 Y0.1398 
G01 X-0.2151 Y0.1465 
G01 X-0.2151 Y0.1535 
G01 X-0.2138 Y0.1602 
G01 X-0.2111 Y0.1666 
G01 X-0.2073 Y0.1724 
G01 X-0.2024 Y0.1773 
G01 X-0.1966 Y0.1811 
G01 X-0.1902 Y0.1838 
G01 X-0.1835 Y0.1851 
G00 Z0.0300 
G00 X-0.4649 Y1.6835 
G01 Z-0.0050 F10.00 
G01 X-0.4649 Y1.6165 
G01 X-0.4662 Y1.6098 
G01 X-0.4689 Y1.6034 
G01 X-0.4727 Y1.5976 
G01 X-0.4776 Y1.5927 
G01 X-0.4834 Y1.5889 
G01 X-0.4898 Y1.5862 
G01 X-0.4965 Y1.5849 
G01 X-0.5035 Y1.5849 
G01 X-0.5102 Y1.5862 
G01 X-0.5166 Y1.5889 
G01 X-0.5224 Y1.5927 
G01 X-0.5273 Y1.5976 
G01 X-0.5311 Y1.6034 
G01 X-0.5338 Y1.6098 
G01 X-0.5351 Y1.6165 
G01 X-0.5351 Y1.6835 
G01 X-0.5338 Y1.6902 
G01 X-0.5311 Y1.6966 
G01 X-0.5273 Y1.7024 
G01 X-0.5224 Y1.7073 
G01 X-0.5166 Y1.7111 
G01 X-0.5102 Y1.7138 
G01 X-0.5035 Y1.7151 
G01 X-0.4965 Y1.7151 
G01 X-0.4898 Y1.7138 
G01 X-0.4834 Y1.7111 
G01 X-0.4776 Y1.7073 
G01 X-0.4727 Y1.7024 
G01 X-0.4689 Y1.6966 
G01 X-0.4662 Y1.6902 
G01 X-0.4649 Y1.6835 
G00 Z0.0300 
G00 X-0.5649 Y1.6835 
G01 Z-0.0050 F10.00 
G01 X-0.5649 Y1.6165 
G01 X-0.5662 Y1.6098 
G01 X-0.5689 Y1.6034 
G01 X-0.5727 Y1.5976 
G01 X-0.5776 Y1.5927 
G01 X-0.5834 Y1.5889 
G01 X-0.5898 Y1.5862 
G01 X-0.5965 Y1.5849 
G01 X-0.6035 Y1.5849 
G01 X-0.6102 Y1.5862 
G01 X-0.6166 Y1.5889 
G01 X-0.6224 Y1.5927 
G01 X-0.6273 Y1.5976 
G01 X-0.6311 Y1.6034 
G01 X-0.6338 Y1.6098 
G01 X-0.6351 Y1.6165 
G01 X-0.6351 Y1.6835 
G01 X-0.6338 Y1.6902 
G01 X-0.6311 Y1.6966 
G01 X-0.6273 Y1.7024 
G01 X-0.6224 Y1.7073 
G01 X-0.6166 Y1.7111 
G01 X-0.6102 Y1.7138 
G01 X-0.6035 Y1.7151 
G01 X-0.5965 Y1.7151 
G01 X-0.5898 Y1.7138 
G01 X-0.5834 Y1.7111 
G01 X-0.5776 Y1.7073 
G01 X-0.5727 Y1.7024 
G01 X-0.5689 Y1.6966 
G01 X-0.5662 Y1.6902 
G01 X-0.5649 Y1.6835 
G00 Z0.0300 
G00 X-0.6649 Y1.6835 
G01 Z-0.0050 F10.00 
G01 X-0.6649 Y1.6165 
G01 X-0.6662 Y1.6098 
G01 X-0.6689 Y1.6034 
G01 X-0.6727 Y1.5976 
G01 X-0.6776 Y1.5927 
G01 X-0.6834 Y1.5889 
G01 X-0.6898 Y1.5862 
G01 X-0.6965 Y1.5849 
G01 X-0.7035 Y1.5849 
G01 X-0.7102 Y1.5862 
G01 X-0.7166 Y1.5889 
G01 X-0.7224 Y1.5927 
G01 X-0.7273 Y1.5976 
G01 X-0.7311 Y1.6034 
G01 X-0.7338 Y1.6098 
G01 X-0.7351 Y1.6165 
G01 X-0.7351 Y1.6835 
G01 X-0.7338 Y1.6902 
G01 X-0.7311 Y1.6966 
G01 X-0.7273 Y1.7024 
G01 X-0.7224 Y1.7073 
G01 X-0.7166 Y1.7111 
G01 X-0.7102 Y1.7138 
G01 X-0.7035 Y1.7151 
G01 X-0.6965 Y1.7151 
G01 X-0.6898 Y1.7138 
G01 X-0.6834 Y1.7111 
G01 X-0.6776 Y1.7073 
G01 X-0.6727 Y1.7024 
G01 X-0.6689 Y1.6966 
G01 X-0.6662 Y1.6902 
G01 X-0.6649 Y1.6835 
G00 Z0.0300 
G00 X-0.7649 Y1.6835 
G01 Z-0.0050 F10.00 
G01 X-0.7649 Y1.6165 
G01 X-0.7662 Y1.6098 
G01 X-0.7689 Y1.6034 
G01 X-0.7727 Y1.5976 
G01 X-0.7776 Y1.5927 
G01 X-0.7834 Y1.5889 
G01 X-0.7898 Y1.5862 
G01 X-0.7965 Y1.5849 
G01 X-0.8035 Y1.5849 
G01 X-0.8102 Y1.5862 
G01 X-0.8166 Y1.5889 
G01 X-0.8224 Y1.5927 
G01 X-0.8273 Y1.5976 
G01 X-0.8311 Y1.6034 
G01 X-0.8338 Y1.6098 
G01 X-0.8351 Y1.6165 
G01 X-0.8351 Y1.6835 
G01 X-0.8338 Y1.6902 
G01 X-0.8311 Y1.6966 
G01 X-0.8273 Y1.7024 
G01 X-0.8224 Y1.7073 
G01 X-0.8166 Y1.7111 
G01 X-0.8102 Y1.7138 
G01 X-0.8035 Y1.7151 
G01 X-0.7965 Y1.7151 
G01 X-0.7898 Y1.7138 
G01 X-0.7834 Y1.7111 
G01 X-0.7776 Y1.7073 
G01 X-0.7727 Y1.7024 
G01 X-0.7689 Y1.6966 
G01 X-0.7662 Y1.6902 
G01 X-0.7649 Y1.6835 
G00 Z0.0300 
G00 X-0.8649 Y1.6835 
G01 Z-0.0050 F10.00 
G01 X-0.8649 Y1.6165 
G01 X-0.8662 Y1.6098 
G01 X-0.8689 Y1.6034 
G01 X-0.8727 Y1.5976 
G01 X-0.8776 Y1.5927 
G01 X-0.8834 Y1.5889 
G01 X-0.8898 Y1.5862 
G01 X-0.8965 Y1.5849 
G01 X-0.9035 Y1.5849 
G01 X-0.9102 Y1.5862 
G01 X-0.9166 Y1.5889 
G01 X-0.9224 Y1.5927 
G01 X-0.9273 Y1.5976 
G01 X-0.9311 Y1.6034 
G01 X-0.9338 Y1.6098 
G01 X-0.9351 Y1.6165 
G01 X-0.9351 Y1.6835 
G01 X-0.9338 Y1.6902 
G01 X-0.9311 Y1.6966 
G01 X-0.9273 Y1.7024 
G01 X-0.9224 Y1.7073 
G01 X-0.9166 Y1.7111 
G01 X-0.9102 Y1.7138 
G01 X-0.9035 Y1.7151 
G01 X-0.8965 Y1.7151 
G01 X-0.8898 Y1.7138 
G01 X-0.8834 Y1.7111 
G01 X-0.8776 Y1.7073 
G01 X-0.8727 Y1.7024 
G01 X-0.8689 Y1.6966 
G01 X-0.8662 Y1.6902 
G01 X-0.8649 Y1.6835 
G00 Z0.0300 
G00 X-0.9649 Y1.6835 
G01 Z-0.0050 F10.00 
G01 X-0.9649 Y1.6165 
G01 X-0.9662 Y1.6098 
G01 X-0.9689 Y1.6034 
G01 X-0.9727 Y1.5976 
G01 X-0.9776 Y1.5927 
G01 X-0.9834 Y1.5889 
G01 X-0.9898 Y1.5862 
G01 X-0.9965 Y1.5849 
G01 X-1.0035 Y1.5849 
G01 X-1.0102 Y1.5862 
G01 X-1.0166 Y1.5889 
G01 X-1.0224 Y1.5927 
G01 X-1.0273 Y1.5976 
G01 X-1.0311 Y1.6034 
G01 X-1.0338 Y1.6098 
G01 X-1.0351 Y1.6165 
G01 X-1.0351 Y1.6835 
G01 X-1.0338 Y1.6902 
G01 X-1.0311 Y1.6966 
G01 X-1.0273 Y1.7024 
G01 X-1.0224 Y1.7073 
G01 X-1.0166 Y1.7111 
G01 X-1.0102 Y1.7138 
G01 X-1.0035 Y1.7151 
G01 X-0.9965 Y1.7151 
G01 X-0.9898 Y1.7138 
G01 X-0.9834 Y1.7111 
G01 X-0.9776 Y1.7073 
G01 X-0.9727 Y1.7024 
G01 X-0.9689 Y1.6966 
G01 X-0.9662 Y1.6902 
G01 X-0.9649 Y1.6835 
G00 Z0.0300 
G00 X-1.0649 Y1.6835 
G01 Z-0.0050 F10.00 
G01 X-1.0649 Y1.6165 
G01 X-1.0662 Y1.6098 
G01 X-1.0689 Y1.6034 
G01 X-1.0727 Y1.5976 
G01 X-1.0776 Y1.5927 
G01 X-1.0834 Y1.5889 
G01 X-1.0898 Y1.5862 
G01 X-1.0965 Y1.5849 
G01 X-1.1035 Y1.5849 
G01 X-1.1102 Y1.5862 
G01 X-1.1166 Y1.5889 
G01 X-1.1224 Y1.5927 
G01 X-1.1273 Y1.5976 
G01 X-1.1311 Y1.6034 
G01 X-1.1338 Y1.6098 
G01 X-1.1351 Y1.6165 
G01 X-1.1351 Y1.6835 
G01 X-1.1338 Y1.6902 
G01 X-1.1311 Y1.6966 
G01 X-1.1273 Y1.7024 
G01 X-1.1224 Y1.7073 
G01 X-1.1166 Y1.7111 
G01 X-1.1102 Y1.7138 
G01 X-1.1035 Y1.7151 
G01 X-1.0965 Y1.7151 
G01 X-1.0898 Y1.7138 
G01 X-1.0834 Y1.7111 
G01 X-1.0776 Y1.7073 
G01 X-1.0727 Y1.7024 
G01 X-1.0689 Y1.6966 
G01 X-1.0662 Y1.6902 
G01 X-1.0649 Y1.6835 
G00 Z0.0300 
G00 X-1.1649 Y1.6835 
G01 Z-0.0050 F10.00 
G01 X-1.1649 Y1.6165 
G01 X-1.1662 Y1.6098 
G01 X-1.1689 Y1.6034 
G01 X-1.1727 Y1.5976 
G01 X-1.1776 Y1.5927 
G01 X-1.1834 Y1.5889 
G01 X-1.1898 Y1.5862 
G01 X-1.1965 Y1.5849 
G01 X-1.2035 Y1.5849 
G01 X-1.2102 Y1.5862 
G01 X-1.2166 Y1.5889 
G01 X-1.2224 Y1.5927 
G01 X-1.2273 Y1.5976 
G01 X-1.2311 Y1.6034 
G01 X-1.2338 Y1.6098 
G01 X-1.2351 Y1.6165 
G01 X-1.2351 Y1.6835 
G01 X-1.2338 Y1.6902 
G01 X-1.2311 Y1.6966 
G01 X-1.2273 Y1.7024 
G01 X-1.2224 Y1.7073 
G01 X-1.2166 Y1.7111 
G01 X-1.2102 Y1.7138 
G01 X-1.2035 Y1.7151 
G01 X-1.1965 Y1.7151 
G01 X-1.1898 Y1.7138 
G01 X-1.1834 Y1.7111 
G01 X-1.1776 Y1.7073 
G01 X-1.1727 Y1.7024 
G01 X-1.1689 Y1.6966 
G01 X-1.1662 Y1.6902 
G01 X-1.1649 Y1.6835 
G00 Z0.0300 
G00 X-1.2649 Y1.6835 
G01 Z-0.0050 F10.00 
G01 X-1.2649 Y1.6165 
G01 X-1.2662 Y1.6098 
G01 X-1.2689 Y1.6034 
G01 X-1.2727 Y1.5976 
G01 X-1.2776 Y1.5927 
G01 X-1.2834 Y1.5889 
G01 X-1.2898 Y1.5862 
G01 X-1.2965 Y1.5849 
G01 X-1.3035 Y1.5849 
G01 X-1.3102 Y1.5862 
G01 X-1.3166 Y1.5889 
G01 X-1.3224 Y1.5927 
G01 X-1.3273 Y1.5976 
G01 X-1.3311 Y1.6034 
G01 X-1.3338 Y1.6098 
G01 X-1.3351 Y1.6165 
G01 X-1.3351 Y1.6835 
G01 X-1.3338 Y1.6902 
G01 X-1.3311 Y1.6966 
G01 X-1.3273 Y1.7024 
G01 X-1.3224 Y1.7073 
G01 X-1.3166 Y1.7111 
G01 X-1.3102 Y1.7138 
G01 X-1.3035 Y1.7151 
G01 X-1.2965 Y1.7151 
G01 X-1.2898 Y1.7138 
G01 X-1.2834 Y1.7111 
G01 X-1.2776 Y1.7073 
G01 X-1.2727 Y1.7024 
G01 X-1.2689 Y1.6966 
G01 X-1.2662 Y1.6902 
G01 X-1.2649 Y1.6835 
G00 Z0.0300 
G00 X-1.3649 Y1.6835 
G01 Z-0.0050 F10.00 
G01 X-1.3649 Y1.6165 
G01 X-1.3662 Y1.6098 
G01 X-1.3689 Y1.6034 
G01 X-1.3727 Y1.5976 
G01 X-1.3776 Y1.5927 
G01 X-1.3834 Y1.5889 
G01 X-1.3898 Y1.5862 
G01 X-1.3965 Y1.5849 
G01 X-1.4035 Y1.5849 
G01 X-1.4102 Y1.5862 
G01 X-1.4166 Y1.5889 
G01 X-1.4224 Y1.5927 
G01 X-1.4273 Y1.5976 
G01 X-1.4311 Y1.6034 
G01 X-1.4338 Y1.6098 
G01 X-1.4351 Y1.6165 
G01 X-1.4351 Y1.6835 
G01 X-1.4338 Y1.6902 
G01 X-1.4311 Y1.6966 
G01 X-1.4273 Y1.7024 
G01 X-1.4224 Y1.7073 
G01 X-1.4166 Y1.7111 
G01 X-1.4102 Y1.7138 
G01 X-1.4035 Y1.7151 
G01 X-1.3965 Y1.7151 
G01 X-1.3898 Y1.7138 
G01 X-1.3834 Y1.7111 
G01 X-1.3776 Y1.7073 
G01 X-1.3727 Y1.7024 
G01 X-1.3689 Y1.6966 
G01 X-1.3662 Y1.6902 
G01 X-1.3649 Y1.6835 
G00 Z0.0300 
G00 X-1.4649 Y1.6835 
G01 Z-0.0050 F10.00 
G01 X-1.4649 Y1.6165 
G01 X-1.4662 Y1.6098 
G01 X-1.4689 Y1.6034 
G01 X-1.4727 Y1.5976 
G01 X-1.4776 Y1.5927 
G01 X-1.4834 Y1.5889 
G01 X-1.4898 Y1.5862 
G01 X-1.4965 Y1.5849 
G01 X-1.5035 Y1.5849 
G01 X-1.5102 Y1.5862 
G01 X-1.5166 Y1.5889 
G01 X-1.5224 Y1.5927 
G01 X-1.5273 Y1.5976 
G01 X-1.5311 Y1.6034 
G01 X-1.5338 Y1.6098 
G01 X-1.5351 Y1.6165 
G01 X-1.5351 Y1.6835 
G01 X-1.5338 Y1.6902 
G01 X-1.5311 Y1.6966 
G01 X-1.5273 Y1.7024 
G01 X-1.5224 Y1.7073 
G01 X-1.5166 Y1.7111 
G01 X-1.5102 Y1.7138 
G01 X-1.5035 Y1.7151 
G01 X-1.4965 Y1.7151 
G01 X-1.4898 Y1.7138 
G01 X-1.4834 Y1.7111 
G01 X-1.4776 Y1.7073 
G01 X-1.4727 Y1.7024 
G01 X-1.4689 Y1.6966 
G01 X-1.4662 Y1.6902 
G01 X-1.4649 Y1.6835 
G00 Z0.0300 
G00 X-1.5649 Y1.6835 
G01 Z-0.0050 F10.00 
G01 X-1.5649 Y1.6165 
G01 X-1.5662 Y1.6098 
G01 X-1.5689 Y1.6034 
G01 X-1.5727 Y1.5976 
G01 X-1.5776 Y1.5927 
G01 X-1.5834 Y1.5889 
G01 X-1.5898 Y1.5862 
G01 X-1.5965 Y1.5849 
G01 X-1.6035 Y1.5849 
G01 X-1.6102 Y1.5862 
G01 X-1.6166 Y1.5889 
G01 X-1.6224 Y1.5927 
G01 X-1.6273 Y1.5976 
G01 X-1.6311 Y1.6034 
G01 X-1.6338 Y1.6098 
G01 X-1.6351 Y1.6165 
G01 X-1.6351 Y1.6835 
G01 X-1.6338 Y1.6902 
G01 X-1.6311 Y1.6966 
G01 X-1.6273 Y1.7024 
G01 X-1.6224 Y1.7073 
G01 X-1.6166 Y1.7111 
G01 X-1.6102 Y1.7138 
G01 X-1.6035 Y1.7151 
G01 X-1.5965 Y1.7151 
G01 X-1.5898 Y1.7138 
G01 X-1.5834 Y1.7111 
G01 X-1.5776 Y1.7073 
G01 X-1.5727 Y1.7024 
G01 X-1.5689 Y1.6966 
G01 X-1.5662 Y1.6902 
G01 X-1.5649 Y1.6835 
G00 Z0.0300 
G00 X-1.6649 Y1.6835 
G01 Z-0.0050 F10.00 
G01 X-1.6649 Y1.6165 
G01 X-1.6662 Y1.6098 
G01 X-1.6689 Y1.6034 
G01 X-1.6727 Y1.5976 
G01 X-1.6776 Y1.5927 
G01 X-1.6834 Y1.5889 
G01 X-1.6898 Y1.5862 
G01 X-1.6965 Y1.5849 
G01 X-1.7035 Y1.5849 
G01 X-1.7102 Y1.5862 
G01 X-1.7166 Y1.5889 
G01 X-1.7224 Y1.5927 
G01 X-1.7273 Y1.5976 
G01 X-1.7311 Y1.6034 
G01 X-1.7338 Y1.6098 
G01 X-1.7351 Y1.6165 
G01 X-1.7351 Y1.6835 
G01 X-1.7338 Y1.6902 
G01 X-1.7311 Y1.6966 
G01 X-1.7273 Y1.7024 
G01 X-1.7224 Y1.7073 
G01 X-1.7166 Y1.7111 
G01 X-1.7102 Y1.7138 
G01 X-1.7035 Y1.7151 
G01 X-1.6965 Y1.7151 
G01 X-1.6898 Y1.7138 
G01 X-1.6834 Y1.7111 
G01 X-1.6776 Y1.7073 
G01 X-1.6727 Y1.7024 
G01 X-1.6689 Y1.6966 
G01 X-1.6662 Y1.6902 
G01 X-1.6649 Y1.6835 
G00 Z0.0300 
G00 X-1.7649 Y1.6835 
G01 Z-0.0050 F10.00 
G01 X-1.7649 Y1.6165 
G01 X-1.7662 Y1.6098 
G01 X-1.7689 Y1.6034 
G01 X-1.7727 Y1.5976 
G01 X-1.7776 Y1.5927 
G01 X-1.7834 Y1.5889 
G01 X-1.7898 Y1.5862 
G01 X-1.7965 Y1.5849 
G01 X-1.8035 Y1.5849 
G01 X-1.8102 Y1.5862 
G01 X-1.8166 Y1.5889 
G01 X-1.8224 Y1.5927 
G01 X-1.8273 Y1.5976 
G01 X-1.8311 Y1.6034 
G01 X-1.8338 Y1.6098 
G01 X-1.8351 Y1.6165 
G01 X-1.8351 Y1.6835 
G01 X-1.8338 Y1.6902 
G01 X-1.8311 Y1.6966 
G01 X-1.8273 Y1.7024 
G01 X-1.8224 Y1.7073 
G01 X-1.8166 Y1.7111 
G01 X-1.8102 Y1.7138 
G01 X-1.8035 Y1.7151 
G01 X-1.7965 Y1.7151 
G01 X-1.7898 Y1.7138 
G01 X-1.7834 Y1.7111 
G01 X-1.7776 Y1.7073 
G01 X-1.7727 Y1.7024 
G01 X-1.7689 Y1.6966 
G01 X-1.7662 Y1.6902 
G01 X-1.7649 Y1.6835 
G00 Z0.0300 
G00 X-1.3351 Y1.3855 
G01 Z-0.0050 F10.00 
G01 X-1.3351 Y1.4145 
G01 X-1.3145 Y1.4351 
G01 X-1.2855 Y1.4351 
G01 X-1.2649 Y1.4145 
G01 X-1.2649 Y1.3855 
G01 X-1.2855 Y1.3649 
G01 X-1.3145 Y1.3649 
G01 X-1.3351 Y1.3855 
G00 Z0.0300 
G00 X-1.4351 Y0.5355 
G01 Z-0.0050 F10.00 
G01 X-1.4351 Y0.5645 
G01 X-1.4145 Y0.5851 
G01 X-1.3855 Y0.5851 
G01 X-1.3649 Y0.5645 
G01 X-1.3649 Y0.5355 
G01 X-1.3855 Y0.5149 
G01 X-1.4145 Y0.5149 
G01 X-1.4351 Y0.5355 
G00 Z0.0300 
G00 X-1.5351 Y0.6355 
G01 Z-0.0050 F10.00 
G01 X-1.5351 Y0.6645 
G01 X-1.5145 Y0.6851 
G01 X-1.4855 Y0.6851 
G01 X-1.4649 Y0.6645 
G01 X-1.4649 Y0.6355 
G01 X-1.4855 Y0.6149 
G01 X-1.5145 Y0.6149 
G01 X-1.5351 Y0.6355 
G00 Z0.0300 
G00 X-0.5351 Y0.9855 
G01 Z-0.0050 F10.00 
G01 X-0.5351 Y1.0145 
G01 X-0.5145 Y1.0351 
G01 X-0.4855 Y1.0351 
G01 X-0.4649 Y1.0145 
G01 X-0.4649 Y0.9855 
G01 X-0.4855 Y0.9649 
G01 X-0.5145 Y0.9649 
G01 X-0.5351 Y0.9855 
G00 Z0.0300 
G00 X-0.0151 Y2.0349 
G01 Z-0.0050 F10.00 
G01 X-2.2849 Y2.0349 
G01 X-2.2849 Y0.0151 
G01 X-0.0151 Y0.0151 
G01 X-0.0151 Y2.0349 
G00 Z0.0300 
G00 X-0.1839 Y1.9401 
G01 Z-0.0050 F10.00 
G01 X-0.1161 Y1.9401 
G01 X-0.1083 Y1.9386 
G01 X-0.1010 Y1.9355 
G01 X-0.0944 Y1.9311 
G01 X-0.0889 Y1.9256 
G01 X-0.0845 Y1.9190 
G01 X-0.0814 Y1.9117 
G01 X-0.0799 Y1.9039 
G01 X-0.0799 Y1.8961 
G01 X-0.0814 Y1.8883 
G01 X-0.0845 Y1.8810 
G01 X-0.0889 Y1.8744 
G01 X-0.0944 Y1.8689 
G01 X-0.1010 Y1.8645 
G01 X-0.1083 Y1.8614 
G01 X-0.1161 Y1.8599 
G01 X-0.1839 Y1.8599 
G01 X-0.1917 Y1.8614 
G01 X-0.1990 Y1.8645 
G01 X-0.2056 Y1.8689 
G01 X-0.2111 Y1.8744 
G01 X-0.2155 Y1.8810 
G01 X-0.2186 Y1.8883 
G01 X-0.2201 Y1.8961 
G01 X-0.2201 Y1.9039 
G01 X-0.2186 Y1.9117 
G01 X-0.2155 Y1.9190 
G01 X-0.2111 Y1.9256 
G01 X-0.2056 Y1.9311 
G01 X-0.1990 Y1.9355 
G01 X-0.1917 Y1.9386 
G01 X-0.1839 Y1.9401 
G00 Z0.0300 
G00 X-0.1839 Y1.8401 
G01 Z-0.0050 F10.00 
G01 X-0.1161 Y1.8401 
G01 X-0.1083 Y1.8386 
G01 X-0.1010 Y1.8355 
G01 X-0.0944 Y1.8311 
G01 X-0.0889 Y1.8256 
G01 X-0.0845 Y1.8190 
G01 X-0.0814 Y1.8117 
G01 X-0.0799 Y1.8039 
G01 X-0.0799 Y1.7961 
G01 X-0.0814 Y1.7883 
G01 X-0.0845 Y1.7810 
G01 X-0.0889 Y1.7744 
G01 X-0.0944 Y1.7689 
G01 X-0.1010 Y1.7645 
G01 X-0.1083 Y1.7614 
G01 X-0.1161 Y1.7599 
G01 X-0.1839 Y1.7599 
G01 X-0.1917 Y1.7614 
G01 X-0.1990 Y1.7645 
G01 X-0.2056 Y1.7689 
G01 X-0.2111 Y1.7744 
G01 X-0.2155 Y1.7810 
G01 X-0.2186 Y1.7883 
G01 X-0.2201 Y1.7961 
G01 X-0.2201 Y1.8039 
G01 X-0.2186 Y1.8117 
G01 X-0.2155 Y1.8190 
G01 X-0.2111 Y1.8256 
G01 X-0.2056 Y1.8311 
G01 X-0.1990 Y1.8355 
G01 X-0.1917 Y1.8386 
G01 X-0.1839 Y1.8401 
G00 Z0.0300 
G00 X-0.1839 Y1.7401 
G01 Z-0.0050 F10.00 
G01 X-0.1161 Y1.7401 
G01 X-0.1083 Y1.7386 
G01 X-0.1010 Y1.7355 
G01 X-0.0944 Y1.7311 
G01 X-0.0889 Y1.7256 
G01 X-0.0845 Y1.7190 
G01 X-0.0814 Y1.7117 
G01 X-0.0799 Y1.7039 
G01 X-0.0799 Y1.6961 
G01 X-0.0814 Y1.6883 
G01 X-0.0845 Y1.6810 
G01 X-0.0889 Y1.6744 
G01 X-0.0944 Y1.6689 
G01 X-0.1010 Y1.6645 
G01 X-0.1083 Y1.6614 
G01 X-0.1161 Y1.6599 
G01 X-0.1839 Y1.6599 
G01 X-0.1917 Y1.6614 
G01 X-0.1990 Y1.6645 
G01 X-0.2056 Y1.6689 
G01 X-0.2111 Y1.6744 
G01 X-0.2155 Y1.6810 
G01 X-0.2186 Y1.6883 
G01 X-0.2201 Y1.6961 
G01 X-0.2201 Y1.7039 
G01 X-0.2186 Y1.7117 
G01 X-0.2155 Y1.7190 
G01 X-0.2111 Y1.7256 
G01 X-0.2056 Y1.7311 
G01 X-0.1990 Y1.7355 
G01 X-0.1917 Y1.7386 
G01 X-0.1839 Y1.7401 
G00 Z0.0300 
G00 X-0.1839 Y1.6401 
G01 Z-0.0050 F10.00 
G01 X-0.1161 Y1.6401 
G01 X-0.1083 Y1.6386 
G01 X-0.1010 Y1.6355 
G01 X-0.0944 Y1.6311 
G01 X-0.0889 Y1.6256 
G01 X-0.0845 Y1.6190 
G01 X-0.0814 Y1.6117 
G01 X-0.0799 Y1.6039 
G01 X-0.0799 Y1.5961 
G01 X-0.0814 Y1.5883 
G01 X-0.0845 Y1.5810 
G01 X-0.0889 Y1.5744 
G01 X-0.0944 Y1.5689 
G01 X-0.1010 Y1.5645 
G01 X-0.1083 Y1.5614 
G01 X-0.1161 Y1.5599 
G01 X-0.1839 Y1.5599 
G01 X-0.1917 Y1.5614 
G01 X-0.1990 Y1.5645 
G01 X-0.2056 Y1.5689 
G01 X-0.2111 Y1.5744 
G01 X-0.2155 Y1.5810 
G01 X-0.2186 Y1.5883 
G01 X-0.2201 Y1.5961 
G01 X-0.2201 Y1.6039 
G01 X-0.2186 Y1.6117 
G01 X-0.2155 Y1.6190 
G01 X-0.2111 Y1.6256 
G01 X-0.2056 Y1.6311 
G01 X-0.1990 Y1.6355 
G01 X-0.1917 Y1.6386 
G01 X-0.1839 Y1.6401 
G00 Z0.0300 
G00 X-0.1839 Y1.5401 
G01 Z-0.0050 F10.00 
G01 X-0.1161 Y1.5401 
G01 X-0.1083 Y1.5386 
G01 X-0.1010 Y1.5355 
G01 X-0.0944 Y1.5311 
G01 X-0.0889 Y1.5256 
G01 X-0.0845 Y1.5190 
G01 X-0.0814 Y1.5117 
G01 X-0.0799 Y1.5039 
G01 X-0.0799 Y1.4961 
G01 X-0.0814 Y1.4883 
G01 X-0.0845 Y1.4810 
G01 X-0.0889 Y1.4744 
G01 X-0.0944 Y1.4689 
G01 X-0.1010 Y1.4645 
G01 X-0.1083 Y1.4614 
G01 X-0.1161 Y1.4599 
G01 X-0.1839 Y1.4599 
G01 X-0.1917 Y1.4614 
G01 X-0.1990 Y1.4645 
G01 X-0.2056 Y1.4689 
G01 X-0.2111 Y1.4744 
G01 X-0.2155 Y1.4810 
G01 X-0.2186 Y1.4883 
G01 X-0.2201 Y1.4961 
G01 X-0.2201 Y1.5039 
G01 X-0.2186 Y1.5117 
G01 X-0.2155 Y1.5190 
G01 X-0.2111 Y1.5256 
G01 X-0.2056 Y1.5311 
G01 X-0.1990 Y1.5355 
G01 X-0.1917 Y1.5386 
G01 X-0.1839 Y1.5401 
G00 Z0.0300 
G00 X-0.1839 Y1.4401 
G01 Z-0.0050 F10.00 
G01 X-0.1161 Y1.4401 
G01 X-0.1083 Y1.4386 
G01 X-0.1010 Y1.4355 
G01 X-0.0944 Y1.4311 
G01 X-0.0889 Y1.4256 
G01 X-0.0845 Y1.4190 
G01 X-0.0814 Y1.4117 
G01 X-0.0799 Y1.4039 
G01 X-0.0799 Y1.3961 
G01 X-0.0814 Y1.3883 
G01 X-0.0845 Y1.3810 
G01 X-0.0889 Y1.3744 
G01 X-0.0944 Y1.3689 
G01 X-0.1010 Y1.3645 
G01 X-0.1083 Y1.3614 
G01 X-0.1161 Y1.3599 
G01 X-0.1839 Y1.3599 
G01 X-0.1917 Y1.3614 
G01 X-0.1990 Y1.3645 
G01 X-0.2056 Y1.3689 
G01 X-0.2111 Y1.3744 
G01 X-0.2155 Y1.3810 
G01 X-0.2186 Y1.3883 
G01 X-0.2201 Y1.3961 
G01 X-0.2201 Y1.4039 
G01 X-0.2186 Y1.4117 
G01 X-0.2155 Y1.4190 
G01 X-0.2111 Y1.4256 
G01 X-0.2056 Y1.4311 
G01 X-0.1990 Y1.4355 
G01 X-0.1917 Y1.4386 
G01 X-0.1839 Y1.4401 
G00 Z0.0300 
G00 X-0.1839 Y1.3401 
G01 Z-0.0050 F10.00 
G01 X-0.1161 Y1.3401 
G01 X-0.1083 Y1.3386 
G01 X-0.1010 Y1.3355 
G01 X-0.0944 Y1.3311 
G01 X-0.0889 Y1.3256 
G01 X-0.0845 Y1.3190 
G01 X-0.0814 Y1.3117 
G01 X-0.0799 Y1.3039 
G01 X-0.0799 Y1.2961 
G01 X-0.0814 Y1.2883 
G01 X-0.0845 Y1.2810 
G01 X-0.0889 Y1.2744 
G01 X-0.0944 Y1.2689 
G01 X-0.1010 Y1.2645 
G01 X-0.1083 Y1.2614 
G01 X-0.1161 Y1.2599 
G01 X-0.1839 Y1.2599 
G01 X-0.1917 Y1.2614 
G01 X-0.1990 Y1.2645 
G01 X-0.2056 Y1.2689 
G01 X-0.2111 Y1.2744 
G01 X-0.2155 Y1.2810 
G01 X-0.2186 Y1.2883 
G01 X-0.2201 Y1.2961 
G01 X-0.2201 Y1.3039 
G01 X-0.2186 Y1.3117 
G01 X-0.2155 Y1.3190 
G01 X-0.2111 Y1.3256 
G01 X-0.2056 Y1.3311 
G01 X-0.1990 Y1.3355 
G01 X-0.1917 Y1.3386 
G01 X-0.1839 Y1.3401 
G00 Z0.0300 
G00 X-0.1839 Y1.2401 
G01 Z-0.0050 F10.00 
G01 X-0.1161 Y1.2401 
G01 X-0.1083 Y1.2386 
G01 X-0.1010 Y1.2355 
G01 X-0.0944 Y1.2311 
G01 X-0.0889 Y1.2256 
G01 X-0.0845 Y1.2190 
G01 X-0.0814 Y1.2117 
G01 X-0.0799 Y1.2039 
G01 X-0.0799 Y1.1961 
G01 X-0.0814 Y1.1883 
G01 X-0.0845 Y1.1810 
G01 X-0.0889 Y1.1744 
G01 X-0.0944 Y1.1689 
G01 X-0.1010 Y1.1645 
G01 X-0.1083 Y1.1614 
G01 X-0.1161 Y1.1599 
G01 X-0.1839 Y1.1599 
G01 X-0.1917 Y1.1614 
G01 X-0.1990 Y1.1645 
G01 X-0.2056 Y1.1689 
G01 X-0.2111 Y1.1744 
G01 X-0.2155 Y1.1810 
G01 X-0.2186 Y1.1883 
G01 X-0.2201 Y1.1961 
G01 X-0.2201 Y1.2039 
G01 X-0.2186 Y1.2117 
G01 X-0.2155 Y1.2190 
G01 X-0.2111 Y1.2256 
G01 X-0.2056 Y1.2311 
G01 X-0.1990 Y1.2355 
G01 X-0.1917 Y1.2386 
G01 X-0.1839 Y1.2401 
G00 Z0.0300 
G00 X-0.6401 Y0.8834 
G01 Z-0.0050 F10.00 
G01 X-0.6401 Y0.9166 
G01 X-0.6166 Y0.9401 
G01 X-0.5834 Y0.9401 
G01 X-0.5599 Y0.9166 
G01 X-0.5599 Y0.8834 
G01 X-0.5834 Y0.8599 
G01 X-0.6166 Y0.8599 
G01 X-0.6401 Y0.8834 
G00 Z0.0300 
G00 X-1.6401 Y0.7334 
G01 Z-0.0050 F10.00 
G01 X-1.6401 Y0.7666 
G01 X-1.6166 Y0.7901 
G01 X-1.5834 Y0.7901 
G01 X-1.5599 Y0.7666 
G01 X-1.5599 Y0.7334 
G01 X-1.5834 Y0.7099 
G01 X-1.6166 Y0.7099 
G01 X-1.6401 Y0.7334 
G00 Z0.0300 
G00 X-0.3901 Y1.3834 
G01 Z-0.0050 F10.00 
G01 X-0.3901 Y1.4166 
G01 X-0.3666 Y1.4401 
G01 X-0.3334 Y1.4401 
G01 X-0.3099 Y1.4166 
G01 X-0.3099 Y1.3834 
G01 X-0.3334 Y1.3599 
G01 X-0.3666 Y1.3599 
G01 X-0.3901 Y1.3834 
G00 Z0.0300 
G00 X-0.8401 Y0.7334 
G01 Z-0.0050 F10.00 
G01 X-0.8401 Y0.7666 
G01 X-0.8166 Y0.7901 
G01 X-0.7834 Y0.7901 
G01 X-0.7599 Y0.7666 
G01 X-0.7599 Y0.7334 
G01 X-0.7834 Y0.7099 
G01 X-0.8166 Y0.7099 
G01 X-0.8401 Y0.7334 
G00 Z0.0300 
G00 X-0.9401 Y0.6334 
G01 Z-0.0050 F10.00 
G01 X-0.9401 Y0.6666 
G01 X-0.9166 Y0.6901 
G01 X-0.8834 Y0.6901 
G01 X-0.8599 Y0.6666 
G01 X-0.8599 Y0.6334 
G01 X-0.8834 Y0.6099 
G01 X-0.9166 Y0.6099 
G01 X-0.9401 Y0.6334 
G00 Z0.0300 
G00 X-1.0401 Y0.5334 
G01 Z-0.0050 F10.00 
G01 X-1.0401 Y0.5666 
G01 X-1.0166 Y0.5901 
G01 X-0.9834 Y0.5901 
G01 X-0.9599 Y0.5666 
G01 X-0.9599 Y0.5334 
G01 X-0.9834 Y0.5099 
G01 X-1.0166 Y0.5099 
G01 X-1.0401 Y0.5334 
G00 Z0.0300 
G00 X-1.7401 Y0.8834 
G01 Z-0.0050 F10.00 
G01 X-1.7401 Y0.9166 
G01 X-1.7166 Y0.9401 
G01 X-1.6834 Y0.9401 
G01 X-1.6599 Y0.9166 
G01 X-1.6599 Y0.8834 
G01 X-1.6834 Y0.8599 
G01 X-1.7166 Y0.8599 
G01 X-1.7401 Y0.8834 
G00 Z0.0300 
G00 X-1.8401 Y0.9834 
G01 Z-0.0050 F10.00 
G01 X-1.8401 Y1.0166 
G01 X-1.8166 Y1.0401 
G01 X-1.7834 Y1.0401 
G01 X-1.7599 Y1.0166 
G01 X-1.7599 Y0.9834 
G01 X-1.7834 Y0.9599 
G01 X-1.8166 Y0.9599 
G01 X-1.8401 Y0.9834 
G00 Z0.0300 
G00 X-2.0839 Y1.2401 
G01 Z-0.0050 F10.00 
G01 X-2.0161 Y1.2401 
G01 X-2.0083 Y1.2386 
G01 X-2.0010 Y1.2355 
G01 X-1.9944 Y1.2311 
G01 X-1.9889 Y1.2256 
G01 X-1.9845 Y1.2190 
G01 X-1.9814 Y1.2117 
G01 X-1.9799 Y1.2039 
G01 X-1.9799 Y1.1961 
G01 X-1.9814 Y1.1883 
G01 X-1.9845 Y1.1810 
G01 X-1.9889 Y1.1744 
G01 X-1.9944 Y1.1689 
G01 X-2.0010 Y1.1645 
G01 X-2.0083 Y1.1614 
G01 X-2.0161 Y1.1599 
G01 X-2.0839 Y1.1599 
G01 X-2.0917 Y1.1614 
G01 X-2.0990 Y1.1645 
G01 X-2.1056 Y1.1689 
G01 X-2.1111 Y1.1744 
G01 X-2.1155 Y1.1810 
G01 X-2.1186 Y1.1883 
G01 X-2.1201 Y1.1961 
G01 X-2.1201 Y1.2039 
G01 X-2.1186 Y1.2117 
G01 X-2.1155 Y1.2190 
G01 X-2.1111 Y1.2256 
G01 X-2.1056 Y1.2311 
G01 X-2.0990 Y1.2355 
G01 X-2.0917 Y1.2386 
G01 X-2.0839 Y1.2401 
G00 Z0.0300 
G00 X-2.0839 Y1.1401 
G01 Z-0.0050 F10.00 
G01 X-2.0161 Y1.1401 
G01 X-2.0083 Y1.1386 
G01 X-2.0010 Y1.1355 
G01 X-1.9944 Y1.1311 
G01 X-1.9889 Y1.1256 
G01 X-1.9845 Y1.1190 
G01 X-1.9814 Y1.1117 
G01 X-1.9799 Y1.1039 
G01 X-1.9799 Y1.0961 
G01 X-1.9814 Y1.0883 
G01 X-1.9845 Y1.0810 
G01 X-1.9889 Y1.0744 
G01 X-1.9944 Y1.0689 
G01 X-2.0010 Y1.0645 
G01 X-2.0083 Y1.0614 
G01 X-2.0161 Y1.0599 
G01 X-2.0839 Y1.0599 
G01 X-2.0917 Y1.0614 
G01 X-2.0990 Y1.0645 
G01 X-2.1056 Y1.0689 
G01 X-2.1111 Y1.0744 
G01 X-2.1155 Y1.0810 
G01 X-2.1186 Y1.0883 
G01 X-2.1201 Y1.0961 
G01 X-2.1201 Y1.1039 
G01 X-2.1186 Y1.1117 
G01 X-2.1155 Y1.1190 
G01 X-2.1111 Y1.1256 
G01 X-2.1056 Y1.1311 
G01 X-2.0990 Y1.1355 
G01 X-2.0917 Y1.1386 
G01 X-2.0839 Y1.1401 
G00 Z0.0300 
G00 X-2.0839 Y1.0401 
G01 Z-0.0050 F10.00 
G01 X-2.0161 Y1.0401 
G01 X-2.0083 Y1.0386 
G01 X-2.0010 Y1.0355 
G01 X-1.9944 Y1.0311 
G01 X-1.9889 Y1.0256 
G01 X-1.9845 Y1.0190 
G01 X-1.9814 Y1.0117 
G01 X-1.9799 Y1.0039 
G01 X-1.9799 Y0.9961 
G01 X-1.9814 Y0.9883 
G01 X-1.9845 Y0.9810 
G01 X-1.9889 Y0.9744 
G01 X-1.9944 Y0.9689 
G01 X-2.0010 Y0.9645 
G01 X-2.0083 Y0.9614 
G01 X-2.0161 Y0.9599 
G01 X-2.0839 Y0.9599 
G01 X-2.0917 Y0.9614 
G01 X-2.0990 Y0.9645 
G01 X-2.1056 Y0.9689 
G01 X-2.1111 Y0.9744 
G01 X-2.1155 Y0.9810 
G01 X-2.1186 Y0.9883 
G01 X-2.1201 Y0.9961 
G01 X-2.1201 Y1.0039 
G01 X-2.1186 Y1.0117 
G01 X-2.1155 Y1.0190 
G01 X-2.1111 Y1.0256 
G01 X-2.1056 Y1.0311 
G01 X-2.0990 Y1.0355 
G01 X-2.0917 Y1.0386 
G01 X-2.0839 Y1.0401 
G00 Z0.0300 
G00 X-2.0839 Y0.9401 
G01 Z-0.0050 F10.00 
G01 X-2.0161 Y0.9401 
G01 X-2.0083 Y0.9386 
G01 X-2.0010 Y0.9355 
G01 X-1.9944 Y0.9311 
G01 X-1.9889 Y0.9256 
G01 X-1.9845 Y0.9190 
G01 X-1.9814 Y0.9117 
G01 X-1.9799 Y0.9039 
G01 X-1.9799 Y0.8961 
G01 X-1.9814 Y0.8883 
G01 X-1.9845 Y0.8810 
G01 X-1.9889 Y0.8744 
G01 X-1.9944 Y0.8689 
G01 X-2.0010 Y0.8645 
G01 X-2.0083 Y0.8614 
G01 X-2.0161 Y0.8599 
G01 X-2.0839 Y0.8599 
G01 X-2.0917 Y0.8614 
G01 X-2.0990 Y0.8645 
G01 X-2.1056 Y0.8689 
G01 X-2.1111 Y0.8744 
G01 X-2.1155 Y0.8810 
G01 X-2.1186 Y0.8883 
G01 X-2.1201 Y0.8961 
G01 X-2.1201 Y0.9039 
G01 X-2.1186 Y0.9117 
G01 X-2.1155 Y0.9190 
G01 X-2.1111 Y0.9256 
G01 X-2.1056 Y0.9311 
G01 X-2.0990 Y0.9355 
G01 X-2.0917 Y0.9386 
G01 X-2.0839 Y0.9401 
G00 Z0.0300 
G00 X-2.0839 Y0.8401 
G01 Z-0.0050 F10.00 
G01 X-2.0161 Y0.8401 
G01 X-2.0083 Y0.8386 
G01 X-2.0010 Y0.8355 
G01 X-1.9944 Y0.8311 
G01 X-1.9889 Y0.8256 
G01 X-1.9845 Y0.8190 
G01 X-1.9814 Y0.8117 
G01 X-1.9799 Y0.8039 
G01 X-1.9799 Y0.7961 
G01 X-1.9814 Y0.7883 
G01 X-1.9845 Y0.7810 
G01 X-1.9889 Y0.7744 
G01 X-1.9944 Y0.7689 
G01 X-2.0010 Y0.7645 
G01 X-2.0083 Y0.7614 
G01 X-2.0161 Y0.7599 
G01 X-2.0839 Y0.7599 
G01 X-2.0917 Y0.7614 
G01 X-2.0990 Y0.7645 
G01 X-2.1056 Y0.7689 
G01 X-2.1111 Y0.7744 
G01 X-2.1155 Y0.7810 
G01 X-2.1186 Y0.7883 
G01 X-2.1201 Y0.7961 
G01 X-2.1201 Y0.8039 
G01 X-2.1186 Y0.8117 
G01 X-2.1155 Y0.8190 
G01 X-2.1111 Y0.8256 
G01 X-2.1056 Y0.8311 
G01 X-2.0990 Y0.8355 
G01 X-2.0917 Y0.8386 
G01 X-2.0839 Y0.8401 
G00 Z0.0300 
G00 X-2.0839 Y0.7401 
G01 Z-0.0050 F10.00 
G01 X-2.0161 Y0.7401 
G01 X-2.0083 Y0.7386 
G01 X-2.0010 Y0.7355 
G01 X-1.9944 Y0.7311 
G01 X-1.9889 Y0.7256 
G01 X-1.9845 Y0.7190 
G01 X-1.9814 Y0.7117 
G01 X-1.9799 Y0.7039 
G01 X-1.9799 Y0.6961 
G01 X-1.9814 Y0.6883 
G01 X-1.9845 Y0.6810 
G01 X-1.9889 Y0.6744 
G01 X-1.9944 Y0.6689 
G01 X-2.0010 Y0.6645 
G01 X-2.0083 Y0.6614 
G01 X-2.0161 Y0.6599 
G01 X-2.0839 Y0.6599 
G01 X-2.0917 Y0.6614 
G01 X-2.0990 Y0.6645 
G01 X-2.1056 Y0.6689 
G01 X-2.1111 Y0.6744 
G01 X-2.1155 Y0.6810 
G01 X-2.1186 Y0.6883 
G01 X-2.1201 Y0.6961 
G01 X-2.1201 Y0.7039 
G01 X-2.1186 Y0.7117 
G01 X-2.1155 Y0.7190 
G01 X-2.1111 Y0.7256 
G01 X-2.1056 Y0.7311 
G01 X-2.0990 Y0.7355 
G01 X-2.0917 Y0.7386 
G01 X-2.0839 Y0.7401 
G00 Z0.0300 
G00 X-2.0839 Y0.6401 
G01 Z-0.0050 F10.00 
G01 X-2.0161 Y0.6401 
G01 X-2.0083 Y0.6386 
G01 X-2.0010 Y0.6355 
G01 X-1.9944 Y0.6311 
G01 X-1.9889 Y0.6256 
G01 X-1.9845 Y0.6190 
G01 X-1.9814 Y0.6117 
G01 X-1.9799 Y0.6039 
G01 X-1.9799 Y0.5961 
G01 X-1.9814 Y0.5883 
G01 X-1.9845 Y0.5810 
G01 X-1.9889 Y0.5744 
G01 X-1.9944 Y0.5689 
G01 X-2.0010 Y0.5645 
G01 X-2.0083 Y0.5614 
G01 X-2.0161 Y0.5599 
G01 X-2.0839 Y0.5599 
G01 X-2.0917 Y0.5614 
G01 X-2.0990 Y0.5645 
G01 X-2.1056 Y0.5689 
G01 X-2.1111 Y0.5744 
G01 X-2.1155 Y0.5810 
G01 X-2.1186 Y0.5883 
G01 X-2.1201 Y0.5961 
G01 X-2.1201 Y0.6039 
G01 X-2.1186 Y0.6117 
G01 X-2.1155 Y0.6190 
G01 X-2.1111 Y0.6256 
G01 X-2.1056 Y0.6311 
G01 X-2.0990 Y0.6355 
G01 X-2.0917 Y0.6386 
G01 X-2.0839 Y0.6401 
G00 Z0.0300 
G00 X-2.0839 Y0.5401 
G01 Z-0.0050 F10.00 
G01 X-2.0161 Y0.5401 
G01 X-2.0083 Y0.5386 
G01 X-2.0010 Y0.5355 
G01 X-1.9944 Y0.5311 
G01 X-1.9889 Y0.5256 
G01 X-1.9845 Y0.5190 
G01 X-1.9814 Y0.5117 
G01 X-1.9799 Y0.5039 
G01 X-1.9799 Y0.4961 
G01 X-1.9814 Y0.4883 
G01 X-1.9845 Y0.4810 
G01 X-1.9889 Y0.4744 
G01 X-1.9944 Y0.4689 
G01 X-2.0010 Y0.4645 
G01 X-2.0083 Y0.4614 
G01 X-2.0161 Y0.4599 
G01 X-2.0839 Y0.4599 
G01 X-2.0917 Y0.4614 
G01 X-2.0990 Y0.4645 
G01 X-2.1056 Y0.4689 
G01 X-2.1111 Y0.4744 
G01 X-2.1155 Y0.4810 
G01 X-2.1186 Y0.4883 
G01 X-2.1201 Y0.4961 
G01 X-2.1201 Y0.5039 
G01 X-2.1186 Y0.5117 
G01 X-2.1155 Y0.5190 
G01 X-2.1111 Y0.5256 
G01 X-2.1056 Y0.5311 
G01 X-2.0990 Y0.5355 
G01 X-2.0917 Y0.5386 
G01 X-2.0839 Y0.5401 
G00 Z0.0300 
G00 X-2.0839 Y1.9401 
G01 Z-0.0050 F10.00 
G01 X-2.0161 Y1.9401 
G01 X-2.0083 Y1.9386 
G01 X-2.0010 Y1.9355 
G01 X-1.9944 Y1.9311 
G01 X-1.9889 Y1.9256 
G01 X-1.9845 Y1.9190 
G01 X-1.9814 Y1.9117 
G01 X-1.9799 Y1.9039 
G01 X-1.9799 Y1.8961 
G01 X-1.9814 Y1.8883 
G01 X-1.9845 Y1.8810 
G01 X-1.9889 Y1.8744 
G01 X-1.9944 Y1.8689 
G01 X-2.0010 Y1.8645 
G01 X-2.0083 Y1.8614 
G01 X-2.0161 Y1.8599 
G01 X-2.0839 Y1.8599 
G01 X-2.0917 Y1.8614 
G01 X-2.0990 Y1.8645 
G01 X-2.1056 Y1.8689 
G01 X-2.1111 Y1.8744 
G01 X-2.1155 Y1.8810 
G01 X-2.1186 Y1.8883 
G01 X-2.1201 Y1.8961 
G01 X-2.1201 Y1.9039 
G01 X-2.1186 Y1.9117 
G01 X-2.1155 Y1.9190 
G01 X-2.1111 Y1.9256 
G01 X-2.1056 Y1.9311 
G01 X-2.0990 Y1.9355 
G01 X-2.0917 Y1.9386 
G01 X-2.0839 Y1.9401 
G00 Z0.0300 
G00 X-2.0839 Y1.8401 
G01 Z-0.0050 F10.00 
G01 X-2.0161 Y1.8401 
G01 X-2.0083 Y1.8386 
G01 X-2.0010 Y1.8355 
G01 X-1.9944 Y1.8311 
G01 X-1.9889 Y1.8256 
G01 X-1.9845 Y1.8190 
G01 X-1.9814 Y1.8117 
G01 X-1.9799 Y1.8039 
G01 X-1.9799 Y1.7961 
G01 X-1.9814 Y1.7883 
G01 X-1.9845 Y1.7810 
G01 X-1.9889 Y1.7744 
G01 X-1.9944 Y1.7689 
G01 X-2.0010 Y1.7645 
G01 X-2.0083 Y1.7614 
G01 X-2.0161 Y1.7599 
G01 X-2.0839 Y1.7599 
G01 X-2.0917 Y1.7614 
G01 X-2.0990 Y1.7645 
G01 X-2.1056 Y1.7689 
G01 X-2.1111 Y1.7744 
G01 X-2.1155 Y1.7810 
G01 X-2.1186 Y1.7883 
G01 X-2.1201 Y1.7961 
G01 X-2.1201 Y1.8039 
G01 X-2.1186 Y1.8117 
G01 X-2.1155 Y1.8190 
G01 X-2.1111 Y1.8256 
G01 X-2.1056 Y1.8311 
G01 X-2.0990 Y1.8355 
G01 X-2.0917 Y1.8386 
G01 X-2.0839 Y1.8401 
G00 Z0.0300 
G00 X-2.0839 Y1.7401 
G01 Z-0.0050 F10.00 
G01 X-2.0161 Y1.7401 
G01 X-2.0083 Y1.7386 
G01 X-2.0010 Y1.7355 
G01 X-1.9944 Y1.7311 
G01 X-1.9889 Y1.7256 
G01 X-1.9845 Y1.7190 
G01 X-1.9814 Y1.7117 
G01 X-1.9799 Y1.7039 
G01 X-1.9799 Y1.6961 
G01 X-1.9814 Y1.6883 
G01 X-1.9845 Y1.6810 
G01 X-1.9889 Y1.6744 
G01 X-1.9944 Y1.6689 
G01 X-2.0010 Y1.6645 
G01 X-2.0083 Y1.6614 
G01 X-2.0161 Y1.6599 
G01 X-2.0839 Y1.6599 
G01 X-2.0917 Y1.6614 
G01 X-2.0990 Y1.6645 
G01 X-2.1056 Y1.6689 
G01 X-2.1111 Y1.6744 
G01 X-2.1155 Y1.6810 
G01 X-2.1186 Y1.6883 
G01 X-2.1201 Y1.6961 
G01 X-2.1201 Y1.7039 
G01 X-2.1186 Y1.7117 
G01 X-2.1155 Y1.7190 
G01 X-2.1111 Y1.7256 
G01 X-2.1056 Y1.7311 
G01 X-2.0990 Y1.7355 
G01 X-2.0917 Y1.7386 
G01 X-2.0839 Y1.7401 
G00 Z0.0300 
G00 X-2.0839 Y1.6401 
G01 Z-0.0050 F10.00 
G01 X-2.0161 Y1.6401 
G01 X-2.0083 Y1.6386 
G01 X-2.0010 Y1.6355 
G01 X-1.9944 Y1.6311 
G01 X-1.9889 Y1.6256 
G01 X-1.9845 Y1.6190 
G01 X-1.9814 Y1.6117 
G01 X-1.9799 Y1.6039 
G01 X-1.9799 Y1.5961 
G01 X-1.9814 Y1.5883 
G01 X-1.9845 Y1.5810 
G01 X-1.9889 Y1.5744 
G01 X-1.9944 Y1.5689 
G01 X-2.0010 Y1.5645 
G01 X-2.0083 Y1.5614 
G01 X-2.0161 Y1.5599 
G01 X-2.0839 Y1.5599 
G01 X-2.0917 Y1.5614 
G01 X-2.0990 Y1.5645 
G01 X-2.1056 Y1.5689 
G01 X-2.1111 Y1.5744 
G01 X-2.1155 Y1.5810 
G01 X-2.1186 Y1.5883 
G01 X-2.1201 Y1.5961 
G01 X-2.1201 Y1.6039 
G01 X-2.1186 Y1.6117 
G01 X-2.1155 Y1.6190 
G01 X-2.1111 Y1.6256 
G01 X-2.1056 Y1.6311 
G01 X-2.0990 Y1.6355 
G01 X-2.0917 Y1.6386 
G01 X-2.0839 Y1.6401 
G00 Z0.0300 
G00 X-2.0839 Y1.5401 
G01 Z-0.0050 F10.00 
G01 X-2.0161 Y1.5401 
G01 X-2.0083 Y1.5386 
G01 X-2.0010 Y1.5355 
G01 X-1.9944 Y1.5311 
G01 X-1.9889 Y1.5256 
G01 X-1.9845 Y1.5190 
G01 X-1.9814 Y1.5117 
G01 X-1.9799 Y1.5039 
G01 X-1.9799 Y1.4961 
G01 X-1.9814 Y1.4883 
G01 X-1.9845 Y1.4810 
G01 X-1.9889 Y1.4744 
G01 X-1.9944 Y1.4689 
G01 X-2.0010 Y1.4645 
G01 X-2.0083 Y1.4614 
G01 X-2.0161 Y1.4599 
G01 X-2.0839 Y1.4599 
G01 X-2.0917 Y1.4614 
G01 X-2.0990 Y1.4645 
G01 X-2.1056 Y1.4689 
G01 X-2.1111 Y1.4744 
G01 X-2.1155 Y1.4810 
G01 X-2.1186 Y1.4883 
G01 X-2.1201 Y1.4961 
G01 X-2.1201 Y1.5039 
G01 X-2.1186 Y1.5117 
G01 X-2.1155 Y1.5190 
G01 X-2.1111 Y1.5256 
G01 X-2.1056 Y1.5311 
G01 X-2.0990 Y1.5355 
G01 X-2.0917 Y1.5386 
G01 X-2.0839 Y1.5401 
G00 Z0.0300 
G00 X-2.0839 Y1.4401 
G01 Z-0.0050 F10.00 
G01 X-2.0161 Y1.4401 
G01 X-2.0083 Y1.4386 
G01 X-2.0010 Y1.4355 
G01 X-1.9944 Y1.4311 
G01 X-1.9889 Y1.4256 
G01 X-1.9845 Y1.4190 
G01 X-1.9814 Y1.4117 
G01 X-1.9799 Y1.4039 
G01 X-1.9799 Y1.3961 
G01 X-1.9814 Y1.3883 
G01 X-1.9845 Y1.3810 
G01 X-1.9889 Y1.3744 
G01 X-1.9944 Y1.3689 
G01 X-2.0010 Y1.3645 
G01 X-2.0083 Y1.3614 
G01 X-2.0161 Y1.3599 
G01 X-2.0839 Y1.3599 
G01 X-2.0917 Y1.3614 
G01 X-2.0990 Y1.3645 
G01 X-2.1056 Y1.3689 
G01 X-2.1111 Y1.3744 
G01 X-2.1155 Y1.3810 
G01 X-2.1186 Y1.3883 
G01 X-2.1201 Y1.3961 
G01 X-2.1201 Y1.4039 
G01 X-2.1186 Y1.4117 
G01 X-2.1155 Y1.4190 
G01 X-2.1111 Y1.4256 
G01 X-2.1056 Y1.4311 
G01 X-2.0990 Y1.4355 
G01 X-2.0917 Y1.4386 
G01 X-2.0839 Y1.4401 
G00 Z0.0300 
G00 X-0.1839 Y1.0901 
G01 Z-0.0050 F10.00 
G01 X-0.1161 Y1.0901 
G01 X-0.1083 Y1.0886 
G01 X-0.1010 Y1.0855 
G01 X-0.0944 Y1.0811 
G01 X-0.0889 Y1.0756 
G01 X-0.0845 Y1.0690 
G01 X-0.0814 Y1.0617 
G01 X-0.0799 Y1.0539 
G01 X-0.0799 Y1.0461 
G01 X-0.0814 Y1.0383 
G01 X-0.0845 Y1.0310 
G01 X-0.0889 Y1.0244 
G01 X-0.0944 Y1.0189 
G01 X-0.1010 Y1.0145 
G01 X-0.1083 Y1.0114 
G01 X-0.1161 Y1.0099 
G01 X-0.1839 Y1.0099 
G01 X-0.1917 Y1.0114 
G01 X-0.1990 Y1.0145 
G01 X-0.2056 Y1.0189 
G01 X-0.2111 Y1.0244 
G01 X-0.2155 Y1.0310 
G01 X-0.2186 Y1.0383 
G01 X-0.2201 Y1.0461 
G01 X-0.2201 Y1.0539 
G01 X-0.2186 Y1.0617 
G01 X-0.2155 Y1.0690 
G01 X-0.2111 Y1.0756 
G01 X-0.2056 Y1.0811 
G01 X-0.1990 Y1.0855 
G01 X-0.1917 Y1.0886 
G01 X-0.1839 Y1.0901 
G00 Z0.0300 
G00 X-0.1839 Y0.9901 
G01 Z-0.0050 F10.00 
G01 X-0.1161 Y0.9901 
G01 X-0.1083 Y0.9886 
G01 X-0.1010 Y0.9855 
G01 X-0.0944 Y0.9811 
G01 X-0.0889 Y0.9756 
G01 X-0.0845 Y0.9690 
G01 X-0.0814 Y0.9617 
G01 X-0.0799 Y0.9539 
G01 X-0.0799 Y0.9461 
G01 X-0.0814 Y0.9383 
G01 X-0.0845 Y0.9310 
G01 X-0.0889 Y0.9244 
G01 X-0.0944 Y0.9189 
G01 X-0.1010 Y0.9145 
G01 X-0.1083 Y0.9114 
G01 X-0.1161 Y0.9099 
G01 X-0.1839 Y0.9099 
G01 X-0.1917 Y0.9114 
G01 X-0.1990 Y0.9145 
G01 X-0.2056 Y0.9189 
G01 X-0.2111 Y0.9244 
G01 X-0.2155 Y0.9310 
G01 X-0.2186 Y0.9383 
G01 X-0.2201 Y0.9461 
G01 X-0.2201 Y0.9539 
G01 X-0.2186 Y0.9617 
G01 X-0.2155 Y0.9690 
G01 X-0.2111 Y0.9756 
G01 X-0.2056 Y0.9811 
G01 X-0.1990 Y0.9855 
G01 X-0.1917 Y0.9886 
G01 X-0.1839 Y0.9901 
G00 Z0.0300 
G00 X-0.1839 Y0.8901 
G01 Z-0.0050 F10.00 
G01 X-0.1161 Y0.8901 
G01 X-0.1083 Y0.8886 
G01 X-0.1010 Y0.8855 
G01 X-0.0944 Y0.8811 
G01 X-0.0889 Y0.8756 
G01 X-0.0845 Y0.8690 
G01 X-0.0814 Y0.8617 
G01 X-0.0799 Y0.8539 
G01 X-0.0799 Y0.8461 
G01 X-0.0814 Y0.8383 
G01 X-0.0845 Y0.8310 
G01 X-0.0889 Y0.8244 
G01 X-0.0944 Y0.8189 
G01 X-0.1010 Y0.8145 
G01 X-0.1083 Y0.8114 
G01 X-0.1161 Y0.8099 
G01 X-0.1839 Y0.8099 
G01 X-0.1917 Y0.8114 
G01 X-0.1990 Y0.8145 
G01 X-0.2056 Y0.8189 
G01 X-0.2111 Y0.8244 
G01 X-0.2155 Y0.8310 
G01 X-0.2186 Y0.8383 
G01 X-0.2201 Y0.8461 
G01 X-0.2201 Y0.8539 
G01 X-0.2186 Y0.8617 
G01 X-0.2155 Y0.8690 
G01 X-0.2111 Y0.8756 
G01 X-0.2056 Y0.8811 
G01 X-0.1990 Y0.8855 
G01 X-0.1917 Y0.8886 
G01 X-0.1839 Y0.8901 
G00 Z0.0300 
G00 X-0.1839 Y0.7901 
G01 Z-0.0050 F10.00 
G01 X-0.1161 Y0.7901 
G01 X-0.1083 Y0.7886 
G01 X-0.1010 Y0.7855 
G01 X-0.0944 Y0.7811 
G01 X-0.0889 Y0.7756 
G01 X-0.0845 Y0.7690 
G01 X-0.0814 Y0.7617 
G01 X-0.0799 Y0.7539 
G01 X-0.0799 Y0.7461 
G01 X-0.0814 Y0.7383 
G01 X-0.0845 Y0.7310 
G01 X-0.0889 Y0.7244 
G01 X-0.0944 Y0.7189 
G01 X-0.1010 Y0.7145 
G01 X-0.1083 Y0.7114 
G01 X-0.1161 Y0.7099 
G01 X-0.1839 Y0.7099 
G01 X-0.1917 Y0.7114 
G01 X-0.1990 Y0.7145 
G01 X-0.2056 Y0.7189 
G01 X-0.2111 Y0.7244 
G01 X-0.2155 Y0.7310 
G01 X-0.2186 Y0.7383 
G01 X-0.2201 Y0.7461 
G01 X-0.2201 Y0.7539 
G01 X-0.2186 Y0.7617 
G01 X-0.2155 Y0.7690 
G01 X-0.2111 Y0.7756 
G01 X-0.2056 Y0.7811 
G01 X-0.1990 Y0.7855 
G01 X-0.1917 Y0.7886 
G01 X-0.1839 Y0.7901 
G00 Z0.0300 
G00 X-0.1839 Y0.6901 
G01 Z-0.0050 F10.00 
G01 X-0.1161 Y0.6901 
G01 X-0.1083 Y0.6886 
G01 X-0.1010 Y0.6855 
G01 X-0.0944 Y0.6811 
G01 X-0.0889 Y0.6756 
G01 X-0.0845 Y0.6690 
G01 X-0.0814 Y0.6617 
G01 X-0.0799 Y0.6539 
G01 X-0.0799 Y0.6461 
G01 X-0.0814 Y0.6383 
G01 X-0.0845 Y0.6310 
G01 X-0.0889 Y0.6244 
G01 X-0.0944 Y0.6189 
G01 X-0.1010 Y0.6145 
G01 X-0.1083 Y0.6114 
G01 X-0.1161 Y0.6099 
G01 X-0.1839 Y0.6099 
G01 X-0.1917 Y0.6114 
G01 X-0.1990 Y0.6145 
G01 X-0.2056 Y0.6189 
G01 X-0.2111 Y0.6244 
G01 X-0.2155 Y0.6310 
G01 X-0.2186 Y0.6383 
G01 X-0.2201 Y0.6461 
G01 X-0.2201 Y0.6539 
G01 X-0.2186 Y0.6617 
G01 X-0.2155 Y0.6690 
G01 X-0.2111 Y0.6756 
G01 X-0.2056 Y0.6811 
G01 X-0.1990 Y0.6855 
G01 X-0.1917 Y0.6886 
G01 X-0.1839 Y0.6901 
G00 Z0.0300 
G00 X-0.1839 Y0.5901 
G01 Z-0.0050 F10.00 
G01 X-0.1161 Y0.5901 
G01 X-0.1083 Y0.5886 
G01 X-0.1010 Y0.5855 
G01 X-0.0944 Y0.5811 
G01 X-0.0889 Y0.5756 
G01 X-0.0845 Y0.5690 
G01 X-0.0814 Y0.5617 
G01 X-0.0799 Y0.5539 
G01 X-0.0799 Y0.5461 
G01 X-0.0814 Y0.5383 
G01 X-0.0845 Y0.5310 
G01 X-0.0889 Y0.5244 
G01 X-0.0944 Y0.5189 
G01 X-0.1010 Y0.5145 
G01 X-0.1083 Y0.5114 
G01 X-0.1161 Y0.5099 
G01 X-0.1839 Y0.5099 
G01 X-0.1917 Y0.5114 
G01 X-0.1990 Y0.5145 
G01 X-0.2056 Y0.5189 
G01 X-0.2111 Y0.5244 
G01 X-0.2155 Y0.5310 
G01 X-0.2186 Y0.5383 
G01 X-0.2201 Y0.5461 
G01 X-0.2201 Y0.5539 
G01 X-0.2186 Y0.5617 
G01 X-0.2155 Y0.5690 
G01 X-0.2111 Y0.5756 
G01 X-0.2056 Y0.5811 
G01 X-0.1990 Y0.5855 
G01 X-0.1917 Y0.5886 
G01 X-0.1839 Y0.5901 
G00 Z0.0300 
G00 X-0.1839 Y0.4901 
G01 Z-0.0050 F10.00 
G01 X-0.1161 Y0.4901 
G01 X-0.1083 Y0.4886 
G01 X-0.1010 Y0.4855 
G01 X-0.0944 Y0.4811 
G01 X-0.0889 Y0.4756 
G01 X-0.0845 Y0.4690 
G01 X-0.0814 Y0.4617 
G01 X-0.0799 Y0.4539 
G01 X-0.0799 Y0.4461 
G01 X-0.0814 Y0.4383 
G01 X-0.0845 Y0.4310 
G01 X-0.0889 Y0.4244 
G01 X-0.0944 Y0.4189 
G01 X-0.1010 Y0.4145 
G01 X-0.1083 Y0.4114 
G01 X-0.1161 Y0.4099 
G01 X-0.1839 Y0.4099 
G01 X-0.1917 Y0.4114 
G01 X-0.1990 Y0.4145 
G01 X-0.2056 Y0.4189 
G01 X-0.2111 Y0.4244 
G01 X-0.2155 Y0.4310 
G01 X-0.2186 Y0.4383 
G01 X-0.2201 Y0.4461 
G01 X-0.2201 Y0.4539 
G01 X-0.2186 Y0.4617 
G01 X-0.2155 Y0.4690 
G01 X-0.2111 Y0.4756 
G01 X-0.2056 Y0.4811 
G01 X-0.1990 Y0.4855 
G01 X-0.1917 Y0.4886 
G01 X-0.1839 Y0.4901 
G00 Z0.0300 
G00 X-0.1839 Y0.3901 
G01 Z-0.0050 F10.00 
G01 X-0.1161 Y0.3901 
G01 X-0.1083 Y0.3886 
G01 X-0.1010 Y0.3855 
G01 X-0.0944 Y0.3811 
G01 X-0.0889 Y0.3756 
G01 X-0.0845 Y0.3690 
G01 X-0.0814 Y0.3617 
G01 X-0.0799 Y0.3539 
G01 X-0.0799 Y0.3461 
G01 X-0.0814 Y0.3383 
G01 X-0.0845 Y0.3310 
G01 X-0.0889 Y0.3244 
G01 X-0.0944 Y0.3189 
G01 X-0.1010 Y0.3145 
G01 X-0.1083 Y0.3114 
G01 X-0.1161 Y0.3099 
G01 X-0.1839 Y0.3099 
G01 X-0.1917 Y0.3114 
G01 X-0.1990 Y0.3145 
G01 X-0.2056 Y0.3189 
G01 X-0.2111 Y0.3244 
G01 X-0.2155 Y0.3310 
G01 X-0.2186 Y0.3383 
G01 X-0.2201 Y0.3461 
G01 X-0.2201 Y0.3539 
G01 X-0.2186 Y0.3617 
G01 X-0.2155 Y0.3690 
G01 X-0.2111 Y0.3756 
G01 X-0.2056 Y0.3811 
G01 X-0.1990 Y0.3855 
G01 X-0.1917 Y0.3886 
G01 X-0.1839 Y0.3901 
G00 Z0.0300 
G00 X-0.1839 Y0.2901 
G01 Z-0.0050 F10.00 
G01 X-0.1161 Y0.2901 
G01 X-0.1083 Y0.2886 
G01 X-0.1010 Y0.2855 
G01 X-0.0944 Y0.2811 
G01 X-0.0889 Y0.2756 
G01 X-0.0845 Y0.2690 
G01 X-0.0814 Y0.2617 
G01 X-0.0799 Y0.2539 
G01 X-0.0799 Y0.2461 
G01 X-0.0814 Y0.2383 
G01 X-0.0845 Y0.2310 
G01 X-0.0889 Y0.2244 
G01 X-0.0944 Y0.2189 
G01 X-0.1010 Y0.2145 
G01 X-0.1083 Y0.2114 
G01 X-0.1161 Y0.2099 
G01 X-0.1839 Y0.2099 
G01 X-0.1917 Y0.2114 
G01 X-0.1990 Y0.2145 
G01 X-0.2056 Y0.2189 
G01 X-0.2111 Y0.2244 
G01 X-0.2155 Y0.2310 
G01 X-0.2186 Y0.2383 
G01 X-0.2201 Y0.2461 
G01 X-0.2201 Y0.2539 
G01 X-0.2186 Y0.2617 
G01 X-0.2155 Y0.2690 
G01 X-0.2111 Y0.2756 
G01 X-0.2056 Y0.2811 
G01 X-0.1990 Y0.2855 
G01 X-0.1917 Y0.2886 
G01 X-0.1839 Y0.2901 
G00 Z0.0300 
G00 X-0.1839 Y0.1901 
G01 Z-0.0050 F10.00 
G01 X-0.1161 Y0.1901 
G01 X-0.1083 Y0.1886 
G01 X-0.1010 Y0.1855 
G01 X-0.0944 Y0.1811 
G01 X-0.0889 Y0.1756 
G01 X-0.0845 Y0.1690 
G01 X-0.0814 Y0.1617 
G01 X-0.0799 Y0.1539 
G01 X-0.0799 Y0.1461 
G01 X-0.0814 Y0.1383 
G01 X-0.0845 Y0.1310 
G01 X-0.0889 Y0.1244 
G01 X-0.0944 Y0.1189 
G01 X-0.1010 Y0.1145 
G01 X-0.1083 Y0.1114 
G01 X-0.1161 Y0.1099 
G01 X-0.1839 Y0.1099 
G01 X-0.1917 Y0.1114 
G01 X-0.1990 Y0.1145 
G01 X-0.2056 Y0.1189 
G01 X-0.2111 Y0.1244 
G01 X-0.2155 Y0.1310 
G01 X-0.2186 Y0.1383 
G01 X-0.2201 Y0.1461 
G01 X-0.2201 Y0.1539 
G01 X-0.2186 Y0.1617 
G01 X-0.2155 Y0.1690 
G01 X-0.2111 Y0.1756 
G01 X-0.2056 Y0.1811 
G01 X-0.1990 Y0.1855 
G01 X-0.1917 Y0.1886 
G01 X-0.1839 Y0.1901 
G00 Z0.0300 
G00 X-0.4599 Y1.6839 
G01 Z-0.0050 F10.00 
G01 X-0.4599 Y1.6161 
G01 X-0.4614 Y1.6083 
G01 X-0.4645 Y1.6010 
G01 X-0.4689 Y1.5944 
G01 X-0.4744 Y1.5889 
G01 X-0.4810 Y1.5845 
G01 X-0.4883 Y1.5814 
G01 X-0.4961 Y1.5799 
G01 X-0.5039 Y1.5799 
G01 X-0.5117 Y1.5814 
G01 X-0.5190 Y1.5845 
G01 X-0.5256 Y1.5889 
G01 X-0.5311 Y1.5944 
G01 X-0.5355 Y1.6010 
G01 X-0.5386 Y1.6083 
G01 X-0.5401 Y1.6161 
G01 X-0.5401 Y1.6839 
G01 X-0.5386 Y1.6917 
G01 X-0.5355 Y1.6990 
G01 X-0.5311 Y1.7056 
G01 X-0.5256 Y1.7111 
G01 X-0.5190 Y1.7155 
G01 X-0.5117 Y1.7186 
G01 X-0.5039 Y1.7201 
G01 X-0.4961 Y1.7201 
G01 X-0.4883 Y1.7186 
G01 X-0.4810 Y1.7155 
G01 X-0.4744 Y1.7111 
G01 X-0.4689 Y1.7056 
G01 X-0.4645 Y1.6990 
G01 X-0.4614 Y1.6917 
G01 X-0.4599 Y1.6839 
G00 Z0.0300 
G00 X-0.5599 Y1.6839 
G01 Z-0.0050 F10.00 
G01 X-0.5599 Y1.6161 
G01 X-0.5614 Y1.6083 
G01 X-0.5645 Y1.6010 
G01 X-0.5689 Y1.5944 
G01 X-0.5744 Y1.5889 
G01 X-0.5810 Y1.5845 
G01 X-0.5883 Y1.5814 
G01 X-0.5961 Y1.5799 
G01 X-0.6039 Y1.5799 
G01 X-0.6117 Y1.5814 
G01 X-0.6190 Y1.5845 
G01 X-0.6256 Y1.5889 
G01 X-0.6311 Y1.5944 
G01 X-0.6355 Y1.6010 
G01 X-0.6386 Y1.6083 
G01 X-0.6401 Y1.6161 
G01 X-0.6401 Y1.6839 
G01 X-0.6386 Y1.6917 
G01 X-0.6355 Y1.6990 
G01 X-0.6311 Y1.7056 
G01 X-0.6256 Y1.7111 
G01 X-0.6190 Y1.7155 
G01 X-0.6117 Y1.7186 
G01 X-0.6039 Y1.7201 
G01 X-0.5961 Y1.7201 
G01 X-0.5883 Y1.7186 
G01 X-0.5810 Y1.7155 
G01 X-0.5744 Y1.7111 
G01 X-0.5689 Y1.7056 
G01 X-0.5645 Y1.6990 
G01 X-0.5614 Y1.6917 
G01 X-0.5599 Y1.6839 
G00 Z0.0300 
G00 X-0.6599 Y1.6839 
G01 Z-0.0050 F10.00 
G01 X-0.6599 Y1.6161 
G01 X-0.6614 Y1.6083 
G01 X-0.6645 Y1.6010 
G01 X-0.6689 Y1.5944 
G01 X-0.6744 Y1.5889 
G01 X-0.6810 Y1.5845 
G01 X-0.6883 Y1.5814 
G01 X-0.6961 Y1.5799 
G01 X-0.7039 Y1.5799 
G01 X-0.7117 Y1.5814 
G01 X-0.7190 Y1.5845 
G01 X-0.7256 Y1.5889 
G01 X-0.7311 Y1.5944 
G01 X-0.7355 Y1.6010 
G01 X-0.7386 Y1.6083 
G01 X-0.7401 Y1.6161 
G01 X-0.7401 Y1.6839 
G01 X-0.7386 Y1.6917 
G01 X-0.7355 Y1.6990 
G01 X-0.7311 Y1.7056 
G01 X-0.7256 Y1.7111 
G01 X-0.7190 Y1.7155 
G01 X-0.7117 Y1.7186 
G01 X-0.7039 Y1.7201 
G01 X-0.6961 Y1.7201 
G01 X-0.6883 Y1.7186 
G01 X-0.6810 Y1.7155 
G01 X-0.6744 Y1.7111 
G01 X-0.6689 Y1.7056 
G01 X-0.6645 Y1.6990 
G01 X-0.6614 Y1.6917 
G01 X-0.6599 Y1.6839 
G00 Z0.0300 
G00 X-0.7599 Y1.6839 
G01 Z-0.0050 F10.00 
G01 X-0.7599 Y1.6161 
G01 X-0.7614 Y1.6083 
G01 X-0.7645 Y1.6010 
G01 X-0.7689 Y1.5944 
G01 X-0.7744 Y1.5889 
G01 X-0.7810 Y1.5845 
G01 X-0.7883 Y1.5814 
G01 X-0.7961 Y1.5799 
G01 X-0.8039 Y1.5799 
G01 X-0.8117 Y1.5814 
G01 X-0.8190 Y1.5845 
G01 X-0.8256 Y1.5889 
G01 X-0.8311 Y1.5944 
G01 X-0.8355 Y1.6010 
G01 X-0.8386 Y1.6083 
G01 X-0.8401 Y1.6161 
G01 X-0.8401 Y1.6839 
G01 X-0.8386 Y1.6917 
G01 X-0.8355 Y1.6990 
G01 X-0.8311 Y1.7056 
G01 X-0.8256 Y1.7111 
G01 X-0.8190 Y1.7155 
G01 X-0.8117 Y1.7186 
G01 X-0.8039 Y1.7201 
G01 X-0.7961 Y1.7201 
G01 X-0.7883 Y1.7186 
G01 X-0.7810 Y1.7155 
G01 X-0.7744 Y1.7111 
G01 X-0.7689 Y1.7056 
G01 X-0.7645 Y1.6990 
G01 X-0.7614 Y1.6917 
G01 X-0.7599 Y1.6839 
G00 Z0.0300 
G00 X-0.8599 Y1.6839 
G01 Z-0.0050 F10.00 
G01 X-0.8599 Y1.6161 
G01 X-0.8614 Y1.6083 
G01 X-0.8645 Y1.6010 
G01 X-0.8689 Y1.5944 
G01 X-0.8744 Y1.5889 
G01 X-0.8810 Y1.5845 
G01 X-0.8883 Y1.5814 
G01 X-0.8961 Y1.5799 
G01 X-0.9039 Y1.5799 
G01 X-0.9117 Y1.5814 
G01 X-0.9190 Y1.5845 
G01 X-0.9256 Y1.5889 
G01 X-0.9311 Y1.5944 
G01 X-0.9355 Y1.6010 
G01 X-0.9386 Y1.6083 
G01 X-0.9401 Y1.6161 
G01 X-0.9401 Y1.6839 
G01 X-0.9386 Y1.6917 
G01 X-0.9355 Y1.6990 
G01 X-0.9311 Y1.7056 
G01 X-0.9256 Y1.7111 
G01 X-0.9190 Y1.7155 
G01 X-0.9117 Y1.7186 
G01 X-0.9039 Y1.7201 
G01 X-0.8961 Y1.7201 
G01 X-0.8883 Y1.7186 
G01 X-0.8810 Y1.7155 
G01 X-0.8744 Y1.7111 
G01 X-0.8689 Y1.7056 
G01 X-0.8645 Y1.6990 
G01 X-0.8614 Y1.6917 
G01 X-0.8599 Y1.6839 
G00 Z0.0300 
G00 X-0.9599 Y1.6839 
G01 Z-0.0050 F10.00 
G01 X-0.9599 Y1.6161 
G01 X-0.9614 Y1.6083 
G01 X-0.9645 Y1.6010 
G01 X-0.9689 Y1.5944 
G01 X-0.9744 Y1.5889 
G01 X-0.9810 Y1.5845 
G01 X-0.9883 Y1.5814 
G01 X-0.9961 Y1.5799 
G01 X-1.0039 Y1.5799 
G01 X-1.0117 Y1.5814 
G01 X-1.0190 Y1.5845 
G01 X-1.0256 Y1.5889 
G01 X-1.0311 Y1.5944 
G01 X-1.0355 Y1.6010 
G01 X-1.0386 Y1.6083 
G01 X-1.0401 Y1.6161 
G01 X-1.0401 Y1.6839 
G01 X-1.0386 Y1.6917 
G01 X-1.0355 Y1.6990 
G01 X-1.0311 Y1.7056 
G01 X-1.0256 Y1.7111 
G01 X-1.0190 Y1.7155 
G01 X-1.0117 Y1.7186 
G01 X-1.0039 Y1.7201 
G01 X-0.9961 Y1.7201 
G01 X-0.9883 Y1.7186 
G01 X-0.9810 Y1.7155 
G01 X-0.9744 Y1.7111 
G01 X-0.9689 Y1.7056 
G01 X-0.9645 Y1.6990 
G01 X-0.9614 Y1.6917 
G01 X-0.9599 Y1.6839 
G00 Z0.0300 
G00 X-1.0599 Y1.6839 
G01 Z-0.0050 F10.00 
G01 X-1.0599 Y1.6161 
G01 X-1.0614 Y1.6083 
G01 X-1.0645 Y1.6010 
G01 X-1.0689 Y1.5944 
G01 X-1.0744 Y1.5889 
G01 X-1.0810 Y1.5845 
G01 X-1.0883 Y1.5814 
G01 X-1.0961 Y1.5799 
G01 X-1.1039 Y1.5799 
G01 X-1.1117 Y1.5814 
G01 X-1.1190 Y1.5845 
G01 X-1.1256 Y1.5889 
G01 X-1.1311 Y1.5944 
G01 X-1.1355 Y1.6010 
G01 X-1.1386 Y1.6083 
G01 X-1.1401 Y1.6161 
G01 X-1.1401 Y1.6839 
G01 X-1.1386 Y1.6917 
G01 X-1.1355 Y1.6990 
G01 X-1.1311 Y1.7056 
G01 X-1.1256 Y1.7111 
G01 X-1.1190 Y1.7155 
G01 X-1.1117 Y1.7186 
G01 X-1.1039 Y1.7201 
G01 X-1.0961 Y1.7201 
G01 X-1.0883 Y1.7186 
G01 X-1.0810 Y1.7155 
G01 X-1.0744 Y1.7111 
G01 X-1.0689 Y1.7056 
G01 X-1.0645 Y1.6990 
G01 X-1.0614 Y1.6917 
G01 X-1.0599 Y1.6839 
G00 Z0.0300 
G00 X-1.1599 Y1.6839 
G01 Z-0.0050 F10.00 
G01 X-1.1599 Y1.6161 
G01 X-1.1614 Y1.6083 
G01 X-1.1645 Y1.6010 
G01 X-1.1689 Y1.5944 
G01 X-1.1744 Y1.5889 
G01 X-1.1810 Y1.5845 
G01 X-1.1883 Y1.5814 
G01 X-1.1961 Y1.5799 
G01 X-1.2039 Y1.5799 
G01 X-1.2117 Y1.5814 
G01 X-1.2190 Y1.5845 
G01 X-1.2256 Y1.5889 
G01 X-1.2311 Y1.5944 
G01 X-1.2355 Y1.6010 
G01 X-1.2386 Y1.6083 
G01 X-1.2401 Y1.6161 
G01 X-1.2401 Y1.6839 
G01 X-1.2386 Y1.6917 
G01 X-1.2355 Y1.6990 
G01 X-1.2311 Y1.7056 
G01 X-1.2256 Y1.7111 
G01 X-1.2190 Y1.7155 
G01 X-1.2117 Y1.7186 
G01 X-1.2039 Y1.7201 
G01 X-1.1961 Y1.7201 
G01 X-1.1883 Y1.7186 
G01 X-1.1810 Y1.7155 
G01 X-1.1744 Y1.7111 
G01 X-1.1689 Y1.7056 
G01 X-1.1645 Y1.6990 
G01 X-1.1614 Y1.6917 
G01 X-1.1599 Y1.6839 
G00 Z0.0300 
G00 X-1.2599 Y1.6839 
G01 Z-0.0050 F10.00 
G01 X-1.2599 Y1.6161 
G01 X-1.2614 Y1.6083 
G01 X-1.2645 Y1.6010 
G01 X-1.2689 Y1.5944 
G01 X-1.2744 Y1.5889 
G01 X-1.2810 Y1.5845 
G01 X-1.2883 Y1.5814 
G01 X-1.2961 Y1.5799 
G01 X-1.3039 Y1.5799 
G01 X-1.3117 Y1.5814 
G01 X-1.3190 Y1.5845 
G01 X-1.3256 Y1.5889 
G01 X-1.3311 Y1.5944 
G01 X-1.3355 Y1.6010 
G01 X-1.3386 Y1.6083 
G01 X-1.3401 Y1.6161 
G01 X-1.3401 Y1.6839 
G01 X-1.3386 Y1.6917 
G01 X-1.3355 Y1.6990 
G01 X-1.3311 Y1.7056 
G01 X-1.3256 Y1.7111 
G01 X-1.3190 Y1.7155 
G01 X-1.3117 Y1.7186 
G01 X-1.3039 Y1.7201 
G01 X-1.2961 Y1.7201 
G01 X-1.2883 Y1.7186 
G01 X-1.2810 Y1.7155 
G01 X-1.2744 Y1.7111 
G01 X-1.2689 Y1.7056 
G01 X-1.2645 Y1.6990 
G01 X-1.2614 Y1.6917 
G01 X-1.2599 Y1.6839 
G00 Z0.0300 
G00 X-1.3599 Y1.6839 
G01 Z-0.0050 F10.00 
G01 X-1.3599 Y1.6161 
G01 X-1.3614 Y1.6083 
G01 X-1.3645 Y1.6010 
G01 X-1.3689 Y1.5944 
G01 X-1.3744 Y1.5889 
G01 X-1.3810 Y1.5845 
G01 X-1.3883 Y1.5814 
G01 X-1.3961 Y1.5799 
G01 X-1.4039 Y1.5799 
G01 X-1.4117 Y1.5814 
G01 X-1.4190 Y1.5845 
G01 X-1.4256 Y1.5889 
G01 X-1.4311 Y1.5944 
G01 X-1.4355 Y1.6010 
G01 X-1.4386 Y1.6083 
G01 X-1.4401 Y1.6161 
G01 X-1.4401 Y1.6839 
G01 X-1.4386 Y1.6917 
G01 X-1.4355 Y1.6990 
G01 X-1.4311 Y1.7056 
G01 X-1.4256 Y1.7111 
G01 X-1.4190 Y1.7155 
G01 X-1.4117 Y1.7186 
G01 X-1.4039 Y1.7201 
G01 X-1.3961 Y1.7201 
G01 X-1.3883 Y1.7186 
G01 X-1.3810 Y1.7155 
G01 X-1.3744 Y1.7111 
G01 X-1.3689 Y1.7056 
G01 X-1.3645 Y1.6990 
G01 X-1.3614 Y1.6917 
G01 X-1.3599 Y1.6839 
G00 Z0.0300 
G00 X-1.4599 Y1.6839 
G01 Z-0.0050 F10.00 
G01 X-1.4599 Y1.6161 
G01 X-1.4614 Y1.6083 
G01 X-1.4645 Y1.6010 
G01 X-1.4689 Y1.5944 
G01 X-1.4744 Y1.5889 
G01 X-1.4810 Y1.5845 
G01 X-1.4883 Y1.5814 
G01 X-1.4961 Y1.5799 
G01 X-1.5039 Y1.5799 
G01 X-1.5117 Y1.5814 
G01 X-1.5190 Y1.5845 
G01 X-1.5256 Y1.5889 
G01 X-1.5311 Y1.5944 
G01 X-1.5355 Y1.6010 
G01 X-1.5386 Y1.6083 
G01 X-1.5401 Y1.6161 
G01 X-1.5401 Y1.6839 
G01 X-1.5386 Y1.6917 
G01 X-1.5355 Y1.6990 
G01 X-1.5311 Y1.7056 
G01 X-1.5256 Y1.7111 
G01 X-1.5190 Y1.7155 
G01 X-1.5117 Y1.7186 
G01 X-1.5039 Y1.7201 
G01 X-1.4961 Y1.7201 
G01 X-1.4883 Y1.7186 
G01 X-1.4810 Y1.7155 
G01 X-1.4744 Y1.7111 
G01 X-1.4689 Y1.7056 
G01 X-1.4645 Y1.6990 
G01 X-1.4614 Y1.6917 
G01 X-1.4599 Y1.6839 
G00 Z0.0300 
G00 X-1.5599 Y1.6839 
G01 Z-0.0050 F10.00 
G01 X-1.5599 Y1.6161 
G01 X-1.5614 Y1.6083 
G01 X-1.5645 Y1.6010 
G01 X-1.5689 Y1.5944 
G01 X-1.5744 Y1.5889 
G01 X-1.5810 Y1.5845 
G01 X-1.5883 Y1.5814 
G01 X-1.5961 Y1.5799 
G01 X-1.6039 Y1.5799 
G01 X-1.6117 Y1.5814 
G01 X-1.6190 Y1.5845 
G01 X-1.6256 Y1.5889 
G01 X-1.6311 Y1.5944 
G01 X-1.6355 Y1.6010 
G01 X-1.6386 Y1.6083 
G01 X-1.6401 Y1.6161 
G01 X-1.6401 Y1.6839 
G01 X-1.6386 Y1.6917 
G01 X-1.6355 Y1.6990 
G01 X-1.6311 Y1.7056 
G01 X-1.6256 Y1.7111 
G01 X-1.6190 Y1.7155 
G01 X-1.6117 Y1.7186 
G01 X-1.6039 Y1.7201 
G01 X-1.5961 Y1.7201 
G01 X-1.5883 Y1.7186 
G01 X-1.5810 Y1.7155 
G01 X-1.5744 Y1.7111 
G01 X-1.5689 Y1.7056 
G01 X-1.5645 Y1.6990 
G01 X-1.5614 Y1.6917 
G01 X-1.5599 Y1.6839 
G00 Z0.0300 
G00 X-1.6599 Y1.6839 
G01 Z-0.0050 F10.00 
G01 X-1.6599 Y1.6161 
G01 X-1.6614 Y1.6083 
G01 X-1.6645 Y1.6010 
G01 X-1.6689 Y1.5944 
G01 X-1.6744 Y1.5889 
G01 X-1.6810 Y1.5845 
G01 X-1.6883 Y1.5814 
G01 X-1.6961 Y1.5799 
G01 X-1.7039 Y1.5799 
G01 X-1.7117 Y1.5814 
G01 X-1.7190 Y1.5845 
G01 X-1.7256 Y1.5889 
G01 X-1.7311 Y1.5944 
G01 X-1.7355 Y1.6010 
G01 X-1.7386 Y1.6083 
G01 X-1.7401 Y1.6161 
G01 X-1.7401 Y1.6839 
G01 X-1.7386 Y1.6917 
G01 X-1.7355 Y1.6990 
G01 X-1.7311 Y1.7056 
G01 X-1.7256 Y1.7111 
G01 X-1.7190 Y1.7155 
G01 X-1.7117 Y1.7186 
G01 X-1.7039 Y1.7201 
G01 X-1.6961 Y1.7201 
G01 X-1.6883 Y1.7186 
G01 X-1.6810 Y1.7155 
G01 X-1.6744 Y1.7111 
G01 X-1.6689 Y1.7056 
G01 X-1.6645 Y1.6990 
G01 X-1.6614 Y1.6917 
G01 X-1.6599 Y1.6839 
G00 Z0.0300 
G00 X-1.7599 Y1.6839 
G01 Z-0.0050 F10.00 
G01 X-1.7599 Y1.6161 
G01 X-1.7614 Y1.6083 
G01 X-1.7645 Y1.6010 
G01 X-1.7689 Y1.5944 
G01 X-1.7744 Y1.5889 
G01 X-1.7810 Y1.5845 
G01 X-1.7883 Y1.5814 
G01 X-1.7961 Y1.5799 
G01 X-1.8039 Y1.5799 
G01 X-1.8117 Y1.5814 
G01 X-1.8190 Y1.5845 
G01 X-1.8256 Y1.5889 
G01 X-1.8311 Y1.5944 
G01 X-1.8355 Y1.6010 
G01 X-1.8386 Y1.6083 
G01 X-1.8401 Y1.6161 
G01 X-1.8401 Y1.6839 
G01 X-1.8386 Y1.6917 
G01 X-1.8355 Y1.6990 
G01 X-1.8311 Y1.7056 
G01 X-1.8256 Y1.7111 
G01 X-1.8190 Y1.7155 
G01 X-1.8117 Y1.7186 
G01 X-1.8039 Y1.7201 
G01 X-1.7961 Y1.7201 
G01 X-1.7883 Y1.7186 
G01 X-1.7810 Y1.7155 
G01 X-1.7744 Y1.7111 
G01 X-1.7689 Y1.7056 
G01 X-1.7645 Y1.6990 
G01 X-1.7614 Y1.6917 
G01 X-1.7599 Y1.6839 
G00 Z0.0300 
G00 X-1.3401 Y1.3834 
G01 Z-0.0050 F10.00 
G01 X-1.3401 Y1.4166 
G01 X-1.3166 Y1.4401 
G01 X-1.2834 Y1.4401 
G01 X-1.2599 Y1.4166 
G01 X-1.2599 Y1.3834 
G01 X-1.2834 Y1.3599 
G01 X-1.3166 Y1.3599 
G01 X-1.3401 Y1.3834 
G00 Z0.0300 
G00 X-1.4401 Y0.5334 
G01 Z-0.0050 F10.00 
G01 X-1.4401 Y0.5666 
G01 X-1.4166 Y0.5901 
G01 X-1.3834 Y0.5901 
G01 X-1.3599 Y0.5666 
G01 X-1.3599 Y0.5334 
G01 X-1.3834 Y0.5099 
G01 X-1.4166 Y0.5099 
G01 X-1.4401 Y0.5334 
G00 Z0.0300 
G00 X-1.5401 Y0.6334 
G01 Z-0.0050 F10.00 
G01 X-1.5401 Y0.6666 
G01 X-1.5166 Y0.6901 
G01 X-1.4834 Y0.6901 
G01 X-1.4599 Y0.6666 
G01 X-1.4599 Y0.6334 
G01 X-1.4834 Y0.6099 
G01 X-1.5166 Y0.6099 
G01 X-1.5401 Y0.6334 
G00 Z0.0300 
G00 X-0.5401 Y0.9834 
G01 Z-0.0050 F10.00 
G01 X-0.5401 Y1.0166 
G01 X-0.5166 Y1.0401 
G01 X-0.4834 Y1.0401 
G01 X-0.4599 Y1.0166 
G01 X-0.4599 Y0.9834 
G01 X-0.4834 Y0.9599 
G01 X-0.5166 Y0.9599 
G01 X-0.5401 Y0.9834 
G00 Z0.0300 
G00 X-0.0201 Y2.0299 
G01 Z-0.0050 F10.00 
G01 X-2.2799 Y2.0299 
G01 X-2.2799 Y0.0201 
G01 X-0.0201 Y0.0201 
G01 X-0.0201 Y2.0299 
G00 Z0.0300 
G00 X-0.1835 Y1.9451 
G01 Z-0.0050 F10.00 
G01 X-0.1165 Y1.9451 
G01 X-0.1094 Y1.9440 
G01 X-0.1027 Y1.9418 
G01 X-0.0964 Y1.9386 
G01 X-0.0906 Y1.9344 
G01 X-0.0856 Y1.9294 
G01 X-0.0814 Y1.9236 
G01 X-0.0782 Y1.9173 
G01 X-0.0760 Y1.9106 
G01 X-0.0749 Y1.9035 
G01 X-0.0749 Y1.8965 
G01 X-0.0760 Y1.8894 
G01 X-0.0782 Y1.8827 
G01 X-0.0814 Y1.8764 
G01 X-0.0856 Y1.8706 
G01 X-0.0906 Y1.8656 
G01 X-0.0964 Y1.8614 
G01 X-0.1027 Y1.8582 
G01 X-0.1094 Y1.8560 
G01 X-0.1165 Y1.8549 
G01 X-0.1835 Y1.8549 
G01 X-0.1906 Y1.8560 
G01 X-0.1973 Y1.8582 
G01 X-0.2036 Y1.8614 
G01 X-0.2094 Y1.8656 
G01 X-0.2144 Y1.8706 
G01 X-0.2186 Y1.8764 
G01 X-0.2218 Y1.8827 
G01 X-0.2240 Y1.8894 
G01 X-0.2251 Y1.8965 
G01 X-0.2251 Y1.9035 
G01 X-0.2240 Y1.9106 
G01 X-0.2218 Y1.9173 
G01 X-0.2186 Y1.9236 
G01 X-0.2144 Y1.9294 
G01 X-0.2094 Y1.9344 
G01 X-0.2036 Y1.9386 
G01 X-0.1973 Y1.9418 
G01 X-0.1906 Y1.9440 
G01 X-0.1835 Y1.9451 
G00 Z0.0300 
G00 X-0.1835 Y1.8451 
G01 Z-0.0050 F10.00 
G01 X-0.1165 Y1.8451 
G01 X-0.1094 Y1.8440 
G01 X-0.1027 Y1.8418 
G01 X-0.0964 Y1.8386 
G01 X-0.0906 Y1.8344 
G01 X-0.0856 Y1.8294 
G01 X-0.0814 Y1.8236 
G01 X-0.0782 Y1.8173 
G01 X-0.0760 Y1.8106 
G01 X-0.0749 Y1.8035 
G01 X-0.0749 Y1.7965 
G01 X-0.0760 Y1.7894 
G01 X-0.0782 Y1.7827 
G01 X-0.0814 Y1.7764 
G01 X-0.0856 Y1.7706 
G01 X-0.0906 Y1.7656 
G01 X-0.0964 Y1.7614 
G01 X-0.1027 Y1.7582 
G01 X-0.1094 Y1.7560 
G01 X-0.1165 Y1.7549 
G01 X-0.1835 Y1.7549 
G01 X-0.1906 Y1.7560 
G01 X-0.1973 Y1.7582 
G01 X-0.2036 Y1.7614 
G01 X-0.2094 Y1.7656 
G01 X-0.2144 Y1.7706 
G01 X-0.2186 Y1.7764 
G01 X-0.2218 Y1.7827 
G01 X-0.2240 Y1.7894 
G01 X-0.2251 Y1.7965 
G01 X-0.2251 Y1.8035 
G01 X-0.2240 Y1.8106 
G01 X-0.2218 Y1.8173 
G01 X-0.2186 Y1.8236 
G01 X-0.2144 Y1.8294 
G01 X-0.2094 Y1.8344 
G01 X-0.2036 Y1.8386 
G01 X-0.1973 Y1.8418 
G01 X-0.1906 Y1.8440 
G01 X-0.1835 Y1.8451 
G00 Z0.0300 
G00 X-0.1835 Y1.7451 
G01 Z-0.0050 F10.00 
G01 X-0.1165 Y1.7451 
G01 X-0.1094 Y1.7440 
G01 X-0.1027 Y1.7418 
G01 X-0.0964 Y1.7386 
G01 X-0.0906 Y1.7344 
G01 X-0.0856 Y1.7294 
G01 X-0.0814 Y1.7236 
G01 X-0.0782 Y1.7173 
G01 X-0.0760 Y1.7106 
G01 X-0.0749 Y1.7035 
G01 X-0.0749 Y1.6965 
G01 X-0.0760 Y1.6894 
G01 X-0.0782 Y1.6827 
G01 X-0.0814 Y1.6764 
G01 X-0.0856 Y1.6706 
G01 X-0.0906 Y1.6656 
G01 X-0.0964 Y1.6614 
G01 X-0.1027 Y1.6582 
G01 X-0.1094 Y1.6560 
G01 X-0.1165 Y1.6549 
G01 X-0.1835 Y1.6549 
G01 X-0.1906 Y1.6560 
G01 X-0.1973 Y1.6582 
G01 X-0.2036 Y1.6614 
G01 X-0.2094 Y1.6656 
G01 X-0.2144 Y1.6706 
G01 X-0.2186 Y1.6764 
G01 X-0.2218 Y1.6827 
G01 X-0.2240 Y1.6894 
G01 X-0.2251 Y1.6965 
G01 X-0.2251 Y1.7035 
G01 X-0.2240 Y1.7106 
G01 X-0.2218 Y1.7173 
G01 X-0.2186 Y1.7236 
G01 X-0.2144 Y1.7294 
G01 X-0.2094 Y1.7344 
G01 X-0.2036 Y1.7386 
G01 X-0.1973 Y1.7418 
G01 X-0.1906 Y1.7440 
G01 X-0.1835 Y1.7451 
G00 Z0.0300 
G00 X-0.1835 Y1.6451 
G01 Z-0.0050 F10.00 
G01 X-0.1165 Y1.6451 
G01 X-0.1094 Y1.6440 
G01 X-0.1027 Y1.6418 
G01 X-0.0964 Y1.6386 
G01 X-0.0906 Y1.6344 
G01 X-0.0856 Y1.6294 
G01 X-0.0814 Y1.6236 
G01 X-0.0782 Y1.6173 
G01 X-0.0760 Y1.6106 
G01 X-0.0749 Y1.6035 
G01 X-0.0749 Y1.5965 
G01 X-0.0760 Y1.5894 
G01 X-0.0782 Y1.5827 
G01 X-0.0814 Y1.5764 
G01 X-0.0856 Y1.5706 
G01 X-0.0906 Y1.5656 
G01 X-0.0964 Y1.5614 
G01 X-0.1027 Y1.5582 
G01 X-0.1094 Y1.5560 
G01 X-0.1165 Y1.5549 
G01 X-0.1835 Y1.5549 
G01 X-0.1906 Y1.5560 
G01 X-0.1973 Y1.5582 
G01 X-0.2036 Y1.5614 
G01 X-0.2094 Y1.5656 
G01 X-0.2144 Y1.5706 
G01 X-0.2186 Y1.5764 
G01 X-0.2218 Y1.5827 
G01 X-0.2240 Y1.5894 
G01 X-0.2251 Y1.5965 
G01 X-0.2251 Y1.6035 
G01 X-0.2240 Y1.6106 
G01 X-0.2218 Y1.6173 
G01 X-0.2186 Y1.6236 
G01 X-0.2144 Y1.6294 
G01 X-0.2094 Y1.6344 
G01 X-0.2036 Y1.6386 
G01 X-0.1973 Y1.6418 
G01 X-0.1906 Y1.6440 
G01 X-0.1835 Y1.6451 
G00 Z0.0300 
G00 X-0.1835 Y1.5451 
G01 Z-0.0050 F10.00 
G01 X-0.1165 Y1.5451 
G01 X-0.1094 Y1.5440 
G01 X-0.1027 Y1.5418 
G01 X-0.0964 Y1.5386 
G01 X-0.0906 Y1.5344 
G01 X-0.0856 Y1.5294 
G01 X-0.0814 Y1.5236 
G01 X-0.0782 Y1.5173 
G01 X-0.0760 Y1.5106 
G01 X-0.0749 Y1.5035 
G01 X-0.0749 Y1.4965 
G01 X-0.0760 Y1.4894 
G01 X-0.0782 Y1.4827 
G01 X-0.0814 Y1.4764 
G01 X-0.0856 Y1.4706 
G01 X-0.0906 Y1.4656 
G01 X-0.0964 Y1.4614 
G01 X-0.1027 Y1.4582 
G01 X-0.1094 Y1.4560 
G01 X-0.1165 Y1.4549 
G01 X-0.1835 Y1.4549 
G01 X-0.1906 Y1.4560 
G01 X-0.1973 Y1.4582 
G01 X-0.2036 Y1.4614 
G01 X-0.2094 Y1.4656 
G01 X-0.2144 Y1.4706 
G01 X-0.2186 Y1.4764 
G01 X-0.2218 Y1.4827 
G01 X-0.2240 Y1.4894 
G01 X-0.2251 Y1.4965 
G01 X-0.2251 Y1.5035 
G01 X-0.2240 Y1.5106 
G01 X-0.2218 Y1.5173 
G01 X-0.2186 Y1.5236 
G01 X-0.2144 Y1.5294 
G01 X-0.2094 Y1.5344 
G01 X-0.2036 Y1.5386 
G01 X-0.1973 Y1.5418 
G01 X-0.1906 Y1.5440 
G01 X-0.1835 Y1.5451 
G00 Z0.0300 
G00 X-0.1835 Y1.4451 
G01 Z-0.0050 F10.00 
G01 X-0.1165 Y1.4451 
G01 X-0.1094 Y1.4440 
G01 X-0.1027 Y1.4418 
G01 X-0.0964 Y1.4386 
G01 X-0.0906 Y1.4344 
G01 X-0.0856 Y1.4294 
G01 X-0.0814 Y1.4236 
G01 X-0.0782 Y1.4173 
G01 X-0.0760 Y1.4106 
G01 X-0.0749 Y1.4035 
G01 X-0.0749 Y1.3965 
G01 X-0.0760 Y1.3894 
G01 X-0.0782 Y1.3827 
G01 X-0.0814 Y1.3764 
G01 X-0.0856 Y1.3706 
G01 X-0.0906 Y1.3656 
G01 X-0.0964 Y1.3614 
G01 X-0.1027 Y1.3582 
G01 X-0.1094 Y1.3560 
G01 X-0.1165 Y1.3549 
G01 X-0.1835 Y1.3549 
G01 X-0.1906 Y1.3560 
G01 X-0.1973 Y1.3582 
G01 X-0.2036 Y1.3614 
G01 X-0.2094 Y1.3656 
G01 X-0.2144 Y1.3706 
G01 X-0.2186 Y1.3764 
G01 X-0.2218 Y1.3827 
G01 X-0.2240 Y1.3894 
G01 X-0.2251 Y1.3965 
G01 X-0.2251 Y1.4035 
G01 X-0.2240 Y1.4106 
G01 X-0.2218 Y1.4173 
G01 X-0.2186 Y1.4236 
G01 X-0.2144 Y1.4294 
G01 X-0.2094 Y1.4344 
G01 X-0.2036 Y1.4386 
G01 X-0.1973 Y1.4418 
G01 X-0.1906 Y1.4440 
G01 X-0.1835 Y1.4451 
G00 Z0.0300 
G00 X-0.1835 Y1.3451 
G01 Z-0.0050 F10.00 
G01 X-0.1165 Y1.3451 
G01 X-0.1094 Y1.3440 
G01 X-0.1027 Y1.3418 
G01 X-0.0964 Y1.3386 
G01 X-0.0906 Y1.3344 
G01 X-0.0856 Y1.3294 
G01 X-0.0814 Y1.3236 
G01 X-0.0782 Y1.3173 
G01 X-0.0760 Y1.3106 
G01 X-0.0749 Y1.3035 
G01 X-0.0749 Y1.2965 
G01 X-0.0760 Y1.2894 
G01 X-0.0782 Y1.2827 
G01 X-0.0814 Y1.2764 
G01 X-0.0856 Y1.2706 
G01 X-0.0906 Y1.2656 
G01 X-0.0964 Y1.2614 
G01 X-0.1027 Y1.2582 
G01 X-0.1094 Y1.2560 
G01 X-0.1165 Y1.2549 
G01 X-0.1835 Y1.2549 
G01 X-0.1906 Y1.2560 
G01 X-0.1973 Y1.2582 
G01 X-0.2036 Y1.2614 
G01 X-0.2094 Y1.2656 
G01 X-0.2144 Y1.2706 
G01 X-0.2186 Y1.2764 
G01 X-0.2218 Y1.2827 
G01 X-0.2240 Y1.2894 
G01 X-0.2251 Y1.2965 
G01 X-0.2251 Y1.3035 
G01 X-0.2240 Y1.3106 
G01 X-0.2218 Y1.3173 
G01 X-0.2186 Y1.3236 
G01 X-0.2144 Y1.3294 
G01 X-0.2094 Y1.3344 
G01 X-0.2036 Y1.3386 
G01 X-0.1973 Y1.3418 
G01 X-0.1906 Y1.3440 
G01 X-0.1835 Y1.3451 
G00 Z0.0300 
G00 X-0.1835 Y1.2451 
G01 Z-0.0050 F10.00 
G01 X-0.1165 Y1.2451 
G01 X-0.1094 Y1.2440 
G01 X-0.1027 Y1.2418 
G01 X-0.0964 Y1.2386 
G01 X-0.0906 Y1.2344 
G01 X-0.0856 Y1.2294 
G01 X-0.0814 Y1.2236 
G01 X-0.0782 Y1.2173 
G01 X-0.0760 Y1.2106 
G01 X-0.0749 Y1.2035 
G01 X-0.0749 Y1.1965 
G01 X-0.0760 Y1.1894 
G01 X-0.0782 Y1.1827 
G01 X-0.0814 Y1.1764 
G01 X-0.0856 Y1.1706 
G01 X-0.0906 Y1.1656 
G01 X-0.0964 Y1.1614 
G01 X-0.1027 Y1.1582 
G01 X-0.1094 Y1.1560 
G01 X-0.1165 Y1.1549 
G01 X-0.1835 Y1.1549 
G01 X-0.1906 Y1.1560 
G01 X-0.1973 Y1.1582 
G01 X-0.2036 Y1.1614 
G01 X-0.2094 Y1.1656 
G01 X-0.2144 Y1.1706 
G01 X-0.2186 Y1.1764 
G01 X-0.2218 Y1.1827 
G01 X-0.2240 Y1.1894 
G01 X-0.2251 Y1.1965 
G01 X-0.2251 Y1.2035 
G01 X-0.2240 Y1.2106 
G01 X-0.2218 Y1.2173 
G01 X-0.2186 Y1.2236 
G01 X-0.2144 Y1.2294 
G01 X-0.2094 Y1.2344 
G01 X-0.2036 Y1.2386 
G01 X-0.1973 Y1.2418 
G01 X-0.1906 Y1.2440 
G01 X-0.1835 Y1.2451 
G00 Z0.0300 
G00 X-0.6451 Y0.8813 
G01 Z-0.0050 F10.00 
G01 X-0.6451 Y0.9187 
G01 X-0.6187 Y0.9451 
G01 X-0.5813 Y0.9451 
G01 X-0.5549 Y0.9187 
G01 X-0.5549 Y0.8813 
G01 X-0.5813 Y0.8549 
G01 X-0.6187 Y0.8549 
G01 X-0.6451 Y0.8813 
G00 Z0.0300 
G00 X-1.6451 Y0.7313 
G01 Z-0.0050 F10.00 
G01 X-1.6451 Y0.7687 
G01 X-1.6187 Y0.7951 
G01 X-1.5813 Y0.7951 
G01 X-1.5549 Y0.7687 
G01 X-1.5549 Y0.7313 
G01 X-1.5813 Y0.7049 
G01 X-1.6187 Y0.7049 
G01 X-1.6451 Y0.7313 
G00 Z0.0300 
G00 X-0.3951 Y1.3813 
G01 Z-0.0050 F10.00 
G01 X-0.3951 Y1.4187 
G01 X-0.3687 Y1.4451 
G01 X-0.3313 Y1.4451 
G01 X-0.3049 Y1.4187 
G01 X-0.3049 Y1.3813 
G01 X-0.3313 Y1.3549 
G01 X-0.3687 Y1.3549 
G01 X-0.3951 Y1.3813 
G00 Z0.0300 
G00 X-0.8451 Y0.7313 
G01 Z-0.0050 F10.00 
G01 X-0.8451 Y0.7687 
G01 X-0.8187 Y0.7951 
G01 X-0.7813 Y0.7951 
G01 X-0.7549 Y0.7687 
G01 X-0.7549 Y0.7313 
G01 X-0.7813 Y0.7049 
G01 X-0.8187 Y0.7049 
G01 X-0.8451 Y0.7313 
G00 Z0.0300 
G00 X-0.9451 Y0.6313 
G01 Z-0.0050 F10.00 
G01 X-0.9451 Y0.6687 
G01 X-0.9187 Y0.6951 
G01 X-0.8813 Y0.6951 
G01 X-0.8549 Y0.6687 
G01 X-0.8549 Y0.6313 
G01 X-0.8813 Y0.6049 
G01 X-0.9187 Y0.6049 
G01 X-0.9451 Y0.6313 
G00 Z0.0300 
G00 X-1.0451 Y0.5313 
G01 Z-0.0050 F10.00 
G01 X-1.0451 Y0.5687 
G01 X-1.0187 Y0.5951 
G01 X-0.9813 Y0.5951 
G01 X-0.9549 Y0.5687 
G01 X-0.9549 Y0.5313 
G01 X-0.9813 Y0.5049 
G01 X-1.0187 Y0.5049 
G01 X-1.0451 Y0.5313 
G00 Z0.0300 
G00 X-1.7451 Y0.8813 
G01 Z-0.0050 F10.00 
G01 X-1.7451 Y0.9187 
G01 X-1.7187 Y0.9451 
G01 X-1.6813 Y0.9451 
G01 X-1.6549 Y0.9187 
G01 X-1.6549 Y0.8813 
G01 X-1.6813 Y0.8549 
G01 X-1.7187 Y0.8549 
G01 X-1.7451 Y0.8813 
G00 Z0.0300 
G00 X-1.8451 Y0.9813 
G01 Z-0.0050 F10.00 
G01 X-1.8451 Y1.0187 
G01 X-1.8187 Y1.0451 
G01 X-1.7813 Y1.0451 
G01 X-1.7549 Y1.0187 
G01 X-1.7549 Y0.9813 
G01 X-1.7813 Y0.9549 
G01 X-1.8187 Y0.9549 
G01 X-1.8451 Y0.9813 
G00 Z0.0300 
G00 X-2.0835 Y1.2451 
G01 Z-0.0050 F10.00 
G01 X-2.0165 Y1.2451 
G01 X-2.0094 Y1.2440 
G01 X-2.0027 Y1.2418 
G01 X-1.9964 Y1.2386 
G01 X-1.9906 Y1.2344 
G01 X-1.9856 Y1.2294 
G01 X-1.9814 Y1.2236 
G01 X-1.9782 Y1.2173 
G01 X-1.9760 Y1.2106 
G01 X-1.9749 Y1.2035 
G01 X-1.9749 Y1.1965 
G01 X-1.9760 Y1.1894 
G01 X-1.9782 Y1.1827 
G01 X-1.9814 Y1.1764 
G01 X-1.9856 Y1.1706 
G01 X-1.9906 Y1.1656 
G01 X-1.9964 Y1.1614 
G01 X-2.0027 Y1.1582 
G01 X-2.0094 Y1.1560 
G01 X-2.0165 Y1.1549 
G01 X-2.0835 Y1.1549 
G01 X-2.0906 Y1.1560 
G01 X-2.0973 Y1.1582 
G01 X-2.1036 Y1.1614 
G01 X-2.1094 Y1.1656 
G01 X-2.1144 Y1.1706 
G01 X-2.1186 Y1.1764 
G01 X-2.1218 Y1.1827 
G01 X-2.1240 Y1.1894 
G01 X-2.1251 Y1.1965 
G01 X-2.1251 Y1.2035 
G01 X-2.1240 Y1.2106 
G01 X-2.1218 Y1.2173 
G01 X-2.1186 Y1.2236 
G01 X-2.1144 Y1.2294 
G01 X-2.1094 Y1.2344 
G01 X-2.1036 Y1.2386 
G01 X-2.0973 Y1.2418 
G01 X-2.0906 Y1.2440 
G01 X-2.0835 Y1.2451 
G00 Z0.0300 
G00 X-2.0835 Y1.1451 
G01 Z-0.0050 F10.00 
G01 X-2.0165 Y1.1451 
G01 X-2.0094 Y1.1440 
G01 X-2.0027 Y1.1418 
G01 X-1.9964 Y1.1386 
G01 X-1.9906 Y1.1344 
G01 X-1.9856 Y1.1294 
G01 X-1.9814 Y1.1236 
G01 X-1.9782 Y1.1173 
G01 X-1.9760 Y1.1106 
G01 X-1.9749 Y1.1035 
G01 X-1.9749 Y1.0965 
G01 X-1.9760 Y1.0894 
G01 X-1.9782 Y1.0827 
G01 X-1.9814 Y1.0764 
G01 X-1.9856 Y1.0706 
G01 X-1.9906 Y1.0656 
G01 X-1.9964 Y1.0614 
G01 X-2.0027 Y1.0582 
G01 X-2.0094 Y1.0560 
G01 X-2.0165 Y1.0549 
G01 X-2.0835 Y1.0549 
G01 X-2.0906 Y1.0560 
G01 X-2.0973 Y1.0582 
G01 X-2.1036 Y1.0614 
G01 X-2.1094 Y1.0656 
G01 X-2.1144 Y1.0706 
G01 X-2.1186 Y1.0764 
G01 X-2.1218 Y1.0827 
G01 X-2.1240 Y1.0894 
G01 X-2.1251 Y1.0965 
G01 X-2.1251 Y1.1035 
G01 X-2.1240 Y1.1106 
G01 X-2.1218 Y1.1173 
G01 X-2.1186 Y1.1236 
G01 X-2.1144 Y1.1294 
G01 X-2.1094 Y1.1344 
G01 X-2.1036 Y1.1386 
G01 X-2.0973 Y1.1418 
G01 X-2.0906 Y1.1440 
G01 X-2.0835 Y1.1451 
G00 Z0.0300 
G00 X-2.0835 Y1.0451 
G01 Z-0.0050 F10.00 
G01 X-2.0165 Y1.0451 
G01 X-2.0094 Y1.0440 
G01 X-2.0027 Y1.0418 
G01 X-1.9964 Y1.0386 
G01 X-1.9906 Y1.0344 
G01 X-1.9856 Y1.0294 
G01 X-1.9814 Y1.0236 
G01 X-1.9782 Y1.0173 
G01 X-1.9760 Y1.0106 
G01 X-1.9749 Y1.0035 
G01 X-1.9749 Y0.9965 
G01 X-1.9760 Y0.9894 
G01 X-1.9782 Y0.9827 
G01 X-1.9814 Y0.9764 
G01 X-1.9856 Y0.9706 
G01 X-1.9906 Y0.9656 
G01 X-1.9964 Y0.9614 
G01 X-2.0027 Y0.9582 
G01 X-2.0094 Y0.9560 
G01 X-2.0165 Y0.9549 
G01 X-2.0835 Y0.9549 
G01 X-2.0906 Y0.9560 
G01 X-2.0973 Y0.9582 
G01 X-2.1036 Y0.9614 
G01 X-2.1094 Y0.9656 
G01 X-2.1144 Y0.9706 
G01 X-2.1186 Y0.9764 
G01 X-2.1218 Y0.9827 
G01 X-2.1240 Y0.9894 
G01 X-2.1251 Y0.9965 
G01 X-2.1251 Y1.0035 
G01 X-2.1240 Y1.0106 
G01 X-2.1218 Y1.0173 
G01 X-2.1186 Y1.0236 
G01 X-2.1144 Y1.0294 
G01 X-2.1094 Y1.0344 
G01 X-2.1036 Y1.0386 
G01 X-2.0973 Y1.0418 
G01 X-2.0906 Y1.0440 
G01 X-2.0835 Y1.0451 
G00 Z0.0300 
G00 X-2.0835 Y0.9451 
G01 Z-0.0050 F10.00 
G01 X-2.0165 Y0.9451 
G01 X-2.0094 Y0.9440 
G01 X-2.0027 Y0.9418 
G01 X-1.9964 Y0.9386 
G01 X-1.9906 Y0.9344 
G01 X-1.9856 Y0.9294 
G01 X-1.9814 Y0.9236 
G01 X-1.9782 Y0.9173 
G01 X-1.9760 Y0.9106 
G01 X-1.9749 Y0.9035 
G01 X-1.9749 Y0.8965 
G01 X-1.9760 Y0.8894 
G01 X-1.9782 Y0.8827 
G01 X-1.9814 Y0.8764 
G01 X-1.9856 Y0.8706 
G01 X-1.9906 Y0.8656 
G01 X-1.9964 Y0.8614 
G01 X-2.0027 Y0.8582 
G01 X-2.0094 Y0.8560 
G01 X-2.0165 Y0.8549 
G01 X-2.0835 Y0.8549 
G01 X-2.0906 Y0.8560 
G01 X-2.0973 Y0.8582 
G01 X-2.1036 Y0.8614 
G01 X-2.1094 Y0.8656 
G01 X-2.1144 Y0.8706 
G01 X-2.1186 Y0.8764 
G01 X-2.1218 Y0.8827 
G01 X-2.1240 Y0.8894 
G01 X-2.1251 Y0.8965 
G01 X-2.1251 Y0.9035 
G01 X-2.1240 Y0.9106 
G01 X-2.1218 Y0.9173 
G01 X-2.1186 Y0.9236 
G01 X-2.1144 Y0.9294 
G01 X-2.1094 Y0.9344 
G01 X-2.1036 Y0.9386 
G01 X-2.0973 Y0.9418 
G01 X-2.0906 Y0.9440 
G01 X-2.0835 Y0.9451 
G00 Z0.0300 
G00 X-2.0835 Y0.8451 
G01 Z-0.0050 F10.00 
G01 X-2.0165 Y0.8451 
G01 X-2.0094 Y0.8440 
G01 X-2.0027 Y0.8418 
G01 X-1.9964 Y0.8386 
G01 X-1.9906 Y0.8344 
G01 X-1.9856 Y0.8294 
G01 X-1.9814 Y0.8236 
G01 X-1.9782 Y0.8173 
G01 X-1.9760 Y0.8106 
G01 X-1.9749 Y0.8035 
G01 X-1.9749 Y0.7965 
G01 X-1.9760 Y0.7894 
G01 X-1.9782 Y0.7827 
G01 X-1.9814 Y0.7764 
G01 X-1.9856 Y0.7706 
G01 X-1.9906 Y0.7656 
G01 X-1.9964 Y0.7614 
G01 X-2.0027 Y0.7582 
G01 X-2.0094 Y0.7560 
G01 X-2.0165 Y0.7549 
G01 X-2.0835 Y0.7549 
G01 X-2.0906 Y0.7560 
G01 X-2.0973 Y0.7582 
G01 X-2.1036 Y0.7614 
G01 X-2.1094 Y0.7656 
G01 X-2.1144 Y0.7706 
G01 X-2.1186 Y0.7764 
G01 X-2.1218 Y0.7827 
G01 X-2.1240 Y0.7894 
G01 X-2.1251 Y0.7965 
G01 X-2.1251 Y0.8035 
G01 X-2.1240 Y0.8106 
G01 X-2.1218 Y0.8173 
G01 X-2.1186 Y0.8236 
G01 X-2.1144 Y0.8294 
G01 X-2.1094 Y0.8344 
G01 X-2.1036 Y0.8386 
G01 X-2.0973 Y0.8418 
G01 X-2.0906 Y0.8440 
G01 X-2.0835 Y0.8451 
G00 Z0.0300 
G00 X-2.0835 Y0.7451 
G01 Z-0.0050 F10.00 
G01 X-2.0165 Y0.7451 
G01 X-2.0094 Y0.7440 
G01 X-2.0027 Y0.7418 
G01 X-1.9964 Y0.7386 
G01 X-1.9906 Y0.7344 
G01 X-1.9856 Y0.7294 
G01 X-1.9814 Y0.7236 
G01 X-1.9782 Y0.7173 
G01 X-1.9760 Y0.7106 
G01 X-1.9749 Y0.7035 
G01 X-1.9749 Y0.6965 
G01 X-1.9760 Y0.6894 
G01 X-1.9782 Y0.6827 
G01 X-1.9814 Y0.6764 
G01 X-1.9856 Y0.6706 
G01 X-1.9906 Y0.6656 
G01 X-1.9964 Y0.6614 
G01 X-2.0027 Y0.6582 
G01 X-2.0094 Y0.6560 
G01 X-2.0165 Y0.6549 
G01 X-2.0835 Y0.6549 
G01 X-2.0906 Y0.6560 
G01 X-2.0973 Y0.6582 
G01 X-2.1036 Y0.6614 
G01 X-2.1094 Y0.6656 
G01 X-2.1144 Y0.6706 
G01 X-2.1186 Y0.6764 
G01 X-2.1218 Y0.6827 
G01 X-2.1240 Y0.6894 
G01 X-2.1251 Y0.6965 
G01 X-2.1251 Y0.7035 
G01 X-2.1240 Y0.7106 
G01 X-2.1218 Y0.7173 
G01 X-2.1186 Y0.7236 
G01 X-2.1144 Y0.7294 
G01 X-2.1094 Y0.7344 
G01 X-2.1036 Y0.7386 
G01 X-2.0973 Y0.7418 
G01 X-2.0906 Y0.7440 
G01 X-2.0835 Y0.7451 
G00 Z0.0300 
G00 X-2.0835 Y0.6451 
G01 Z-0.0050 F10.00 
G01 X-2.0165 Y0.6451 
G01 X-2.0094 Y0.6440 
G01 X-2.0027 Y0.6418 
G01 X-1.9964 Y0.6386 
G01 X-1.9906 Y0.6344 
G01 X-1.9856 Y0.6294 
G01 X-1.9814 Y0.6236 
G01 X-1.9782 Y0.6173 
G01 X-1.9760 Y0.6106 
G01 X-1.9749 Y0.6035 
G01 X-1.9749 Y0.5965 
G01 X-1.9760 Y0.5894 
G01 X-1.9782 Y0.5827 
G01 X-1.9814 Y0.5764 
G01 X-1.9856 Y0.5706 
G01 X-1.9906 Y0.5656 
G01 X-1.9964 Y0.5614 
G01 X-2.0027 Y0.5582 
G01 X-2.0094 Y0.5560 
G01 X-2.0165 Y0.5549 
G01 X-2.0835 Y0.5549 
G01 X-2.0906 Y0.5560 
G01 X-2.0973 Y0.5582 
G01 X-2.1036 Y0.5614 
G01 X-2.1094 Y0.5656 
G01 X-2.1144 Y0.5706 
G01 X-2.1186 Y0.5764 
G01 X-2.1218 Y0.5827 
G01 X-2.1240 Y0.5894 
G01 X-2.1251 Y0.5965 
G01 X-2.1251 Y0.6035 
G01 X-2.1240 Y0.6106 
G01 X-2.1218 Y0.6173 
G01 X-2.1186 Y0.6236 
G01 X-2.1144 Y0.6294 
G01 X-2.1094 Y0.6344 
G01 X-2.1036 Y0.6386 
G01 X-2.0973 Y0.6418 
G01 X-2.0906 Y0.6440 
G01 X-2.0835 Y0.6451 
G00 Z0.0300 
G00 X-2.0835 Y0.5451 
G01 Z-0.0050 F10.00 
G01 X-2.0165 Y0.5451 
G01 X-2.0094 Y0.5440 
G01 X-2.0027 Y0.5418 
G01 X-1.9964 Y0.5386 
G01 X-1.9906 Y0.5344 
G01 X-1.9856 Y0.5294 
G01 X-1.9814 Y0.5236 
G01 X-1.9782 Y0.5173 
G01 X-1.9760 Y0.5106 
G01 X-1.9749 Y0.5035 
G01 X-1.9749 Y0.4965 
G01 X-1.9760 Y0.4894 
G01 X-1.9782 Y0.4827 
G01 X-1.9814 Y0.4764 
G01 X-1.9856 Y0.4706 
G01 X-1.9906 Y0.4656 
G01 X-1.9964 Y0.4614 
G01 X-2.0027 Y0.4582 
G01 X-2.0094 Y0.4560 
G01 X-2.0165 Y0.4549 
G01 X-2.0835 Y0.4549 
G01 X-2.0906 Y0.4560 
G01 X-2.0973 Y0.4582 
G01 X-2.1036 Y0.4614 
G01 X-2.1094 Y0.4656 
G01 X-2.1144 Y0.4706 
G01 X-2.1186 Y0.4764 
G01 X-2.1218 Y0.4827 
G01 X-2.1240 Y0.4894 
G01 X-2.1251 Y0.4965 
G01 X-2.1251 Y0.5035 
G01 X-2.1240 Y0.5106 
G01 X-2.1218 Y0.5173 
G01 X-2.1186 Y0.5236 
G01 X-2.1144 Y0.5294 
G01 X-2.1094 Y0.5344 
G01 X-2.1036 Y0.5386 
G01 X-2.0973 Y0.5418 
G01 X-2.0906 Y0.5440 
G01 X-2.0835 Y0.5451 
G00 Z0.0300 
G00 X-2.0835 Y1.9451 
G01 Z-0.0050 F10.00 
G01 X-2.0165 Y1.9451 
G01 X-2.0094 Y1.9440 
G01 X-2.0027 Y1.9418 
G01 X-1.9964 Y1.9386 
G01 X-1.9906 Y1.9344 
G01 X-1.9856 Y1.9294 
G01 X-1.9814 Y1.9236 
G01 X-1.9782 Y1.9173 
G01 X-1.9760 Y1.9106 
G01 X-1.9749 Y1.9035 
G01 X-1.9749 Y1.8965 
G01 X-1.9760 Y1.8894 
G01 X-1.9782 Y1.8827 
G01 X-1.9814 Y1.8764 
G01 X-1.9856 Y1.8706 
G01 X-1.9906 Y1.8656 
G01 X-1.9964 Y1.8614 
G01 X-2.0027 Y1.8582 
G01 X-2.0094 Y1.8560 
G01 X-2.0165 Y1.8549 
G01 X-2.0835 Y1.8549 
G01 X-2.0906 Y1.8560 
G01 X-2.0973 Y1.8582 
G01 X-2.1036 Y1.8614 
G01 X-2.1094 Y1.8656 
G01 X-2.1144 Y1.8706 
G01 X-2.1186 Y1.8764 
G01 X-2.1218 Y1.8827 
G01 X-2.1240 Y1.8894 
G01 X-2.1251 Y1.8965 
G01 X-2.1251 Y1.9035 
G01 X-2.1240 Y1.9106 
G01 X-2.1218 Y1.9173 
G01 X-2.1186 Y1.9236 
G01 X-2.1144 Y1.9294 
G01 X-2.1094 Y1.9344 
G01 X-2.1036 Y1.9386 
G01 X-2.0973 Y1.9418 
G01 X-2.0906 Y1.9440 
G01 X-2.0835 Y1.9451 
G00 Z0.0300 
G00 X-2.0835 Y1.8451 
G01 Z-0.0050 F10.00 
G01 X-2.0165 Y1.8451 
G01 X-2.0094 Y1.8440 
G01 X-2.0027 Y1.8418 
G01 X-1.9964 Y1.8386 
G01 X-1.9906 Y1.8344 
G01 X-1.9856 Y1.8294 
G01 X-1.9814 Y1.8236 
G01 X-1.9782 Y1.8173 
G01 X-1.9760 Y1.8106 
G01 X-1.9749 Y1.8035 
G01 X-1.9749 Y1.7965 
G01 X-1.9760 Y1.7894 
G01 X-1.9782 Y1.7827 
G01 X-1.9814 Y1.7764 
G01 X-1.9856 Y1.7706 
G01 X-1.9906 Y1.7656 
G01 X-1.9964 Y1.7614 
G01 X-2.0027 Y1.7582 
G01 X-2.0094 Y1.7560 
G01 X-2.0165 Y1.7549 
G01 X-2.0835 Y1.7549 
G01 X-2.0906 Y1.7560 
G01 X-2.0973 Y1.7582 
G01 X-2.1036 Y1.7614 
G01 X-2.1094 Y1.7656 
G01 X-2.1144 Y1.7706 
G01 X-2.1186 Y1.7764 
G01 X-2.1218 Y1.7827 
G01 X-2.1240 Y1.7894 
G01 X-2.1251 Y1.7965 
G01 X-2.1251 Y1.8035 
G01 X-2.1240 Y1.8106 
G01 X-2.1218 Y1.8173 
G01 X-2.1186 Y1.8236 
G01 X-2.1144 Y1.8294 
G01 X-2.1094 Y1.8344 
G01 X-2.1036 Y1.8386 
G01 X-2.0973 Y1.8418 
G01 X-2.0906 Y1.8440 
G01 X-2.0835 Y1.8451 
G00 Z0.0300 
G00 X-2.0835 Y1.7451 
G01 Z-0.0050 F10.00 
G01 X-2.0165 Y1.7451 
G01 X-2.0094 Y1.7440 
G01 X-2.0027 Y1.7418 
G01 X-1.9964 Y1.7386 
G01 X-1.9906 Y1.7344 
G01 X-1.9856 Y1.7294 
G01 X-1.9814 Y1.7236 
G01 X-1.9782 Y1.7173 
G01 X-1.9760 Y1.7106 
G01 X-1.9749 Y1.7035 
G01 X-1.9749 Y1.6965 
G01 X-1.9760 Y1.6894 
G01 X-1.9782 Y1.6827 
G01 X-1.9814 Y1.6764 
G01 X-1.9856 Y1.6706 
G01 X-1.9906 Y1.6656 
G01 X-1.9964 Y1.6614 
G01 X-2.0027 Y1.6582 
G01 X-2.0094 Y1.6560 
G01 X-2.0165 Y1.6549 
G01 X-2.0835 Y1.6549 
G01 X-2.0906 Y1.6560 
G01 X-2.0973 Y1.6582 
G01 X-2.1036 Y1.6614 
G01 X-2.1094 Y1.6656 
G01 X-2.1144 Y1.6706 
G01 X-2.1186 Y1.6764 
G01 X-2.1218 Y1.6827 
G01 X-2.1240 Y1.6894 
G01 X-2.1251 Y1.6965 
G01 X-2.1251 Y1.7035 
G01 X-2.1240 Y1.7106 
G01 X-2.1218 Y1.7173 
G01 X-2.1186 Y1.7236 
G01 X-2.1144 Y1.7294 
G01 X-2.1094 Y1.7344 
G01 X-2.1036 Y1.7386 
G01 X-2.0973 Y1.7418 
G01 X-2.0906 Y1.7440 
G01 X-2.0835 Y1.7451 
G00 Z0.0300 
G00 X-2.0835 Y1.6451 
G01 Z-0.0050 F10.00 
G01 X-2.0165 Y1.6451 
G01 X-2.0094 Y1.6440 
G01 X-2.0027 Y1.6418 
G01 X-1.9964 Y1.6386 
G01 X-1.9906 Y1.6344 
G01 X-1.9856 Y1.6294 
G01 X-1.9814 Y1.6236 
G01 X-1.9782 Y1.6173 
G01 X-1.9760 Y1.6106 
G01 X-1.9749 Y1.6035 
G01 X-1.9749 Y1.5965 
G01 X-1.9760 Y1.5894 
G01 X-1.9782 Y1.5827 
G01 X-1.9814 Y1.5764 
G01 X-1.9856 Y1.5706 
G01 X-1.9906 Y1.5656 
G01 X-1.9964 Y1.5614 
G01 X-2.0027 Y1.5582 
G01 X-2.0094 Y1.5560 
G01 X-2.0165 Y1.5549 
G01 X-2.0835 Y1.5549 
G01 X-2.0906 Y1.5560 
G01 X-2.0973 Y1.5582 
G01 X-2.1036 Y1.5614 
G01 X-2.1094 Y1.5656 
G01 X-2.1144 Y1.5706 
G01 X-2.1186 Y1.5764 
G01 X-2.1218 Y1.5827 
G01 X-2.1240 Y1.5894 
G01 X-2.1251 Y1.5965 
G01 X-2.1251 Y1.6035 
G01 X-2.1240 Y1.6106 
G01 X-2.1218 Y1.6173 
G01 X-2.1186 Y1.6236 
G01 X-2.1144 Y1.6294 
G01 X-2.1094 Y1.6344 
G01 X-2.1036 Y1.6386 
G01 X-2.0973 Y1.6418 
G01 X-2.0906 Y1.6440 
G01 X-2.0835 Y1.6451 
G00 Z0.0300 
G00 X-2.0835 Y1.5451 
G01 Z-0.0050 F10.00 
G01 X-2.0165 Y1.5451 
G01 X-2.0094 Y1.5440 
G01 X-2.0027 Y1.5418 
G01 X-1.9964 Y1.5386 
G01 X-1.9906 Y1.5344 
G01 X-1.9856 Y1.5294 
G01 X-1.9814 Y1.5236 
G01 X-1.9782 Y1.5173 
G01 X-1.9760 Y1.5106 
G01 X-1.9749 Y1.5035 
G01 X-1.9749 Y1.4965 
G01 X-1.9760 Y1.4894 
G01 X-1.9782 Y1.4827 
G01 X-1.9814 Y1.4764 
G01 X-1.9856 Y1.4706 
G01 X-1.9906 Y1.4656 
G01 X-1.9964 Y1.4614 
G01 X-2.0027 Y1.4582 
G01 X-2.0094 Y1.4560 
G01 X-2.0165 Y1.4549 
G01 X-2.0835 Y1.4549 
G01 X-2.0906 Y1.4560 
G01 X-2.0973 Y1.4582 
G01 X-2.1036 Y1.4614 
G01 X-2.1094 Y1.4656 
G01 X-2.1144 Y1.4706 
G01 X-2.1186 Y1.4764 
G01 X-2.1218 Y1.4827 
G01 X-2.1240 Y1.4894 
G01 X-2.1251 Y1.4965 
G01 X-2.1251 Y1.5035 
G01 X-2.1240 Y1.5106 
G01 X-2.1218 Y1.5173 
G01 X-2.1186 Y1.5236 
G01 X-2.1144 Y1.5294 
G01 X-2.1094 Y1.5344 
G01 X-2.1036 Y1.5386 
G01 X-2.0973 Y1.5418 
G01 X-2.0906 Y1.5440 
G01 X-2.0835 Y1.5451 
G00 Z0.0300 
G00 X-2.0835 Y1.4451 
G01 Z-0.0050 F10.00 
G01 X-2.0165 Y1.4451 
G01 X-2.0094 Y1.4440 
G01 X-2.0027 Y1.4418 
G01 X-1.9964 Y1.4386 
G01 X-1.9906 Y1.4344 
G01 X-1.9856 Y1.4294 
G01 X-1.9814 Y1.4236 
G01 X-1.9782 Y1.4173 
G01 X-1.9760 Y1.4106 
G01 X-1.9749 Y1.4035 
G01 X-1.9749 Y1.3965 
G01 X-1.9760 Y1.3894 
G01 X-1.9782 Y1.3827 
G01 X-1.9814 Y1.3764 
G01 X-1.9856 Y1.3706 
G01 X-1.9906 Y1.3656 
G01 X-1.9964 Y1.3614 
G01 X-2.0027 Y1.3582 
G01 X-2.0094 Y1.3560 
G01 X-2.0165 Y1.3549 
G01 X-2.0835 Y1.3549 
G01 X-2.0906 Y1.3560 
G01 X-2.0973 Y1.3582 
G01 X-2.1036 Y1.3614 
G01 X-2.1094 Y1.3656 
G01 X-2.1144 Y1.3706 
G01 X-2.1186 Y1.3764 
G01 X-2.1218 Y1.3827 
G01 X-2.1240 Y1.3894 
G01 X-2.1251 Y1.3965 
G01 X-2.1251 Y1.4035 
G01 X-2.1240 Y1.4106 
G01 X-2.1218 Y1.4173 
G01 X-2.1186 Y1.4236 
G01 X-2.1144 Y1.4294 
G01 X-2.1094 Y1.4344 
G01 X-2.1036 Y1.4386 
G01 X-2.0973 Y1.4418 
G01 X-2.0906 Y1.4440 
G01 X-2.0835 Y1.4451 
G00 Z0.0300 
G00 X-0.1835 Y1.0951 
G01 Z-0.0050 F10.00 
G01 X-0.1165 Y1.0951 
G01 X-0.1094 Y1.0940 
G01 X-0.1027 Y1.0918 
G01 X-0.0964 Y1.0886 
G01 X-0.0906 Y1.0844 
G01 X-0.0856 Y1.0794 
G01 X-0.0814 Y1.0736 
G01 X-0.0782 Y1.0673 
G01 X-0.0760 Y1.0606 
G01 X-0.0749 Y1.0535 
G01 X-0.0749 Y1.0465 
G01 X-0.0760 Y1.0394 
G01 X-0.0782 Y1.0327 
G01 X-0.0814 Y1.0264 
G01 X-0.0856 Y1.0206 
G01 X-0.0906 Y1.0156 
G01 X-0.0964 Y1.0114 
G01 X-0.1027 Y1.0082 
G01 X-0.1094 Y1.0060 
G01 X-0.1165 Y1.0049 
G01 X-0.1835 Y1.0049 
G01 X-0.1906 Y1.0060 
G01 X-0.1973 Y1.0082 
G01 X-0.2036 Y1.0114 
G01 X-0.2094 Y1.0156 
G01 X-0.2144 Y1.0206 
G01 X-0.2186 Y1.0264 
G01 X-0.2218 Y1.0327 
G01 X-0.2240 Y1.0394 
G01 X-0.2251 Y1.0465 
G01 X-0.2251 Y1.0535 
G01 X-0.2240 Y1.0606 
G01 X-0.2218 Y1.0673 
G01 X-0.2186 Y1.0736 
G01 X-0.2144 Y1.0794 
G01 X-0.2094 Y1.0844 
G01 X-0.2036 Y1.0886 
G01 X-0.1973 Y1.0918 
G01 X-0.1906 Y1.0940 
G01 X-0.1835 Y1.0951 
G00 Z0.0300 
G00 X-0.1835 Y0.9951 
G01 Z-0.0050 F10.00 
G01 X-0.1165 Y0.9951 
G01 X-0.1094 Y0.9940 
G01 X-0.1027 Y0.9918 
G01 X-0.0964 Y0.9886 
G01 X-0.0906 Y0.9844 
G01 X-0.0856 Y0.9794 
G01 X-0.0814 Y0.9736 
G01 X-0.0782 Y0.9673 
G01 X-0.0760 Y0.9606 
G01 X-0.0749 Y0.9535 
G01 X-0.0749 Y0.9465 
G01 X-0.0760 Y0.9394 
G01 X-0.0782 Y0.9327 
