( This gcode generated by /Applications/EAGLE-7.5.0/ulp/pcb-gcode.ulp )
( Copyright 2005 by John Johnson. See readme.txt for licensing terms. )

( This file generated from the board /Users/ekwan333/Documents/eagle/MouseSensor3/MouseSensor3.brd )
( This file generated 4/28/16 5:38 PM )

( T01 0.040000 )
G20

G90
G82 X-1.3000 Y1.4000 
G82 X-1.3000 Y1.6500 
G82 X-1.4000 Y1.6500 
G82 X-1.4000 Y0.5500 
G82 X-0.1500 Y1.3000 
G82 X-0.1500 Y1.4000 
G82 X-0.1500 Y0.1500 
G82 X-0.1500 Y1.5000 
G82 X-0.1500 Y1.6000 
G82 X-0.1500 Y1.7000 
G82 X-0.1500 Y1.8000 
G82 X-0.1500 Y1.9000 
G82 X-0.1500 Y0.2500 
G82 X-0.1500 Y0.3500 
G82 X-0.1500 Y0.4500 
G82 X-0.1500 Y0.5500 
G82 X-0.1500 Y0.6500 
G82 X-0.1500 Y0.7500 
G82 X-0.1500 Y0.8500 
G82 X-0.1500 Y0.9500 
G82 X-0.1500 Y1.0500 
G82 X-0.1500 Y1.2000 
G82 X-1.5000 Y1.6500 
G82 X-1.5000 Y0.6500 
G82 X-1.6000 Y1.6500 
G82 X-1.6000 Y0.7500 
G82 X-1.7000 Y1.6500 
G82 X-1.7000 Y0.9000 
G82 X-1.8000 Y1.6500 
G82 X-1.8000 Y1.0000 
G82 X-2.0500 Y1.4000 
G82 X-2.0500 Y1.5000 
G82 X-2.0500 Y1.6000 
G82 X-2.0500 Y1.7000 
G82 X-2.0500 Y1.8000 
G82 X-2.0500 Y1.9000 
G82 X-2.0500 Y0.5000 
G82 X-2.0500 Y0.6000 
G82 X-2.0500 Y0.7000 
G82 X-2.0500 Y0.8000 
G82 X-2.0500 Y0.9000 
G82 X-2.0500 Y1.0000 
G82 X-2.0500 Y1.1000 
G82 X-2.0500 Y1.2000 
G82 X-0.3500 Y1.4000 
G82 X-0.5000 Y1.6500 
G82 X-0.5000 Y1.0000 
G82 X-0.6000 Y1.6500 
G82 X-0.6000 Y0.9000 
G82 X-0.7000 Y1.6500 
G82 X-0.8000 Y1.6500 
G82 X-0.8000 Y0.7500 
G82 X-0.9000 Y1.6500 
G82 X-0.9000 Y0.6500 
G82 X-1.0000 Y1.6500 
G82 X-1.0000 Y0.5500 
G82 X-1.1000 Y1.6500 
G82 X-1.2000 Y1.6500 
(File Footer)
T01 
G00 Z0.5000 
M05
M02
