( Made using CamBam - http://www.cambam.co.uk )
( headplate_holder_VR_Simplest 6/23/2014 10:00:52 PM )
( T0 : 0.125 )
G20 G90 G64 G40
G0 Z0.4
( T0 : 0.125 )
T0 M6
( 3DSurface2 )
G17
M3 S1000
G0 X-0.0625 Y0.28598
G0 Z0.3175
G1 F2.0 Z0.255
G1 F4.0 Y0.25 Z0.24866
G3 X-0.04419 Y0.20581 Z0.24 I0.0625 J0.0
G1 F10.0 X0.20581 Y-0.04419
G3 X0.25 Y-0.0625 I0.04419 J0.04419
G1 X1.25
G3 X1.29419 Y-0.04419 I0.0 J0.0625
G1 X1.54419 Y0.20581
G3 X1.5625 Y0.25 I-0.04419 J0.04419
G1 Y0.45
G3 X1.5 Y0.5125 I-0.0625 J0.0
G1 X0.0
G3 X-0.0625 Y0.45 I0.0 J-0.0625
G1 Y0.25
G3 X-0.04419 Y0.20581 I0.0625 J0.0
G2 X-0.02681 Y0.18651 Z0.255 I-0.17678 J-0.17678
G0 Z0.4
G0 X-0.0625 Y0.28598
G0 Z0.3025
G1 F2.0 Z0.24
G1 F4.0 Y0.25 Z0.23366
G3 X-0.04419 Y0.20581 Z0.225 I0.0625 J0.0
G1 F10.0 X0.20581 Y-0.04419
G3 X0.25 Y-0.0625 I0.04419 J0.04419
G1 X1.25
G3 X1.29419 Y-0.04419 I0.0 J0.0625
G1 X1.54419 Y0.20581
G3 X1.5625 Y0.25 I-0.04419 J0.04419
G1 Y0.45
G3 X1.5 Y0.5125 I-0.0625 J0.0
G1 X0.0
G3 X-0.0625 Y0.45 I0.0 J-0.0625
G1 Y0.25
G3 X-0.04419 Y0.20581 I0.0625 J0.0
G2 X-0.02681 Y0.18651 Z0.24 I-0.17678 J-0.17678
G0 Z0.4
G0 X-0.0625 Y0.28598
G0 Z0.2875
G1 F2.0 Z0.225
G1 F4.0 Y0.25 Z0.21866
G3 X-0.04419 Y0.20581 Z0.21 I0.0625 J0.0
G1 F10.0 X0.20581 Y-0.04419
G3 X0.25 Y-0.0625 I0.04419 J0.04419
G1 X1.25
G3 X1.29419 Y-0.04419 I0.0 J0.0625
G1 X1.54419 Y0.20581
G3 X1.5625 Y0.25 I-0.04419 J0.04419
G1 Y0.45
G3 X1.5 Y0.5125 I-0.0625 J0.0
G1 X0.0
G3 X-0.0625 Y0.45 I0.0 J-0.0625
G1 Y0.25
G3 X-0.04419 Y0.20581 I0.0625 J0.0
G2 X-0.02681 Y0.18651 Z0.225 I-0.17678 J-0.17678
G0 Z0.4
G0 X-0.0625 Y0.28598
G0 Z0.2725
G1 F2.0 Z0.21
G1 F4.0 Y0.25 Z0.20366
G3 X-0.04419 Y0.20581 Z0.195 I0.0625 J0.0
G1 F10.0 X0.20581 Y-0.04419
G3 X0.25 Y-0.0625 I0.04419 J0.04419
G1 X1.25
G3 X1.29419 Y-0.04419 I0.0 J0.0625
G1 X1.54419 Y0.20581
G3 X1.5625 Y0.25 I-0.04419 J0.04419
G1 Y0.45
G3 X1.5 Y0.5125 I-0.0625 J0.0
G1 X0.0
G3 X-0.0625 Y0.45 I0.0 J-0.0625
G1 Y0.25
G3 X-0.04419 Y0.20581 I0.0625 J0.0
G2 X-0.02681 Y0.18651 Z0.21 I-0.17678 J-0.17678
G0 Z0.4
G0 X-0.0625 Y0.28598
G0 Z0.2575
G1 F2.0 Z0.195
G1 F4.0 Y0.25 Z0.18866
G3 X-0.04419 Y0.20581 Z0.18 I0.0625 J0.0
G1 F10.0 X0.20581 Y-0.04419
G3 X0.25 Y-0.0625 I0.04419 J0.04419
G1 X1.25
G3 X1.29419 Y-0.04419 I0.0 J0.0625
G1 X1.54419 Y0.20581
G3 X1.5625 Y0.25 I-0.04419 J0.04419
G1 Y0.45
G3 X1.5 Y0.5125 I-0.0625 J0.0
G1 X0.0
G3 X-0.0625 Y0.45 I0.0 J-0.0625
G1 Y0.25
G3 X-0.04419 Y0.20581 I0.0625 J0.0
G2 X-0.02681 Y0.18651 Z0.195 I-0.17678 J-0.17678
G0 Z0.4
G0 X-0.0625 Y0.28598
G0 Z0.2425
G1 F2.0 Z0.18
G1 F4.0 Y0.25 Z0.17366
G3 X-0.04419 Y0.20581 Z0.165 I0.0625 J0.0
G1 F10.0 X0.20581 Y-0.04419
G3 X0.25 Y-0.0625 I0.04419 J0.04419
G1 X1.25
G3 X1.29419 Y-0.04419 I0.0 J0.0625
G1 X1.54419 Y0.20581
G3 X1.5625 Y0.25 I-0.04419 J0.04419
G1 Y0.45
G3 X1.5 Y0.5125 I-0.0625 J0.0
G1 X0.0
G3 X-0.0625 Y0.45 I0.0 J-0.0625
G1 Y0.25
G3 X-0.04419 Y0.20581 I0.0625 J0.0
G2 X-0.02681 Y0.18651 Z0.18 I-0.17678 J-0.17678
G0 Z0.4
G0 X0.01596 Y0.14565
G0 Z0.2275
G1 F2.0 Z0.165
G1 F4.0 X-0.04419 Y0.20581 Z0.15
G2 F10.0 X-0.0625 Y0.25 I0.04419 J0.04419
G1 Y1.0
G2 X0.0 Y1.0625 I0.0625 J0.0
G1 X0.12527
G2 X0.18777 Y1.0 I0.0 J-0.0625
G1 Y0.5125
G1 X0.31062
G2 X0.37186 Y0.5625 I0.06124 J-0.0125
G1 X1.12868
G2 X1.18992 Y0.5125 I0.0 J-0.0625
G1 X1.31277
G1 Y1.0
G2 X1.37527 Y1.0625 I0.0625 J0.0
G1 X1.5
G2 X1.5625 Y1.0 I0.0 J-0.0625
G1 Y0.25
G2 X1.54419 Y0.20581 I-0.0625 J0.0
G1 X1.29419 Y-0.04419
G2 X1.25 Y-0.0625 I-0.04419 J0.04419
G1 X0.25
G2 X0.20581 Y-0.04419 I0.0 J0.0625
G1 X-0.04419 Y0.20581
G2 X-0.06158 Y0.2251 Z0.165 I0.17678 J0.17678
G0 Z0.4
G0 X-0.0625 Y0.28598
G0 Z0.2125
G1 F2.0 Z0.15
G1 F4.0 Y0.25 Z0.14366
G3 X-0.04419 Y0.20581 Z0.135 I0.0625 J0.0
G1 F10.0 X0.20581 Y-0.04419
G3 X0.25 Y-0.0625 I0.04419 J0.04419
G1 X1.25
G3 X1.29419 Y-0.04419 I0.0 J0.0625
G1 X1.54419 Y0.20581
G3 X1.5625 Y0.25 I-0.04419 J0.04419
G1 Y1.0
G3 X1.5 Y1.0625 I-0.0625 J0.0
G1 X1.37527
G3 X1.31277 Y1.0 I0.0 J-0.0625
G1 Y0.5125
G1 X1.18992
G3 X1.12868 Y0.5625 I-0.06124 J-0.0125
G1 X0.37186
G3 X0.31062 Y0.5125 I0.0 J-0.0625
G1 X0.18777
G1 Y1.0
G3 X0.12527 Y1.0625 I-0.0625 J0.0
G1 X0.0
G3 X-0.0625 Y1.0 I0.0 J-0.0625
G1 Y0.25
G3 X-0.04419 Y0.20581 I0.0625 J0.0
G2 X-0.02681 Y0.18651 Z0.15 I-0.17678 J-0.17678
G0 Z0.4
G0 X-0.0625 Y0.28598
G0 Z0.1975
G1 F2.0 Z0.135
G1 F4.0 Y0.25 Z0.12866
G3 X-0.04419 Y0.20581 Z0.12 I0.0625 J0.0
G1 F10.0 X0.20581 Y-0.04419
G3 X0.25 Y-0.0625 I0.04419 J0.04419
G1 X1.25
G3 X1.29419 Y-0.04419 I0.0 J0.0625
G1 X1.54419 Y0.20581
G3 X1.5625 Y0.25 I-0.04419 J0.04419
G1 Y1.0
G3 X1.5 Y1.0625 I-0.0625 J0.0
G1 X1.37527
G3 X1.31277 Y1.0 I0.0 J-0.0625
G1 Y0.5125
G1 X1.18992
G3 X1.12868 Y0.5625 I-0.06124 J-0.0125
G1 X0.37186
G3 X0.31062 Y0.5125 I0.0 J-0.0625
G1 X0.18777
G1 Y1.0
G3 X0.12527 Y1.0625 I-0.0625 J0.0
G1 X0.0
G3 X-0.0625 Y1.0 I0.0 J-0.0625
G1 Y0.25
G3 X-0.04419 Y0.20581 I0.0625 J0.0
G2 X-0.02681 Y0.18651 Z0.135 I-0.17678 J-0.17678
G0 Z0.4
G0 X-0.0625 Y0.28598
G0 Z0.1825
G1 F2.0 Z0.12
G1 F4.0 Y0.25 Z0.11366
G3 X-0.04419 Y0.20581 Z0.105 I0.0625 J0.0
G1 F10.0 X0.20581 Y-0.04419
G3 X0.25 Y-0.0625 I0.04419 J0.04419
G1 X1.25
G3 X1.29419 Y-0.04419 I0.0 J0.0625
G1 X1.54419 Y0.20581
G3 X1.5625 Y0.25 I-0.04419 J0.04419
G1 Y1.0
G3 X1.5 Y1.0625 I-0.0625 J0.0
G1 X1.37527
G3 X1.31277 Y1.0 I0.0 J-0.0625
G1 Y0.5125
G1 X1.18992
G3 X1.12868 Y0.5625 I-0.06124 J-0.0125
G1 X0.37186
G3 X0.31062 Y0.5125 I0.0 J-0.0625
G1 X0.18777
G1 Y1.0
G3 X0.12527 Y1.0625 I-0.0625 J0.0
G1 X0.0
G3 X-0.0625 Y1.0 I0.0 J-0.0625
G1 Y0.25
G3 X-0.04419 Y0.20581 I0.0625 J0.0
G2 X-0.02681 Y0.18651 Z0.12 I-0.17678 J-0.17678
G0 Z0.4
G0 X-0.0625 Y0.28598
G0 Z0.1675
G1 F2.0 Z0.105
G1 F4.0 Y0.25 Z0.09866
G3 X-0.04419 Y0.20581 Z0.09 I0.0625 J0.0
G1 F10.0 X0.20581 Y-0.04419
G3 X0.25 Y-0.0625 I0.04419 J0.04419
G1 X1.25
G3 X1.29419 Y-0.04419 I0.0 J0.0625
G1 X1.54419 Y0.20581
G3 X1.5625 Y0.25 I-0.04419 J0.04419
G1 Y1.0
G3 X1.5 Y1.0625 I-0.0625 J0.0
G1 X1.37527
G3 X1.31277 Y1.0 I0.0 J-0.0625
G1 Y0.5125
G1 X1.18992
G3 X1.12868 Y0.5625 I-0.06124 J-0.0125
G1 X0.37186
G3 X0.31062 Y0.5125 I0.0 J-0.0625
G1 X0.18777
G1 Y1.0
G3 X0.12527 Y1.0625 I-0.0625 J0.0
G1 X0.0
G3 X-0.0625 Y1.0 I0.0 J-0.0625
G1 Y0.25
G3 X-0.04419 Y0.20581 I0.0625 J0.0
G2 X-0.02681 Y0.18651 Z0.105 I-0.17678 J-0.17678
G0 Z0.4
G0 X-0.0625 Y0.28598
G0 Z0.1525
G1 F2.0 Z0.09
G1 F4.0 Y0.25 Z0.08366
G3 X-0.04419 Y0.20581 Z0.075 I0.0625 J0.0
G1 F10.0 X0.20581 Y-0.04419
G3 X0.25 Y-0.0625 I0.04419 J0.04419
G1 X1.25
G3 X1.29419 Y-0.04419 I0.0 J0.0625
G1 X1.54419 Y0.20581
G3 X1.5625 Y0.25 I-0.04419 J0.04419
G1 Y1.0
G3 X1.5 Y1.0625 I-0.0625 J0.0
G1 X1.125
G3 X1.0625 Y1.0 I0.0 J-0.0625
G1 Y0.5625
G1 X0.4375
G1 Y1.0
G3 X0.375 Y1.0625 I-0.0625 J0.0
G1 X0.0
G3 X-0.0625 Y1.0 I0.0 J-0.0625
G1 Y0.25
G3 X-0.04419 Y0.20581 I0.0625 J0.0
G2 X-0.02681 Y0.18651 Z0.09 I-0.17678 J-0.17678
G0 Z0.4
G0 X-0.0625 Y0.28598
G0 Z0.1375
G1 F2.0 Z0.075
G1 F4.0 Y0.25 Z0.06866
G3 X-0.04419 Y0.20581 Z0.06 I0.0625 J0.0
G1 F10.0 X0.20581 Y-0.04419
G3 X0.25 Y-0.0625 I0.04419 J0.04419
G1 X1.25
G3 X1.29419 Y-0.0442 I0.0 J0.0625
G3 X1.5442 Y0.20581 I-2545.82693 J2546.02219
G3 X1.5625 Y0.25001 I-0.0442 J0.04419
G1 Y1.0
G3 X1.5 Y1.0625 I-0.0625 J0.0
G1 X1.125
G3 X1.0625 Y1.0 I0.0 J-0.0625
G1 Y0.5625
G1 X0.4375
G1 Y1.0
G3 X0.375 Y1.0625 I-0.0625 J0.0
G1 X0.0
G3 X-0.0625 Y1.0 I0.0 J-0.0625
G1 Y0.25
G3 X-0.04419 Y0.20581 I0.0625 J0.0
G2 X-0.02681 Y0.18652 Z0.075 I-0.17678 J-0.17678
G0 Z0.4
G0 X-0.0625 Y0.28598
G0 Z0.1225
G1 F2.0 Z0.06
G1 F4.0 Y0.25 Z0.05366
G3 X-0.04419 Y0.20581 Z0.045 I0.0625 J0.0
G1 F10.0 X0.20581 Y-0.04419
G3 X0.25 Y-0.0625 I0.04419 J0.04419
G1 X1.25
G3 X1.29419 Y-0.0442 I0.0 J0.0625
G3 X1.5442 Y0.20581 I-2545.82693 J2546.02219
G3 X1.5625 Y0.25001 I-0.0442 J0.04419
G1 Y1.0
G3 X1.5 Y1.0625 I-0.0625 J0.0
G1 X1.125
G3 X1.0625 Y1.0 I0.0 J-0.0625
G1 Y0.5625
G1 X0.4375
G1 Y1.0
G3 X0.375 Y1.0625 I-0.0625 J0.0
G1 X0.0
G3 X-0.0625 Y1.0 I0.0 J-0.0625
G1 Y0.25
G3 X-0.04419 Y0.20581 I0.0625 J0.0
G2 X-0.02681 Y0.18652 Z0.06 I-0.17678 J-0.17678
G0 Z0.4
G0 X-0.0625 Y0.28598
G0 Z0.1075
G1 F2.0 Z0.045
G1 F4.0 Y0.25 Z0.03866
G3 X-0.04419 Y0.20581 Z0.03 I0.0625 J0.0
G1 F10.0 X0.20581 Y-0.04419
G3 X0.25 Y-0.0625 I0.04419 J0.04419
G1 X1.25
G3 X1.29419 Y-0.0442 I0.0 J0.0625
G3 X1.5442 Y0.20582 I-2129.48941 J2129.68467
G3 X1.5625 Y0.25001 I-0.0442 J0.04419
G1 Y1.0
G3 X1.5 Y1.0625 I-0.0625 J0.0
G1 X1.125
G3 X1.0625 Y1.0 I0.0 J-0.0625
G1 Y0.5625
G1 X0.4375
G1 Y1.0
G3 X0.375 Y1.0625 I-0.0625 J0.0
G1 X0.0
G3 X-0.0625 Y1.0 I0.0 J-0.0625
G1 Y0.25
G3 X-0.04419 Y0.20581 I0.0625 J0.0
G2 X-0.02681 Y0.18652 Z0.045 I-0.17678 J-0.17678
G0 Z0.4
G0 X-0.0625 Y0.28598
G0 Z0.0925
G1 F2.0 Z0.03
G1 F4.0 Y0.25 Z0.02366
G3 X-0.04419 Y0.20581 Z0.015 I0.0625 J0.0
G1 F10.0 X0.20581 Y-0.04419
G3 X0.25 Y-0.0625 I0.04419 J0.04419
G1 X1.25
G3 X1.29419 Y-0.0442 I0.0 J0.0625
G3 X1.5442 Y0.20582 I-2129.48941 J2129.68467
G3 X1.5625 Y0.25001 I-0.0442 J0.04419
G1 Y1.0
G3 X1.5 Y1.0625 I-0.0625 J0.0
G1 X1.125
G3 X1.0625 Y1.0 I0.0 J-0.0625
G1 Y0.5625
G1 X0.4375
G1 Y1.0
G3 X0.375 Y1.0625 I-0.0625 J0.0
G1 X0.0
G3 X-0.0625 Y1.0 I0.0 J-0.0625
G1 Y0.25
G3 X-0.04419 Y0.20581 I0.0625 J0.0
G2 X-0.02681 Y0.18652 Z0.03 I-0.17678 J-0.17678
G0 Z0.4
G0 X-0.0625 Y0.28598
G0 Z0.0775
G1 F2.0 Z0.015
G1 F4.0 Y0.25 Z0.00866
G3 X-0.04419 Y0.20581 Z0.0 I0.0625 J0.0
G1 F10.0 X0.20581 Y-0.04419
G3 X0.25 Y-0.0625 I0.04419 J0.04419
G1 X1.25
G3 X1.29419 Y-0.0442 I0.0 J0.0625
G3 X1.5442 Y0.20582 I-2129.48941 J2129.68467
G3 X1.5625 Y0.25001 I-0.0442 J0.04419
G1 Y1.0
G3 X1.5 Y1.0625 I-0.0625 J0.0
G1 X1.125
G3 X1.0625 Y1.0 I0.0 J-0.0625
G1 Y0.5625
G1 X0.4375
G1 Y1.0
G3 X0.375 Y1.0625 I-0.0625 J0.0
G1 X0.0
G3 X-0.0625 Y1.0 I0.0 J-0.0625
G1 Y0.25
G3 X-0.04419 Y0.20581 I0.0625 J0.0
G2 X-0.15626 Y-0.21245 Z0.15057 I-0.17678 J-0.17678
G2 X-0.46345 Y0.08988 Z0.3 I-0.0647 J0.24148
G0 Z0.4
M5
M30
