( Made using CamBam - http://www.cambam.co.uk )
( headplate_holder_VR_Simplest 6/23/2014 10:00:26 PM )
( T0 : 0.125 )
G20 G90 G64 G40
G0 Z0.4
( T0 : 0.125 )
T0 M6
( 3DSurface1 )
G17
M3 S1000
G0 X0.62678 Y0.505
G0 Z0.3825
G1 F2.0 Z0.32
G1 X0.495 Z0.29676
G1 Y0.495 Z0.295
G1 F10.0 X1.005
G1 Y0.505
G1 X0.495
G1 Y0.495
G1 F2.0 X0.4575
G1 F10.0 Y0.4575
G1 X1.0425
G1 Y0.5425
G1 X0.4575
G1 Y0.495
G1 F2.0 X0.42
G1 F10.0 Y0.42
G1 X1.08
G1 Y0.58
G1 X0.42
G1 Y0.495
G1 F2.0 X0.3825
G1 F10.0 Y0.3825
G1 X1.1175
G1 Y0.6175
G1 X0.3825
G1 Y0.495
G1 F2.0 X0.345
G1 F10.0 Y0.345
G1 X1.155
G1 Y0.655
G1 X0.345
G1 Y0.495
G1 F2.0 X0.3075
G1 F10.0 Y0.3075
G1 X1.1925
G1 Y0.6925
G1 X0.3075
G1 Y0.495
G1 F2.0 X0.27
G1 F10.0 Y0.27
G1 X1.23
G1 Y0.73
G1 X0.27
G1 Y0.495
G1 F2.0 X0.2325
G1 F10.0 Y0.2325
G1 X1.2675
G1 Y0.7675
G1 X0.2325
G1 Y0.495
G1 F2.0 X0.195
G1 F10.0 Y0.195
G1 X1.305
G1 Y0.805
G1 X0.195
G1 Y0.495
G1 F2.0 X0.1575
G1 F10.0 Y0.1575
G1 X1.3425
G1 Y0.8425
G1 X0.1575
G1 Y0.495
G1 F2.0 X0.12
G1 F10.0 Y0.12
G1 X1.38
G1 Y0.88
G1 X0.12
G1 Y0.495
G1 F2.0 X0.0825
G1 F10.0 Y0.0825
G1 X1.4175
G1 Y0.9175
G1 X0.0825
G1 Y0.495
G1 F2.0 X0.045
G1 F10.0 Y0.045
G1 X1.455
G1 Y0.955
G1 X0.045
G1 Y0.495
G1 F2.0 X0.0075
G1 F10.0 Y0.0075
G1 X1.4925
G1 Y0.9925
G1 X0.0075
G1 Y0.495
G1 F2.0 X-0.03
G1 F10.0 Y-0.03
G1 X1.53
G1 Y1.03
G1 X-0.03
G1 Y0.495
G1 F2.0 X-0.0675
G1 F10.0 Y-0.0675
G1 X1.5675
G1 Y1.0675
G1 X-0.0675
G1 Y0.495
G1 F2.0 X-0.105
G1 F10.0 Y-0.105
G1 X1.605
G1 Y1.105
G1 X-0.105
G1 Y0.495
G1 F2.0 X-0.1425
G1 F10.0 Y-0.125
G3 X-0.125 Y-0.1425 I0.0175 J0.0
G1 X1.625
G3 X1.6425 Y-0.125 I0.0 J0.0175
G1 Y1.125
G3 X1.625 Y1.1425 I-0.0175 J0.0
G1 X-0.125
G3 X-0.1425 Y1.125 I0.0 J-0.0175
G1 Y0.495
G2 X-0.14624 Y0.45191 Z0.32 I-0.25 J0.0
G0 Z0.4
G0 X0.62678 Y0.505
G0 Z0.3575
G1 F2.0 Z0.295
G1 X0.495 Z0.27176
G1 Y0.495 Z0.27
G1 F10.0 X1.005
G1 Y0.505
G1 X0.495
G1 Y0.495
G1 F2.0 X0.4575
G1 F10.0 Y0.4575
G1 X1.0425
G1 Y0.5425
G1 X0.4575
G1 Y0.495
G1 F2.0 X0.42
G1 F10.0 Y0.42
G1 X1.08
G1 Y0.58
G1 X0.42
G1 Y0.495
G1 F2.0 X0.3825
G1 F10.0 Y0.3825
G1 X1.1175
G1 Y0.6175
G1 X0.3825
G1 Y0.495
G1 F2.0 X0.345
G1 F10.0 Y0.345
G1 X1.155
G1 Y0.655
G1 X0.345
G1 Y0.495
G1 F2.0 X0.3075
G1 F10.0 Y0.3075
G1 X1.1925
G1 Y0.6925
G1 X0.3075
G1 Y0.495
G1 F2.0 X0.27
G1 F10.0 Y0.27
G1 X1.23
G1 Y0.73
G1 X0.27
G1 Y0.495
G1 F2.0 X0.2325
G1 F10.0 Y0.2325
G1 X1.2675
G1 Y0.7675
G1 X0.2325
G1 Y0.495
G1 F2.0 X0.195
G1 F10.0 Y0.195
G1 X1.305
G1 Y0.805
G1 X0.195
G1 Y0.495
G1 F2.0 X0.1575
G1 F10.0 Y0.1575
G1 X1.3425
G1 Y0.8425
G1 X0.1575
G1 Y0.495
G1 F2.0 X0.12
G1 F10.0 Y0.12
G1 X1.38
G1 Y0.88
G1 X0.12
G1 Y0.495
G1 F2.0 X0.0825
G1 F10.0 Y0.0825
G1 X1.4175
G1 Y0.9175
G1 X0.0825
G1 Y0.495
G1 F2.0 X0.045
G1 F10.0 Y0.045
G1 X1.455
G1 Y0.955
G1 X0.045
G1 Y0.495
G1 F2.0 X0.0075
G1 F10.0 Y0.0075
G1 X1.4925
G1 Y0.9925
G1 X0.0075
G1 Y0.495
G1 F2.0 X-0.03
G1 F10.0 Y-0.03
G1 X1.53
G1 Y1.03
G1 X-0.03
G1 Y0.495
G1 F2.0 X-0.0675
G1 F10.0 Y-0.0675
G1 X1.5675
G1 Y1.0675
G1 X-0.0675
G1 Y0.495
G1 F2.0 X-0.105
G1 F10.0 Y-0.105
G1 X1.605
G1 Y1.105
G1 X-0.105
G1 Y0.495
G1 F2.0 X-0.1425
G1 F10.0 Y-0.125
G3 X-0.125 Y-0.1425 I0.0175 J0.0
G1 X1.625
G3 X1.6425 Y-0.125 I0.0 J0.0175
G1 Y1.125
G3 X1.625 Y1.1425 I-0.0175 J0.0
G1 X-0.125
G3 X-0.1425 Y1.125 I0.0 J-0.0175
G1 Y0.495
G2 X-0.14624 Y0.45191 Z0.295 I-0.25 J0.0
G0 Z0.4
G0 X0.27921 Y0.8425
G0 Z0.3325
G1 F2.0 Z0.27
G1 X0.1575 Z0.24854
G1 Y0.82243 Z0.245
G1 F10.0 X1.3425
G1 Y0.8425
G1 X0.1575
G1 Y0.82243
G2 X0.15376 Y0.77934 Z0.27 I-0.25 J0.0
G0 Z0.4
G0 X0.12921 Y0.88
G0 Z0.3325
G1 F2.0 Z0.27
G1 X0.12 Z0.26838
G1 Y0.78493 Z0.25161
G1 X0.1575 Z0.245
G1 F10.0 X1.38
G1 Y0.88
G1 X0.12
G1 Y0.78493
G1 X0.1575
G2 X0.20059 Y0.78118 Z0.27 I0.0 J-0.25
G0 Z0.4
G0 X0.0825 Y0.81421
G0 Z0.3325
G1 F2.0 Z0.27
G1 Y0.74743 Z0.25822
G1 X0.1575 Z0.245
G1 F10.0 X1.4175
G1 Y0.9175
G1 X0.0825
G1 Y0.74743
G1 X0.1575
G2 X0.20059 Y0.74368 Z0.27 I0.0 J-0.25
G0 Z0.4
G0 X0.045 Y0.73921
G0 Z0.3325
G1 F2.0 Z0.27
G1 Y0.70993 Z0.26484
G1 X0.1575 Z0.245
G1 F10.0 X1.455
G1 Y0.955
G1 X0.045
G1 Y0.70993
G1 X0.1575
G2 X0.20059 Y0.70618 Z0.27 I0.0 J-0.25
G0 Z0.4
G0 X0.01572 Y0.67243
G0 Z0.3325
G1 F2.0 Z0.27
G1 X0.1575 Z0.245
G1 F10.0 X1.4925
G1 Y0.9925
G1 X0.0075
G1 Y0.67243
G1 X0.1575
G2 X0.20059 Y0.66868 Z0.27 I0.0 J-0.25
G0 Z0.4
G0 X0.29928 Y0.63493
G0 Z0.3325
G1 F2.0 Z0.27
G1 X0.1575 Z0.245
G1 F10.0 X0.0
G3 X-0.03 Y0.63248 I0.0 J-0.18493
G1 Y1.03
G1 X1.53
G1 Y0.63248
G3 X1.5 Y0.63493 I-0.03 J-0.18248
G1 X0.1575
G2 X0.11441 Y0.63867 Z0.27 I0.0 J0.25
G0 Z0.4
G0 X0.29928 Y0.59743
G0 Z0.3325
G1 F2.0 Z0.27
G1 X0.1575 Z0.245
G1 F10.0 X0.0
G3 X-0.0675 Y0.58106 I0.0 J-0.14743
G1 Y1.0675
G1 X1.5675
G1 Y0.58106
G3 X1.5 Y0.59743 I-0.0675 J-0.13106
G1 X0.1575
G2 X0.11441 Y0.60117 Z0.27 I0.0 J0.25
G0 Z0.4
G0 X0.29928 Y0.55993
G0 Z0.3325
G1 F2.0 Z0.27
G1 X0.1575 Z0.245
G1 F10.0 X0.0
G3 X-0.105 Y0.48253 I0.0 J-0.10993
G1 Y1.105
G1 X1.605
G1 Y0.48253
G3 X1.5 Y0.55993 I-0.105 J-0.03253
G1 X0.1575
G2 X0.11441 Y0.56367 Z0.27 I0.0 J0.25
G0 Z0.4
G0 X-0.01322 Y0.0017
G0 Z0.3325
G1 F2.0 Z0.27
G1 X0.01848 Y-0.03 Z0.2621
G1 X-0.03 Z0.25355
G1 Y0.01848 Z0.245
G1 F10.0 X0.01848 Y-0.03
G1 X-0.03
G1 Y0.01848
G2 X-0.02626 Y0.06156 Z0.27 I0.25 J0.0
G0 Z0.4
G0 X-0.01169 Y-0.0675
G0 Z0.3325
G1 F2.0 Z0.27
G1 X-0.0675 Z0.26016
G1 Y0.01848 Z0.245
G1 F10.0 Y0.10901
G1 X0.10901 Y-0.0675
G1 X-0.0675
G1 Y0.01848
G2 X-0.06376 Y0.06156 Z0.27 I0.25 J0.0
G0 Z0.4
G0 X-0.08669 Y-0.105
G0 Z0.3325
G1 F2.0 Z0.27
G1 X-0.105 Z0.26677
G1 Y0.01848 Z0.245
G1 F10.0 Y0.21747
G3 X-0.07773 Y0.17227 I0.105 J0.03253
G1 X0.17227 Y-0.07773
G3 X0.21747 Y-0.105 I0.07773 J0.07773
G1 X-0.105
G1 Y0.01848
G2 X-0.10126 Y0.06156 Z0.27 I0.25 J0.0
G0 Z0.4
G0 X1.50525 Y-0.03
G0 Z0.3325
G1 F2.0 Z0.27
G1 X1.53 Z0.26564
G1 Y0.01848 Z0.25709
G1 X1.48152 Y-0.03 Z0.245
G1 F10.0 X1.53
G1 Y0.01848
G1 X1.48152 Y-0.03
G2 X1.44841 Y-0.05782 Z0.27 I-0.17678 J0.17678
G1 F2.0 X1.42723 Y-0.03126
G1 X1.39099 Y-0.0675 Z0.26096
G1 X1.48152 Z0.245
G1 F10.0 X1.5675
G1 Y0.10901
G1 X1.39099 Y-0.0675
G1 X1.48152
G2 X1.52461 Y-0.07124 Z0.27 I0.0 J-0.25
G0 Z0.4
G0 X1.33974 Y-0.105
G0 Z0.3325
G1 F2.0 Z0.27
G1 X1.48152 Z0.245
G1 F10.0 X1.605
G1 Y0.21747
G2 X1.57773 Y0.17227 I-0.105 J0.03253
G1 X1.32773 Y-0.07773
G2 X1.28253 Y-0.105 I-0.07773 J0.07773
G1 X1.48152
G2 X1.52461 Y-0.10874 Z0.27 I0.0 J-0.25
G0 Z0.4
G0 X1.33974 Y-0.1425
G0 Z0.3325
G1 F2.0 Z0.27
G1 X1.48152 Z0.245
G1 F10.0 X1.625
G3 X1.6425 Y-0.125 I0.0 J0.0175
G1 Y1.125
G3 X1.625 Y1.1425 I-0.0175 J0.0
G1 X-0.125
G3 X-0.1425 Y1.125 I0.0 J-0.0175
G1 Y-0.125
G3 X-0.125 Y-0.1425 I0.0175 J0.0
G1 X1.48152
G2 X1.52461 Y-0.14624 Z0.27 I0.0 J-0.25
G0 Z0.4
G0 X1.22811 Y-0.0725
G0 Z0.3325
G1 F2.0 Z0.27
G1 X1.25 Z0.26614
G3 X1.30127 Y-0.05127 Z0.2561 I0.0 J0.0725
G1 X1.34578 Y-0.00675 Z0.245
G1 F10.0 X1.55127 Y0.19873
G3 X1.5725 Y0.25 I-0.05127 J0.05127
G1 Y0.45
G3 X1.5 Y0.5225 I-0.0725 J0.0
G1 X0.0
G3 X-0.0725 Y0.45 I0.0 J-0.0725
G1 Y0.25
G3 X-0.05127 Y0.19873 I0.0725 J0.0
G1 X0.19873 Y-0.05127
G3 X0.25 Y-0.0725 I0.05127 J0.05127
G1 X1.25
G3 X1.30127 Y-0.05127 I0.0 J0.0725
G1 X1.34578 Y-0.00675
G2 X1.37889 Y0.02107 Z0.27 I0.17678 J-0.17678
G0 Z0.4
G0 X1.50525 Y-0.03
G0 Z0.3075
G1 F2.0 Z0.245
G1 X1.53 Z0.24064
G1 Y0.01848 Z0.23209
G1 X1.48152 Y-0.03 Z0.22
G1 F10.0 X1.53
G1 Y0.01848
G1 X1.48152 Y-0.03
G1 F2.0 Y-0.0675
G1 F10.0 X1.5675
G1 Y0.10901
G1 X1.39099 Y-0.0675
G1 X1.48152
G1 F2.0 Y-0.105
G1 F10.0 X1.605
G1 Y0.21747
G2 X1.57773 Y0.17227 I-0.105 J0.03253
G1 X1.32773 Y-0.07773
G2 X1.28253 Y-0.105 I-0.07773 J0.07773
G1 X1.48152
G2 X1.52461 Y-0.10874 Z0.245 I0.0 J-0.25
G0 Z0.4
G0 X1.20072 Y0.82243
G0 Z0.3075
G1 F2.0 Z0.245
G1 X1.3425 Z0.22
G1 F10.0 Y0.8425
G1 X0.1575
G1 Y0.82243
G1 X1.3425
G2 X1.38559 Y0.81868 Z0.245 I0.0 J-0.25
G0 Z0.4
G0 X1.20072 Y0.78493
G0 Z0.3075
G1 F2.0 Z0.245
G1 X1.3425 Z0.22
G1 F10.0 X1.38
G1 Y0.88
G1 X0.12
G1 Y0.78493
G1 X1.3425
G2 X1.38559 Y0.78118 Z0.245 I0.0 J-0.25
G0 Z0.4
G0 X1.20072 Y0.74743
G0 Z0.3075
G1 F2.0 Z0.245
G1 X1.3425 Z0.22
G1 F10.0 X1.4175
G1 Y0.9175
G1 X0.0825
G1 Y0.74743
G1 X1.3425
G2 X1.38559 Y0.74368 Z0.245 I0.0 J-0.25
G0 Z0.4
G0 X1.20072 Y0.70993
G0 Z0.3075
G1 F2.0 Z0.245
G1 X1.3425 Z0.22
G1 F10.0 X1.455
G1 Y0.955
G1 X0.045
G1 Y0.70993
G1 X1.3425
G2 X1.38559 Y0.70618 Z0.245 I0.0 J-0.25
G0 Z0.4
G0 X1.20072 Y0.67243
G0 Z0.3075
G1 F2.0 Z0.245
G1 X1.3425 Z0.22
G1 F10.0 X1.4925
G1 Y0.9925
G1 X0.0075
G1 Y0.67243
G1 X1.3425
G2 X1.38559 Y0.66868 Z0.245 I0.0 J-0.25
G0 Z0.4
G0 X1.48428 Y0.63493
G0 Z0.3075
G1 F2.0 Z0.245
G1 X1.3425 Z0.22
G1 F10.0 X0.0
G3 X-0.03 Y0.63248 I0.0 J-0.18493
G1 Y1.03
G1 X1.53
G1 Y0.63248
G3 X1.5 Y0.63493 I-0.03 J-0.18248
G1 X1.3425
G2 X1.29941 Y0.63867 Z0.245 I0.0 J0.25
G0 Z0.4
G0 X1.48428 Y0.59743
G0 Z0.3075
G1 F2.0 Z0.245
G1 X1.3425 Z0.22
G1 F10.0 X0.0
G3 X-0.0675 Y0.58106 I0.0 J-0.14743
G1 Y1.0675
G1 X1.5675
G1 Y0.58106
G3 X1.5 Y0.59743 I-0.0675 J-0.13106
G1 X1.3425
G2 X1.29941 Y0.60117 Z0.245 I0.0 J0.25
G0 Z0.4
G0 X1.48428 Y0.55993
G0 Z0.3075
G1 F2.0 Z0.245
G1 X1.3425 Z0.22
G1 F10.0 X0.0
G3 X-0.105 Y0.48253 I0.0 J-0.10993
G1 Y1.105
G1 X1.605
G1 Y0.48253
G3 X1.5 Y0.55993 I-0.105 J-0.03253
G1 X1.3425
G2 X1.29941 Y0.56367 Z0.245 I0.0 J0.25
G0 Z0.4
G0 X-0.00525 Y-0.03
G0 Z0.3075
G1 F2.0 Z0.245
G1 X-0.03 Z0.24064
G1 Y0.01848 Z0.23209
G1 X0.01848 Y-0.03 Z0.22
G1 F10.0 X-0.03
G1 Y0.01848
G1 X0.01848 Y-0.03
G2 X0.0463 Y-0.06311 Z0.245 I-0.17678 J-0.17678
G1 F2.0 X0.07277 Y-0.03126
G1 X0.10901 Y-0.0675 Z0.23596
G1 X0.01848 Z0.22
G1 F10.0 X-0.0675
G1 Y0.10901
G1 X0.10901 Y-0.0675
G1 X0.01848
G2 X-0.02461 Y-0.06376 Z0.245 I0.0 J0.25
G0 Z0.4
G0 X0.16026 Y-0.105
G0 Z0.3075
G1 F2.0 Z0.245
G1 X0.01848 Z0.22
G1 F10.0 X-0.105
G1 Y0.21747
G3 X-0.07773 Y0.17227 I0.105 J0.03253
G1 X0.17227 Y-0.07773
G3 X0.21747 Y-0.105 I0.07773 J0.07773
G1 X0.01848
G2 X-0.02461 Y-0.10126 Z0.245 I0.0 J0.25
G0 Z0.4
G0 X-0.12331 Y-0.1425
G0 Z0.3075
G1 F2.0 Z0.245
G1 X0.01848 Z0.22
G1 F10.0 X1.625
G3 X1.6425 Y-0.125 I0.0 J0.0175
G1 Y1.125
G3 X1.625 Y1.1425 I-0.0175 J0.0
G1 X-0.125
G3 X-0.1425 Y1.125 I0.0 J-0.0175
G1 Y-0.125
G3 X-0.125 Y-0.1425 I0.0175 J0.0
G1 X0.01848
G2 X0.06156 Y-0.14624 Z0.245 I0.0 J-0.25
G0 Z0.4
G0 X0.05397 Y0.0935
G0 Z0.3075
G1 F2.0 Z0.245
G1 X0.15422 Y-0.00675 Z0.22
G1 F10.0 X0.19873 Y-0.05127
G3 X0.25 Y-0.0725 I0.05127 J0.05127
G1 X1.25
G3 X1.30127 Y-0.05127 I0.0 J0.0725
G1 X1.55127 Y0.19873
G3 X1.5725 Y0.25 I-0.05127 J0.05127
G1 Y0.45
G3 X1.5 Y0.5225 I-0.0725 J0.0
G1 X0.0
G3 X-0.0725 Y0.45 I0.0 J-0.0725
G1 Y0.25
G3 X-0.05127 Y0.19873 I0.0725 J0.0
G1 X0.15422 Y-0.00675
G2 X0.18204 Y-0.03986 Z0.245 I-0.17678 J-0.17678
G0 Z0.4
G0 X-0.00525 Y-0.03
G0 Z0.2825
G1 F2.0 Z0.22
G1 X-0.03 Z0.21564
G1 Y0.01848 Z0.20709
G1 X0.01848 Y-0.03 Z0.195
G1 F10.0 X-0.03
G1 Y0.01848
G1 X0.01848 Y-0.03
G1 F2.0 Y-0.0675
G1 F10.0 X-0.0675
G1 Y0.10901
G1 X0.10901 Y-0.0675
G1 X0.01848
G1 F2.0 Y-0.105
G1 F10.0 X-0.105
G1 Y0.21747
G3 X-0.07773 Y0.17227 I0.105 J0.03253
G1 X0.17227 Y-0.07773
G3 X0.21747 Y-0.105 I0.07773 J0.07773
G1 X0.01848
G2 X-0.02461 Y-0.10126 Z0.22 I0.0 J0.25
G0 Z0.4
G0 X0.27921 Y0.8425
G0 Z0.2825
G1 F2.0 Z0.22
G1 X0.1575 Z0.19854
G1 Y0.82243 Z0.195
G1 F10.0 X1.3425
G1 Y0.8425
G1 X0.1575
G1 Y0.82243
G2 X0.15376 Y0.77934 Z0.22 I-0.25 J0.0
G0 Z0.4
G0 X0.12921 Y0.88
G0 Z0.2825
G1 F2.0 Z0.22
G1 X0.12 Z0.21838
G1 Y0.78493 Z0.20161
G1 X0.1575 Z0.195
G1 F10.0 X1.38
G1 Y0.88
G1 X0.12
G1 Y0.78493
G1 X0.1575
G2 X0.20059 Y0.78118 Z0.22 I0.0 J-0.25
G0 Z0.4
G0 X0.0825 Y0.81421
G0 Z0.2825
G1 F2.0 Z0.22
G1 Y0.74743 Z0.20822
G1 X0.1575 Z0.195
G1 F10.0 X1.4175
G1 Y0.9175
G1 X0.0825
G1 Y0.74743
G1 X0.1575
G2 X0.20059 Y0.74368 Z0.22 I0.0 J-0.25
G0 Z0.4
G0 X0.045 Y0.73921
G0 Z0.2825
G1 F2.0 Z0.22
G1 Y0.70993 Z0.21484
G1 X0.1575 Z0.195
G1 F10.0 X1.455
G1 Y0.955
G1 X0.045
G1 Y0.70993
G1 X0.1575
G2 X0.20059 Y0.70618 Z0.22 I0.0 J-0.25
G0 Z0.4
G0 X0.01572 Y0.67243
G0 Z0.2825
G1 F2.0 Z0.22
G1 X0.1575 Z0.195
G1 F10.0 X1.4925
G1 Y0.9925
G1 X0.0075
G1 Y0.67243
G1 X0.1575
G2 X0.20059 Y0.66868 Z0.22 I0.0 J-0.25
G0 Z0.4
G0 X0.29928 Y0.63493
G0 Z0.2825
G1 F2.0 Z0.22
G1 X0.1575 Z0.195
G1 F10.0 X0.0
G3 X-0.03 Y0.63248 I0.0 J-0.18493
G1 Y1.03
G1 X1.53
G1 Y0.63248
G3 X1.5 Y0.63493 I-0.03 J-0.18248
G1 X0.1575
G2 X0.11441 Y0.63867 Z0.22 I0.0 J0.25
G0 Z0.4
G0 X0.29928 Y0.59743
G0 Z0.2825
G1 F2.0 Z0.22
G1 X0.1575 Z0.195
G1 F10.0 X0.0
G3 X-0.0675 Y0.58106 I0.0 J-0.14743
G1 Y1.0675
G1 X1.5675
G1 Y0.58106
G3 X1.5 Y0.59743 I-0.0675 J-0.13106
G1 X0.1575
G2 X0.11441 Y0.60117 Z0.22 I0.0 J0.25
G0 Z0.4
G0 X0.29928 Y0.55993
G0 Z0.2825
G1 F2.0 Z0.22
G1 X0.1575 Z0.195
G1 F10.0 X0.0
G3 X-0.105 Y0.48253 I0.0 J-0.10993
G1 Y1.105
G1 X1.605
G1 Y0.48253
G3 X1.5 Y0.55993 I-0.105 J-0.03253
G1 X0.1575
G2 X0.11441 Y0.56367 Z0.22 I0.0 J0.25
G0 Z0.4
G0 X1.50525 Y-0.03
G0 Z0.2825
G1 F2.0 Z0.22
G1 X1.53 Z0.21564
G1 Y0.01848 Z0.20709
G1 X1.48152 Y-0.03 Z0.195
G1 F10.0 X1.53
G1 Y0.01848
G1 X1.48152 Y-0.03
G1 F2.0 Y-0.0675
G1 F10.0 X1.5675
G1 Y0.10901
G1 X1.39099 Y-0.0675
G1 X1.48152
G1 F2.0 Y-0.105
G1 F10.0 X1.605
G1 Y0.21747
G2 X1.57773 Y0.17227 I-0.105 J0.03253
G1 X1.32773 Y-0.07773
G2 X1.28253 Y-0.105 I-0.07773 J0.07773
G1 X1.48152
G2 X1.52461 Y-0.10874 Z0.22 I0.0 J-0.25
G0 Z0.4
G0 X1.33974 Y-0.1425
G0 Z0.2825
G1 F2.0 Z0.22
G1 X1.48152 Z0.195
G1 F10.0 X1.625
G3 X1.6425 Y-0.125 I0.0 J0.0175
G1 Y1.125
G3 X1.625 Y1.1425 I-0.0175 J0.0
G1 X-0.125
G3 X-0.1425 Y1.125 I0.0 J-0.0175
G1 Y-0.125
G3 X-0.125 Y-0.1425 I0.0175 J0.0
G1 X1.48152
G2 X1.52461 Y-0.14624 Z0.22 I0.0 J-0.25
G0 Z0.4
G0 X1.22811 Y-0.0725
G0 Z0.2825
G1 F2.0 Z0.22
G1 X1.25 Z0.21614
G3 X1.30127 Y-0.05127 Z0.2061 I0.0 J0.0725
G1 X1.34578 Y-0.00675 Z0.195
G1 F10.0 X1.55127 Y0.19873
G3 X1.5725 Y0.25 I-0.05127 J0.05127
G1 Y0.45
G3 X1.5 Y0.5225 I-0.0725 J0.0
G1 X0.0
G3 X-0.0725 Y0.45 I0.0 J-0.0725
G1 Y0.25
G3 X-0.05127 Y0.19873 I0.0725 J0.0
G1 X0.19873 Y-0.05127
G3 X0.25 Y-0.0725 I0.05127 J0.05127
G1 X1.25
G3 X1.30127 Y-0.05127 I0.0 J0.0725
G1 X1.34578 Y-0.00675
G2 X1.37889 Y0.02107 Z0.22 I0.17678 J-0.17678
G0 Z0.4
G0 X1.44603 Y0.0935
G0 Z0.2575
G1 F2.0 Z0.195
G1 X1.34578 Y-0.00675 Z0.17
G1 F10.0 X1.30127 Y-0.05127
G2 X1.25 Y-0.0725 I-0.05127 J0.05127
G1 X0.25
G2 X0.19873 Y-0.05126 I0.0 J0.0725
G1 X-0.05127 Y0.19874
G2 X-0.0725 Y0.25 I0.05127 J0.05126
G1 Y1.0
G2 X0.0 Y1.0725 I0.0725 J0.0
G1 X0.12527
G2 X0.19777 Y1.0 I0.0 J-0.0725
G1 Y0.5225
G1 X0.30294
G2 X0.37186 Y0.5725 I0.06892 J-0.0225
G1 X1.12868
G2 X1.1976 Y0.5225 I0.0 J-0.0725
G1 X1.30277
G1 Y1.0
G2 X1.37527 Y1.0725 I0.0725 J0.0
G1 X1.5
G2 X1.5725 Y1.0 I0.0 J-0.0725
G1 Y0.25
G2 X1.55127 Y0.19873 I-0.0725 J0.0
G1 X1.34578 Y-0.00675
G2 X1.31267 Y-0.03457 Z0.195 I-0.17678 J0.17678
G0 Z0.4
G0 X1.50525 Y-0.03
G0 Z0.2575
G1 F2.0 Z0.195
G1 X1.53 Z0.19064
G1 Y0.01848 Z0.18209
G1 X1.48152 Y-0.03 Z0.17
G1 F10.0 X1.53
G1 Y0.01848
G1 X1.48152 Y-0.03
G2 X1.44841 Y-0.05782 Z0.195 I-0.17678 J0.17678
G0 Z0.4
G0 X1.55526 Y0.09677
G0 Z0.2575
G1 F2.0 Z0.195
G1 X1.45501 Y-0.00348 Z0.17
G1 F10.0 X1.39099 Y-0.0675
G1 X1.5675
G1 Y0.10901
G1 X1.45501 Y-0.00348
G2 X1.4219 Y-0.0313 Z0.195 I-0.17678 J0.17678
G0 Z0.4
G0 X1.52875 Y0.12329
G0 Z0.2575
G1 F2.0 Z0.195
G1 X1.42849 Y0.02303 Z0.17
G1 F10.0 X1.32773 Y-0.07773
G2 X1.28253 Y-0.105 I-0.07773 J0.07773
G1 X1.605
G1 Y0.21747
G2 X1.57773 Y0.17227 I-0.105 J0.03253
G1 X1.42849 Y0.02303
G2 X1.39538 Y-0.00479 Z0.195 I-0.17678 J0.17678
G0 Z0.4
G0 X0.87981 Y0.85368
G0 Z0.2575
G1 F2.0 Z0.195
G1 X1.0216 Z0.17
G1 F10.0 Y0.86125
G1 X0.47894
G1 Y0.85368
G1 X1.0216
G2 X1.06468 Y0.84993 Z0.195 I0.0 J-0.25
G0 Z0.4
G0 X0.87981 Y0.83493
G0 Z0.2575
G1 F2.0 Z0.195
G1 X1.0216 Z0.17
G1 F10.0 X1.04035
G1 Y0.88
G1 X0.46019
G1 Y0.83493
G1 X1.0216
G2 X1.06468 Y0.83118 Z0.195 I0.0 J-0.25
G0 Z0.4
G0 X0.87981 Y0.79743
G0 Z0.2575
G1 F2.0 Z0.195
G1 X1.0216 Z0.17
G1 F10.0 X1.07785
G1 Y0.9175
G1 X0.42269
G1 Y0.79743
G1 X1.0216
G2 X1.06468 Y0.79368 Z0.195 I0.0 J-0.25
G0 Z0.4
G0 X0.87981 Y0.75993
G0 Z0.2575
G1 F2.0 Z0.195
G1 X1.0216 Z0.17
G1 F10.0 X1.11535
G1 Y0.955
G1 X0.38519
G1 Y0.75993
G1 X1.0216
G2 X1.06468 Y0.75618 Z0.195 I0.0 J-0.25
G0 Z0.4
G0 X0.87981 Y0.72243
G0 Z0.2575
G1 F2.0 Z0.195
G1 X1.0216 Z0.17
G1 F10.0 X1.12868
G2 X1.15285 Y0.72111 I0.0 J-0.22243
G1 Y0.9925
G1 X0.34769
G1 Y0.72111
G2 X0.37186 Y0.72243 I0.02416 J-0.22111
G1 X1.0216
G2 X1.06468 Y0.71868 Z0.195 I0.0 J-0.25
G0 Z0.4
G0 X0.87981 Y0.68493
G0 Z0.2575
G1 F2.0 Z0.195
G1 X1.0216 Z0.17
G1 F10.0 X1.12868
G2 X1.19035 Y0.67434 I0.0 J-0.18493
G1 Y1.0
G2 X1.19279 Y1.03 I0.18493 J0.0
G1 X0.30775
G2 X0.31019 Y1.0 I-0.18248 J-0.03
G1 Y0.67434
G2 X0.37186 Y0.68493 I0.06166 J-0.17434
G1 X1.0216
G2 X1.06468 Y0.68118 Z0.195 I0.0 J-0.25
G0 Z0.4
G0 X0.87981 Y0.64743
G0 Z0.2575
G1 F2.0 Z0.195
G1 X1.0216 Z0.17
G1 F10.0 X1.12868
G2 X1.22785 Y0.60909 I0.0 J-0.14743
G1 Y1.0
G2 X1.24421 Y1.0675 I0.14743 J0.0
G1 X0.25633
G2 X0.27269 Y1.0 I-0.13106 J-0.0675
G1 Y0.60909
G2 X0.37186 Y0.64743 I0.09916 J-0.10909
G1 X1.0216
G2 X1.06468 Y0.64368 Z0.195 I0.0 J-0.25
G0 Z0.4
G0 X0.87981 Y0.60993
G0 Z0.2575
G1 F2.0 Z0.195
G1 X1.0216 Z0.17
G1 F10.0 X1.12868
G2 X1.22084 Y0.55993 I0.0 J-0.10993
G1 X1.26535
G1 Y1.0
G2 X1.34274 Y1.105 I0.10993 J0.0
G1 X0.1578
G2 X0.23519 Y1.0 I-0.03253 J-0.105
G1 Y0.55993
G1 X0.2797
G2 X0.37186 Y0.60993 I0.09215 J-0.05993
G1 X1.0216
G2 X1.06468 Y0.60618 Z0.195 I0.0 J-0.25
G0 Z0.4
G0 X1.605 Y1.03568
G0 Z0.2575
G1 F2.0 Z0.195
G1 Y1.105 Z0.18278
G1 X1.53253 Z0.17
G2 F10.0 X1.605 Y1.03253 I-0.03253 J-0.105
G1 Y1.105
G1 X1.53253
G2 X1.48945 Y1.10874 Z0.195 I0.0 J0.25
G0 Z0.4
G0 X-0.105 Y1.06771
G0 Z0.2575
G1 F2.0 Z0.195
G1 Y1.03253 Z0.1888
G2 X-0.03253 Y1.105 Z0.17 I0.105 J-0.03253
G1 F10.0 X-0.105
G1 Y1.03253
G2 X-0.03253 Y1.105 I0.105 J-0.03253
G2 X0.00973 Y1.11418 Z0.195 I0.07399 J-0.2388
G0 Z0.4
G0 X-0.03 Y-0.00525
G0 Z0.2575
G1 F2.0 Z0.195
G1 Y-0.03 Z0.19064
G1 X0.01848 Z0.18209
G1 X-0.03 Y0.01848 Z0.17
G1 F10.0 Y-0.03
G1 X0.01848
G1 X-0.03 Y0.01848
G2 X-0.05782 Y0.05159 Z0.195 I0.17678 J0.17678
G1 F2.0 X-0.03126 Y0.07277
G1 X-0.0675 Y0.10901 Z0.18596
G1 Y0.01848 Z0.17
G1 F10.0 Y-0.0675
G1 X0.10901
G1 X-0.0675 Y0.10901
G1 Y0.01848
G2 X-0.07124 Y-0.02461 Z0.195 I-0.25 J0.0
G0 Z0.4
G0 X-0.105 Y0.16026
G0 Z0.2575
G1 F2.0 Z0.195
G1 Y0.01848 Z0.17
G1 F10.0 Y-0.105
G1 X0.21747
G2 X0.17227 Y-0.07773 I0.03253 J0.105
G1 X-0.07773 Y0.17227
G2 X-0.105 Y0.21747 I0.07773 J0.07773
G1 Y0.01848
G2 X-0.10874 Y-0.02461 Z0.195 I-0.25 J0.0
G0 Z0.4
G0 X-0.1425 Y0.16026
G0 Z0.2575
G1 F2.0 Z0.195
G1 Y0.01848 Z0.17
G1 F10.0 Y-0.125
G3 X-0.125 Y-0.1425 I0.0175 J0.0
G1 X1.625
G3 X1.6425 Y-0.125 I0.0 J0.0175
G1 Y1.125
G3 X1.625 Y1.1425 I-0.0175 J0.0
G1 X-0.125
G3 X-0.1425 Y1.125 I0.0 J-0.0175
G1 Y0.01848
G2 X-0.14624 Y-0.02461 Z0.195 I-0.25 J0.0
G0 Z0.4
G0 X-0.01322 Y0.0017
G0 Z0.2325
G1 F2.0 Z0.17
G1 X0.01848 Y-0.03 Z0.1621
G1 X-0.03 Z0.15355
G1 Y0.01848 Z0.145
G1 F10.0 X0.01848 Y-0.03
G1 X-0.03
G1 Y0.01848
G2 X-0.02626 Y0.06156 Z0.17 I0.25 J0.0
G0 Z0.4
G0 X-0.01169 Y-0.0675
G0 Z0.2325
G1 F2.0 Z0.17
G1 X-0.0675 Z0.16016
G1 Y0.01848 Z0.145
G1 F10.0 Y0.10901
G1 X0.10901 Y-0.0675
G1 X-0.0675
G1 Y0.01848
G2 X-0.06376 Y0.06156 Z0.17 I0.25 J0.0
G0 Z0.4
G0 X-0.08669 Y-0.105
G0 Z0.2325
G1 F2.0 Z0.17
G1 X-0.105 Z0.16677
G1 Y0.01848 Z0.145
G1 F10.0 Y0.21747
G3 X-0.07773 Y0.17227 I0.105 J0.03253
G1 X0.17227 Y-0.07773
G3 X0.21747 Y-0.105 I0.07773 J0.07773
G1 X-0.105
G1 Y0.01848
G2 X-0.10126 Y0.06156 Z0.17 I0.25 J0.0
G0 Z0.4
G0 X-0.06771 Y1.105
G0 Z0.2325
G1 F2.0 Z0.17
G1 X-0.03253 Z0.1638
G3 X-0.105 Y1.03253 Z0.145 I0.03253 J-0.105
G1 F10.0 Y1.105
G1 X-0.03253
G3 X-0.105 Y1.03253 I0.03253 J-0.105
G2 X-0.12133 Y0.99249 Z0.17 I-0.2388 J0.07399
G0 Z0.4
G0 X0.62073 Y0.86125
G0 Z0.2325
G1 F2.0 Z0.17
G1 X0.47894 Z0.145
G1 F10.0 Y0.85368
G1 X1.0216
G1 Y0.86125
G1 X0.47894
G2 X0.43586 Y0.86499 Z0.17 I0.0 J0.25
G0 Z0.4
G0 X0.58323 Y0.88
G0 Z0.2325
G1 F2.0 Z0.17
G1 X0.46019 Z0.14831
G1 Y0.86125 Z0.145
G1 F10.0 Y0.83493
G1 X1.04035
G1 Y0.88
G1 X0.46019
G1 Y0.86125
G2 X0.45645 Y0.81816 Z0.17 I-0.25 J0.0
G0 Z0.4
G0 X0.50823 Y0.9175
G0 Z0.2325
G1 F2.0 Z0.17
G1 X0.42269 Z0.15492
G1 Y0.86125 Z0.145
G1 F10.0 Y0.79743
G1 X1.07785
G1 Y0.9175
G1 X0.42269
G1 Y0.86125
G2 X0.41895 Y0.81816 Z0.17 I-0.25 J0.0
G0 Z0.4
G0 X0.43323 Y0.955
G0 Z0.2325
G1 F2.0 Z0.17
G1 X0.38519 Z0.16153
G1 Y0.86125 Z0.145
G1 F10.0 Y0.75993
G1 X1.11535
G1 Y0.955
G1 X0.38519
G1 Y0.86125
G2 X0.38145 Y0.81816 Z0.17 I-0.25 J0.0
G0 Z0.4
G0 X0.35823 Y0.9925
G0 Z0.2325
G1 F2.0 Z0.17
G1 X0.34769 Z0.16814
G1 Y0.86125 Z0.145
G1 F10.0 Y0.72111
G2 X0.37186 Y0.72243 I0.02416 J-0.22111
G1 X1.12868
G2 X1.15285 Y0.72111 I0.0 J-0.22243
G1 Y0.9925
G1 X0.34769
G1 Y0.86125
G2 X0.34395 Y0.81816 Z0.17 I-0.25 J0.0
G0 Z0.4
G0 X0.31019 Y0.71947
G0 Z0.2325
G1 F2.0 Z0.17
G1 Y0.86125 Z0.145
G1 F10.0 Y1.0
G3 X0.30775 Y1.03 I-0.18493 J0.0
G1 X1.19279
G3 X1.19035 Y1.0 I0.18248 J-0.03
G1 Y0.67434
G3 X1.12868 Y0.68493 I-0.06166 J-0.17434
G1 X0.37186
G3 X0.31019 Y0.67434 I0.0 J-0.18493
G1 Y0.86125
G2 X0.31394 Y0.90434 Z0.17 I0.25 J0.0
G0 Z0.4
G0 X0.27269 Y0.71947
G0 Z0.2325
G1 F2.0 Z0.17
G1 Y0.86125 Z0.145
G1 F10.0 Y1.0
G3 X0.25633 Y1.0675 I-0.14743 J0.0
G1 X1.24421
G3 X1.22785 Y1.0 I0.13106 J-0.0675
G1 Y0.60909
G3 X1.12868 Y0.64743 I-0.09916 J-0.10909
G1 X0.37186
G3 X0.27269 Y0.60909 I0.0 J-0.14743
G1 Y0.86125
G2 X0.27644 Y0.90434 Z0.17 I0.25 J0.0
G0 Z0.4
G0 X0.23519 Y0.71947
G0 Z0.2325
G1 F2.0 Z0.17
G1 Y0.86125 Z0.145
G1 F10.0 Y1.0
G3 X0.1578 Y1.105 I-0.10993 J0.0
G1 X1.34274
G3 X1.26535 Y1.0 I0.03253 J-0.105
G1 Y0.55993
G1 X1.22084
G3 X1.12868 Y0.60993 I-0.09215 J-0.05993
G1 X0.37186
G3 X0.2797 Y0.55993 I0.0 J-0.10993
G1 X0.23519
G1 Y0.86125
G2 X0.23894 Y0.90434 Z0.17 I0.25 J0.0
G0 Z0.4
G0 X1.605 Y1.06771
G0 Z0.2325
G1 F2.0 Z0.17
G1 Y1.03253 Z0.1638
G3 X1.53253 Y1.105 Z0.145 I-0.105 J-0.03253
G1 F10.0 X1.605
G1 Y1.03253
G3 X1.53253 Y1.105 I-0.105 J-0.03253
G2 X1.49249 Y1.12133 Z0.17 I0.07399 J0.2388
G0 Z0.4
G0 X1.51322 Y0.0017
G0 Z0.2325
G1 F2.0 Z0.17
G1 X1.48152 Y-0.03 Z0.1621
G1 X1.53 Z0.15355
G1 Y0.01848 Z0.145
G1 F10.0 X1.48152 Y-0.03
G1 X1.53
G1 Y0.01848
G2 X1.53374 Y0.06156 Z0.17 I0.25 J0.0
G0 Z0.4
G0 X1.51169 Y-0.0675
G0 Z0.2325
G1 F2.0 Z0.17
G1 X1.5675 Z0.16016
G1 Y0.01848 Z0.145
G1 F10.0 Y0.10901
G1 X1.39099 Y-0.0675
G1 X1.5675
G1 Y0.01848
G2 X1.57124 Y0.06156 Z0.17 I0.25 J0.0
G0 Z0.4
G0 X1.58669 Y-0.105
G0 Z0.2325
G1 F2.0 Z0.17
G1 X1.605 Z0.16677
G1 Y0.01848 Z0.145
G1 F10.0 Y0.21747
G2 X1.57773 Y0.17227 I-0.105 J0.03253
G1 X1.32773 Y-0.07773
G2 X1.28253 Y-0.105 I-0.07773 J0.07773
G1 X1.605
G1 Y0.01848
G2 X1.60874 Y0.06156 Z0.17 I0.25 J0.0
G0 Z0.4
G0 X1.6425 Y-0.12331
G0 Z0.2325
G1 F2.0 Z0.17
G1 Y0.01848 Z0.145
G1 F10.0 Y1.125
G3 X1.625 Y1.1425 I-0.0175 J0.0
G1 X-0.125
G3 X-0.1425 Y1.125 I0.0 J-0.0175
G1 Y-0.125
G3 X-0.125 Y-0.1425 I0.0175 J0.0
G1 X1.625
G3 X1.6425 Y-0.125 I0.0 J0.0175
G1 Y0.01848
G2 X1.64624 Y0.06156 Z0.17 I0.25 J0.0
G0 Z0.4
G0 X1.4065 Y0.05397
G0 Z0.2325
G1 F2.0 Z0.17
G1 X1.50675 Y0.15422 Z0.145
G1 F10.0 X1.55127 Y0.19873
G3 X1.5725 Y0.25 I-0.05127 J0.05127
G1 Y1.0
G3 X1.5 Y1.0725 I-0.0725 J0.0
G1 X1.37527
G3 X1.30277 Y1.0 I0.0 J-0.0725
G1 Y0.5225
G1 X1.1976
G3 X1.12868 Y0.5725 I-0.06892 J-0.0225
G1 X0.37186
G3 X0.30294 Y0.5225 I0.0 J-0.0725
G1 X0.19777
G1 Y1.0
G3 X0.12527 Y1.0725 I-0.0725 J0.0
G1 X0.0
G3 X-0.0725 Y1.0 I0.0 J-0.0725
G1 Y0.25
G3 X-0.05127 Y0.19873 I0.0725 J0.0
G1 X0.19873 Y-0.05127
G3 X0.25 Y-0.0725 I0.05127 J0.05127
G1 X1.25
G3 X1.30127 Y-0.05127 I0.0 J0.0725
G1 X1.50675 Y0.15422
G2 X1.53986 Y0.18204 Z0.17 I0.17678 J-0.17678
G0 Z0.4
G0 X1.51322 Y0.0017
G0 Z0.2075
G1 F2.0 Z0.145
G1 X1.48152 Y-0.03 Z0.1371
G1 X1.53 Z0.12855
G1 Y0.01848 Z0.12
G1 F10.0 X1.48152 Y-0.03
G1 X1.53
G1 Y0.01848
G2 X1.53374 Y0.06156 Z0.145 I0.25 J0.0
G1 F2.0 X1.5675 Y0.05776
G1 Y0.10901 Z0.13596
G1 X1.50348 Y0.04499 Z0.12
G1 F10.0 X1.39099 Y-0.0675
G1 X1.5675
G1 Y0.10901
G1 X1.50348 Y0.04499
G2 X1.47037 Y0.01717 Z0.145 I-0.17678 J0.17678
G0 Z0.4
G0 X1.57722 Y0.17176
G0 Z0.2075
G1 F2.0 Z0.145
G1 X1.47697 Y0.07151 Z0.12
G1 F10.0 X1.32773 Y-0.07773
G2 X1.28253 Y-0.105 I-0.07773 J0.07773
G1 X1.605
G1 Y0.21747
G2 X1.57773 Y0.17227 I-0.105 J0.03253
G1 X1.47697 Y0.07151
G2 X1.44386 Y0.04369 Z0.145 I-0.17678 J0.17678
G0 Z0.4
G0 X0.87981 Y0.85368
G0 Z0.2075
G1 F2.0 Z0.145
G1 X1.0216 Z0.12
G1 F10.0 Y0.86125
G1 X0.47894
G1 Y0.85368
G1 X1.0216
G2 X1.06468 Y0.84993 Z0.145 I0.0 J-0.25
G0 Z0.4
G0 X0.87981 Y0.83493
G0 Z0.2075
G1 F2.0 Z0.145
G1 X1.0216 Z0.12
G1 F10.0 X1.04035
G1 Y0.88
G1 X0.46019
G1 Y0.83493
G1 X1.0216
G2 X1.06468 Y0.83118 Z0.145 I0.0 J-0.25
G0 Z0.4
G0 X0.87981 Y0.79743
G0 Z0.2075
G1 F2.0 Z0.145
G1 X1.0216 Z0.12
G1 F10.0 X1.07785
G1 Y0.9175
G1 X0.42269
G1 Y0.79743
G1 X1.0216
G2 X1.06468 Y0.79368 Z0.145 I0.0 J-0.25
G0 Z0.4
G0 X0.87981 Y0.75993
G0 Z0.2075
G1 F2.0 Z0.145
G1 X1.0216 Z0.12
G1 F10.0 X1.11535
G1 Y0.955
G1 X0.38519
G1 Y0.75993
G1 X1.0216
G2 X1.06468 Y0.75618 Z0.145 I0.0 J-0.25
G0 Z0.4
G0 X0.87981 Y0.72243
G0 Z0.2075
G1 F2.0 Z0.145
G1 X1.0216 Z0.12
G1 F10.0 X1.12868
G2 X1.15285 Y0.72111 I0.0 J-0.22243
G1 Y0.9925
G1 X0.34769
G1 Y0.72111
G2 X0.37186 Y0.72243 I0.02416 J-0.22111
G1 X1.0216
G2 X1.06468 Y0.71868 Z0.145 I0.0 J-0.25
G0 Z0.4
G0 X1.16317 Y0.68168
G0 Z0.2075
G1 F2.0 Z0.145
G3 X1.12868 Y0.68493 Z0.13888 I-0.03449 J-0.18168
G1 X1.0216 Z0.12
G1 F10.0 X0.37186
G3 X0.31019 Y0.67434 I0.0 J-0.18493
G1 Y1.0
G3 X0.30775 Y1.03 I-0.18493 J0.0
G1 X1.19279
G3 X1.19035 Y1.0 I0.18248 J-0.03
G1 Y0.67434
G3 X1.12868 Y0.68493 I-0.06166 J-0.17434
G1 X1.0216
G2 X0.97851 Y0.68867 Z0.145 I0.0 J0.25
G0 Z0.4
G0 X1.16306 Y0.64336
G0 Z0.2075
G1 F2.0 Z0.145
G3 X1.12868 Y0.64743 Z0.13888 I-0.03438 J-0.14336
G1 X1.0216 Z0.12
G1 F10.0 X0.37186
G3 X0.27269 Y0.60909 I0.0 J-0.14743
G1 Y1.0
G3 X0.25633 Y1.0675 I-0.14743 J0.0
G1 X1.24421
G3 X1.22785 Y1.0 I0.13106 J-0.0675
G1 Y0.60909
G3 X1.12868 Y0.64743 I-0.09916 J-0.10909
G1 X1.0216
G2 X0.97851 Y0.65117 Z0.145 I0.0 J0.25
G0 Z0.4
G0 X1.1628 Y0.60449
G0 Z0.2075
G1 F2.0 Z0.145
G3 X1.12868 Y0.60993 Z0.13888 I-0.03412 J-0.10449
G1 X1.0216 Z0.12
G1 F10.0 X0.37186
G3 X0.2797 Y0.55993 I0.0 J-0.10993
G1 X0.23519
G1 Y1.0
G3 X0.1578 Y1.105 I-0.10993 J0.0
G1 X1.34274
G3 X1.26535 Y1.0 I0.03253 J-0.105
G1 Y0.55993
G1 X1.22084
G3 X1.12868 Y0.60993 I-0.09215 J-0.05993
G1 X1.0216
G2 X0.97851 Y0.61367 Z0.145 I0.0 J0.25
G0 Z0.4
G0 X1.605 Y1.06771
G0 Z0.2075
G1 F2.0 Z0.145
G1 Y1.03253 Z0.1388
G3 X1.53253 Y1.105 Z0.12 I-0.105 J-0.03253
G1 F10.0 X1.605
G1 Y1.03253
G3 X1.53253 Y1.105 I-0.105 J-0.03253
G2 X1.49249 Y1.12133 Z0.145 I0.07399 J0.2388
G0 Z0.4
G0 X-0.105 Y1.03568
G0 Z0.2075
G1 F2.0 Z0.145
G1 Y1.105 Z0.13278
G1 X-0.03253 Z0.12
G3 F10.0 X-0.105 Y1.03253 I0.03253 J-0.105
G1 Y1.105
G1 X-0.03253
G2 X0.01055 Y1.10126 Z0.145 I0.0 J-0.25
G0 Z0.4
G0 X-0.01322 Y0.0017
G0 Z0.2075
G1 F2.0 Z0.145
G1 X0.01848 Y-0.03 Z0.1371
G1 X-0.03 Z0.12855
G1 Y0.01848 Z0.12
G1 F10.0 X0.01848 Y-0.03
G1 X-0.03
G1 Y0.01848
G2 X-0.02626 Y0.06156 Z0.145 I0.25 J0.0
G0 Z0.4
G0 X-0.0117 Y-0.0675
G0 Z0.2075
G1 F2.0 Z0.145
G1 X-0.0675 Z0.13516
G1 Y0.01848 Z0.12
G1 F10.0 Y0.10901
G1 X0.10901 Y-0.0675
G1 X-0.0675
G1 Y0.01848
G2 X-0.06376 Y0.06156 Z0.145 I0.25 J0.0
G0 Z0.4
G0 X-0.0867 Y-0.105
G0 Z0.2075
G1 F2.0 Z0.145
G1 X-0.105 Z0.14177
G1 Y0.01848 Z0.12
G1 F10.0 Y0.21747
G3 X-0.07773 Y0.17227 I0.105 J0.03253
G1 X0.17227 Y-0.07773
G3 X0.21747 Y-0.105 I0.07773 J0.07773
G1 X-0.105
G1 Y0.01848
G2 X-0.10126 Y0.06156 Z0.145 I0.25 J0.0
G0 Z0.4
G0 X-0.1425 Y0.16026
G0 Z0.2075
G1 F2.0 Z0.145
G1 Y0.01848 Z0.12
G1 F10.0 Y-0.125
G3 X-0.125 Y-0.1425 I0.0175 J0.0
G1 X1.625
G3 X1.6425 Y-0.125 I0.0 J0.0175
G1 Y1.125
G3 X1.625 Y1.1425 I-0.0175 J0.0
G1 X-0.125
G3 X-0.1425 Y1.125 I0.0 J-0.0175
G1 Y0.01848
G2 X-0.14624 Y-0.02461 Z0.145 I-0.25 J0.0
G0 Z0.4
G0 X-0.0725 Y0.27189
G0 Z0.2075
G1 F2.0 Z0.145
G1 Y0.25 Z0.14114
G3 X-0.05126 Y0.19873 Z0.1311 I0.0725 J0.0
G1 X-0.00675 Y0.15422 Z0.12
G1 F10.0 X0.19874 Y-0.05127
G3 X0.25 Y-0.0725 I0.05126 J0.05127
G1 X1.25
G3 X1.30127 Y-0.05127 I0.0 J0.0725
G1 X1.55127 Y0.19873
G3 X1.5725 Y0.25 I-0.05127 J0.05127
G1 Y1.0
G3 X1.5 Y1.0725 I-0.0725 J0.0
G1 X1.37527
G3 X1.30277 Y1.0 I0.0 J-0.0725
G1 Y0.5225
G1 X1.1976
G3 X1.12868 Y0.5725 I-0.06892 J-0.0225
G1 X0.37186
G3 X0.30294 Y0.5225 I0.0 J-0.0725
G1 X0.19777
G1 Y1.0
G3 X0.12527 Y1.0725 I-0.0725 J0.0
G1 X0.0
G3 X-0.0725 Y1.0 I0.0 J-0.0725
G1 Y0.25
G3 X-0.05126 Y0.19873 I0.0725 J0.0
G1 X-0.00675 Y0.15422
G2 X0.02107 Y0.12111 Z0.145 I-0.17678 J-0.17678
G0 Z0.4
G0 X-0.01322 Y0.0017
G0 Z0.1825
G1 F2.0 Z0.12
G1 X0.01848 Y-0.03 Z0.1121
G1 X-0.03 Z0.10355
G1 Y0.01848 Z0.095
G1 F10.0 X0.01848 Y-0.03
G1 X-0.03
G1 Y0.01848
G1 F2.0 X-0.0675
G1 F10.0 Y0.10901
G1 X0.10901 Y-0.0675
G1 X-0.0675
G1 Y0.01848
G1 F2.0 X-0.105
G1 F10.0 Y0.21747
G3 X-0.07773 Y0.17227 I0.105 J0.03253
G1 X0.17227 Y-0.07773
G3 X0.21747 Y-0.105 I0.07773 J0.07773
G1 X-0.105
G1 Y0.01848
G2 X-0.10126 Y0.06156 Z0.12 I0.25 J0.0
G0 Z0.4
G0 X-0.06771 Y1.105
G0 Z0.1825
G1 F2.0 Z0.12
G1 X-0.03253 Z0.1138
G3 X-0.105 Y1.03253 Z0.095 I0.03253 J-0.105
G1 F10.0 Y1.105
G1 X-0.03253
G3 X-0.105 Y1.03253 I0.03253 J-0.105
G2 X-0.12133 Y0.99249 Z0.12 I-0.2388 J0.07399
G0 Z0.4
G0 X0.62073 Y0.86125
G0 Z0.1825
G1 F2.0 Z0.12
G1 X0.47894 Z0.095
G1 F10.0 Y0.85368
G1 X1.0216
G1 Y0.86125
G1 X0.47894
G2 X0.43586 Y0.86499 Z0.12 I0.0 J0.25
G0 Z0.4
G0 X0.58323 Y0.88
G0 Z0.1825
G1 F2.0 Z0.12
G1 X0.46019 Z0.09831
G1 Y0.86125 Z0.095
G1 F10.0 Y0.83493
G1 X1.04035
G1 Y0.88
G1 X0.46019
G1 Y0.86125
G2 X0.45645 Y0.81816 Z0.12 I-0.25 J0.0
G0 Z0.4
G0 X0.50823 Y0.9175
G0 Z0.1825
G1 F2.0 Z0.12
G1 X0.42269 Z0.10492
G1 Y0.86125 Z0.095
G1 F10.0 Y0.79743
G1 X1.07785
G1 Y0.9175
G1 X0.42269
G1 Y0.86125
G2 X0.41895 Y0.81816 Z0.12 I-0.25 J0.0
G0 Z0.4
G0 X0.43323 Y0.955
G0 Z0.1825
G1 F2.0 Z0.12
G1 X0.38519 Z0.11153
G1 Y0.86125 Z0.095
G1 F10.0 Y0.75993
G1 X1.11535
G1 Y0.955
G1 X0.38519
G1 Y0.86125
G2 X0.38145 Y0.81816 Z0.12 I-0.25 J0.0
G0 Z0.4
G0 X0.35823 Y0.9925
G0 Z0.1825
G1 F2.0 Z0.12
G1 X0.34769 Z0.11814
G1 Y0.86125 Z0.095
G1 F10.0 Y0.72111
G2 X0.37186 Y0.72243 I0.02416 J-0.22111
G1 X1.12868
G2 X1.15285 Y0.72111 I0.0 J-0.22243
G1 Y0.9925
G1 X0.34769
G1 Y0.86125
G2 X0.34395 Y0.81816 Z0.12 I-0.25 J0.0
G0 Z0.4
G0 X0.31019 Y0.71947
G0 Z0.1825
G1 F2.0 Z0.12
G1 Y0.86125 Z0.095
G1 F10.0 Y1.0
G3 X0.30775 Y1.03 I-0.18493 J0.0
G1 X1.19279
G3 X1.19035 Y1.0 I0.18248 J-0.03
G1 Y0.67434
G3 X1.12868 Y0.68493 I-0.06166 J-0.17434
G1 X0.37186
G3 X0.31019 Y0.67434 I0.0 J-0.18493
G1 Y0.86125
G2 X0.31394 Y0.90434 Z0.12 I0.25 J0.0
G0 Z0.4
G0 X0.27269 Y0.71947
G0 Z0.1825
G1 F2.0 Z0.12
G1 Y0.86125 Z0.095
G1 F10.0 Y1.0
G3 X0.25633 Y1.0675 I-0.14743 J0.0
G1 X1.24421
G3 X1.22785 Y1.0 I0.13106 J-0.0675
G1 Y0.60909
G3 X1.12868 Y0.64743 I-0.09916 J-0.10909
G1 X0.37186
G3 X0.27269 Y0.60909 I0.0 J-0.14743
G1 Y0.86125
G2 X0.27644 Y0.90434 Z0.12 I0.25 J0.0
G0 Z0.4
G0 X0.23519 Y0.71947
G0 Z0.1825
G1 F2.0 Z0.12
G1 Y0.86125 Z0.095
G1 F10.0 Y1.0
G3 X0.1578 Y1.105 I-0.10993 J0.0
G1 X1.34274
G3 X1.26535 Y1.0 I0.03253 J-0.105
G1 Y0.55993
G1 X1.22084
G3 X1.12868 Y0.60993 I-0.09215 J-0.05993
G1 X0.37186
G3 X0.2797 Y0.55993 I0.0 J-0.10993
G1 X0.23519
G1 Y0.86125
G2 X0.23894 Y0.90434 Z0.12 I0.25 J0.0
G0 Z0.4
G0 X1.605 Y1.06771
G0 Z0.1825
G1 F2.0 Z0.12
G1 Y1.03253 Z0.1138
G3 X1.53253 Y1.105 Z0.095 I-0.105 J-0.03253
G1 F10.0 X1.605
G1 Y1.03253
G3 X1.53253 Y1.105 I-0.105 J-0.03253
G2 X1.49249 Y1.12133 Z0.12 I0.07399 J0.2388
G0 Z0.4
G0 X1.51322 Y0.0017
G0 Z0.1825
G1 F2.0 Z0.12
G1 X1.48152 Y-0.03 Z0.1121
G1 X1.53 Z0.10355
G1 Y0.01848 Z0.095
G1 F10.0 X1.48152 Y-0.03
G1 X1.53
G1 Y0.01848
G1 F2.0 X1.50348 Y0.04499
G1 F10.0 X1.39099 Y-0.0675
G1 X1.5675
G1 Y0.10901
G1 X1.50348 Y0.04499
G1 F2.0 X1.47697 Y0.07151
G1 F10.0 X1.32773 Y-0.07773
G2 X1.28253 Y-0.105 I-0.07773 J0.07773
G1 X1.605
G1 Y0.21747
G2 X1.57773 Y0.17227 I-0.105 J0.03253
G1 X1.47697 Y0.07151
G2 X1.44386 Y0.04369 Z0.12 I-0.17678 J0.17678
G0 Z0.4
G0 X1.6425 Y-0.07027
G0 Z0.1825
G1 F2.0 Z0.12
G1 Y0.07151 Z0.095
G1 F10.0 Y1.125
G3 X1.625 Y1.1425 I-0.0175 J0.0
G1 X-0.125
G3 X-0.1425 Y1.125 I0.0 J-0.0175
G1 Y-0.125
G3 X-0.125 Y-0.1425 I0.0175 J0.0
G1 X1.625
G3 X1.6425 Y-0.125 I0.0 J0.0175
G1 Y0.07151
G2 X1.64624 Y0.11459 Z0.12 I0.25 J0.0
G0 Z0.4
G0 X1.43301 Y0.08048
G0 Z0.1825
G1 F2.0 Z0.12
G1 X1.53327 Y0.18074 Z0.095
G1 F10.0 X1.55127 Y0.19873
G3 X1.5725 Y0.25 I-0.05127 J0.05127
G1 Y1.0
G3 X1.5 Y1.0725 I-0.0725 J0.0
G1 X1.37527
G3 X1.30277 Y1.0 I0.0 J-0.0725
G1 Y0.5225
G1 X1.1976
G3 X1.12868 Y0.5725 I-0.06892 J-0.0225
G1 X0.37186
G3 X0.30294 Y0.5225 I0.0 J-0.0725
G1 X0.19777
G1 Y1.0
G3 X0.12527 Y1.0725 I-0.0725 J0.0
G1 X0.0
G3 X-0.0725 Y1.0 I0.0 J-0.0725
G1 Y0.25
G3 X-0.05126 Y0.19873 I0.0725 J0.0
G1 X0.19874 Y-0.05127
G3 X0.25 Y-0.0725 I0.05126 J0.05127
G1 X1.25
G3 X1.30127 Y-0.05127 I0.0 J0.0725
G1 X1.53327 Y0.18074
G2 X1.56638 Y0.20856 Z0.12 I0.17678 J-0.17678
G0 Z0.4
G0 X1.51323 Y0.0017
G0 Z0.1575
G1 F2.0 Z0.095
G1 X1.48153 Y-0.03 Z0.08709
G1 X1.53 Z0.07855
G1 Y0.01847 Z0.07
G1 F10.0 X1.48153 Y-0.03
G1 X1.53
G1 Y0.01847
G2 X1.53374 Y0.06156 Z0.095 I0.25 J0.0
G0 Z0.4
G0 X1.51169 Y-0.0675
G0 Z0.1575
G1 F2.0 Z0.095
G1 X1.5675 Z0.08516
G1 Y0.01847 Z0.07
G1 F10.0 Y0.10901
G2 X1.39099 Y-0.0675 I-2546.10024 J2545.86898
G1 X1.5675
G1 Y0.01847
G2 X1.57124 Y0.06156 Z0.095 I0.25 J0.0
G0 Z0.4
G0 X1.58669 Y-0.105
G0 Z0.1575
G1 F2.0 Z0.095
G1 X1.605 Z0.09177
G1 Y0.01847 Z0.07
G1 F10.0 Y0.21747
G2 X1.57773 Y0.17228 I-0.105 J0.03253
G2 X1.32773 Y-0.07773 I-2546.11048 J2545.80571
G2 X1.28253 Y-0.105 I-0.07773 J0.07773
G1 X1.605
G1 Y0.01847
G2 X1.60874 Y0.06156 Z0.095 I0.25 J0.0
G0 Z0.4
G0 X1.53568 Y1.105
G0 Z0.1575
G1 F2.0 Z0.095
G1 X1.605 Z0.08278
G1 Y1.03253 Z0.07
G3 F10.0 X1.53253 Y1.105 I-0.105 J-0.03253
G1 X1.605
G1 Y1.03253
G2 X1.60126 Y0.98945 Z0.095 I-0.25 J0.0
G0 Z0.4
G0 X0.73757 Y0.85368
G0 Z0.1575
G1 F2.0 Z0.095
G1 X0.77133 Z0.08905
G1 Y0.86125 Z0.08771
G1 X0.72868 Z0.08019
G1 Y0.85368 Z0.07886
G1 X0.77133 Z0.07134
G1 Y0.86125 Z0.07
G1 F10.0 X0.72868
G1 Y0.85368
G1 X0.77133
G1 Y0.86125
G2 X0.77507 Y0.90434 Z0.095 I0.25 J0.0
G0 Z0.4
G0 X0.71212 Y0.83493
G0 Z0.1575
G1 F2.0 Z0.095
G1 X0.79008 Z0.08125
G1 Y0.88 Z0.07331
G1 X0.77133 Z0.07
G1 F10.0 X0.70993
G1 Y0.83493
G1 X0.79008
G1 Y0.88
G1 X0.77133
G2 X0.72824 Y0.88374 Z0.095 I0.0 J0.25
G0 Z0.4
G0 X0.82758 Y0.83197
G0 Z0.1575
G1 F2.0 Z0.095
G1 Y0.9175 Z0.07992
G1 X0.77133 Z0.07
G1 F10.0 X0.67243
G1 Y0.79743
G1 X0.82758
G1 Y0.9175
G1 X0.77133
G2 X0.72824 Y0.92124 Z0.095 I0.0 J0.25
G0 Z0.4
G0 X0.86508 Y0.90697
G0 Z0.1575
G1 F2.0 Z0.095
G1 Y0.955 Z0.08653
G1 X0.77133 Z0.07
G1 F10.0 X0.63493
G1 Y0.75993
G1 X0.86508
G1 Y0.955
G1 X0.77133
G2 X0.72824 Y0.95874 Z0.095 I0.0 J0.25
G0 Z0.4
G0 X0.90258 Y0.98197
G0 Z0.1575
G1 F2.0 Z0.095
G1 Y0.9925 Z0.09314
G1 X0.77133 Z0.07
G1 F10.0 X0.59743
G1 Y0.72243
G1 X0.90258
G1 Y0.9925
G1 X0.77133
G2 X0.72824 Y0.99624 Z0.095 I0.0 J0.25
G0 Z0.4
G0 X0.62954 Y1.03
G0 Z0.1575
G1 F2.0 Z0.095
G1 X0.77133 Z0.07
G1 F10.0 X0.94252
G3 X0.94008 Y1.0 I0.18248 J-0.03
G1 Y0.68493
G1 X0.55993
G1 Y1.0
G3 X0.55748 Y1.03 I-0.18493 J0.0
G1 X0.77133
G2 X0.81441 Y1.02626 Z0.095 I0.0 J-0.25
G0 Z0.4
G0 X0.62954 Y1.0675
G0 Z0.1575
G1 F2.0 Z0.095
G1 X0.77133 Z0.07
G1 F10.0 X0.99394
G3 X0.97758 Y1.0 I0.13106 J-0.0675
G1 Y0.64743
G1 X0.52243
G1 Y1.0
G3 X0.50606 Y1.0675 I-0.14743 J0.0
G1 X0.77133
G2 X0.81441 Y1.06376 Z0.095 I0.0 J-0.25
G0 Z0.4
G0 X0.62954 Y1.105
G0 Z0.1575
G1 F2.0 Z0.095
G1 X0.77133 Z0.07
G1 F10.0 X1.09247
G3 X1.01508 Y1.0 I0.03253 J-0.105
G1 Y0.60993
G1 X0.48493
G1 Y1.0
G3 X0.40753 Y1.105 I-0.10993 J0.0
G1 X0.77133
G2 X0.81441 Y1.10126 Z0.095 I0.0 J-0.25
G0 Z0.4
G0 X-0.105 Y1.03568
G0 Z0.1575
G1 F2.0 Z0.095
G1 Y1.105 Z0.08278
G1 X-0.03253 Z0.07
G3 F10.0 X-0.105 Y1.03253 I0.03253 J-0.105
G1 Y1.105
G1 X-0.03253
G2 X0.01055 Y1.10126 Z0.095 I0.0 J-0.25
G0 Z0.4
G0 X-0.01322 Y0.0017
G0 Z0.1575
G1 F2.0 Z0.095
G1 X0.01848 Y-0.03 Z0.0871
G1 X-0.03 Z0.07855
G1 Y0.01848 Z0.07
G1 F10.0 X0.01848 Y-0.03
G1 X-0.03
G1 Y0.01848
G2 X-0.02626 Y0.06156 Z0.095 I0.25 J0.0
G1 F2.0 X-0.0675 Y0.05776
G1 Y0.10901 Z0.08596
G1 X-0.00348 Y0.045 Z0.07
G1 F10.0 X0.10901 Y-0.0675
G1 X-0.0675
G1 Y0.10901
G1 X-0.00348 Y0.045
G2 X0.02434 Y0.01188 Z0.095 I-0.17678 J-0.17678
G0 Z0.4
G0 X-0.07722 Y0.17177
G0 Z0.1575
G1 F2.0 Z0.095
G1 X0.02303 Y0.07151 Z0.07
G1 F10.0 X0.17227 Y-0.07773
G3 X0.21747 Y-0.105 I0.07773 J0.07773
G1 X-0.105
G1 Y0.21747
G3 X-0.07773 Y0.17227 I0.105 J0.03253
G1 X0.02303 Y0.07151
G2 X0.05085 Y0.0384 Z0.095 I-0.17678 J-0.17678
G0 Z0.4
G0 X-0.1425 Y0.21329
G0 Z0.1575
G1 F2.0 Z0.095
G1 Y0.07151 Z0.07
G1 F10.0 Y-0.125
G3 X-0.125 Y-0.1425 I0.0175 J0.0
G1 X1.625
G3 X1.6425 Y-0.125 I0.0 J0.0175
G1 Y1.125
G3 X1.625 Y1.1425 I-0.0175 J0.0
G1 X-0.125
G3 X-0.1425 Y1.125 I0.0 J-0.0175
G1 Y0.07151
G2 X-0.14624 Y0.02843 Z0.095 I-0.25 J0.0
G0 Z0.4
G0 X-0.0725 Y0.30939
G0 Z0.1575
G1 F2.0 Z0.095
G1 Y0.25 Z0.08453
G3 X-0.05127 Y0.19874 Z0.07449 I0.0725 J0.0
G1 X-0.03327 Y0.18074 Z0.07
G1 F10.0 X0.19874 Y-0.05127
G3 X0.25 Y-0.0725 I0.05127 J0.05127
G1 X1.25
G3 X1.30126 Y-0.05127 I0.0 J0.0725
G3 X1.55127 Y0.19874 I-2545.83401 J2546.02926
G3 X1.5725 Y0.25001 I-0.05127 J0.05126
G1 Y1.0
G3 X1.5 Y1.0725 I-0.0725 J0.0
G1 X1.125
G3 X1.0525 Y1.0 I0.0 J-0.0725
G1 Y0.5725
G1 X0.4475
G1 Y1.0
G3 X0.375 Y1.0725 I-0.0725 J0.0
G1 X0.0
G3 X-0.0725 Y1.0 I0.0 J-0.0725
G1 Y0.25
G3 X-0.05127 Y0.19874 I0.0725 J0.0
G1 X-0.03327 Y0.18074
G2 X-0.00545 Y0.14763 Z0.095 I-0.17678 J-0.17678
G0 Z0.4
G0 X0.00683 Y-0.01836
G0 Z0.1325
G1 F2.0 Z0.07
G1 X0.01848 Y-0.03 Z0.0671
G1 X-0.03 Z0.05855
G1 Y0.01848 Z0.05
G1 F10.0 X0.01848 Y-0.03
G1 X-0.03
G1 Y0.01848
G1 F2.0 X-0.00348 Y0.045
G1 F10.0 X0.10901 Y-0.0675
G1 X-0.0675
G1 Y0.10901
G1 X-0.00348 Y0.045
G1 F2.0 X0.02303 Y0.07151
G1 F10.0 X0.17227 Y-0.07773
G3 X0.21747 Y-0.105 I0.07773 J0.07773
G1 X-0.105
G1 Y0.21747
G3 X-0.07773 Y0.17227 I0.105 J0.03253
G1 X0.02303 Y0.07151
G2 X0.04576 Y0.0454 Z0.07 I-0.17678 J-0.17678
G0 Z0.4
G0 X-0.03935 Y1.105
G0 Z0.1325
G1 F2.0 Z0.07
G1 X-0.03253 Z0.0688
G3 X-0.105 Y1.03253 Z0.05 I0.03253 J-0.105
G1 F10.0 Y1.105
G1 X-0.03253
G3 X-0.105 Y1.03253 I0.03253 J-0.105
G2 X-0.11751 Y1.00026 Z0.07 I-0.2388 J0.07399
G0 Z0.4
G0 X0.74165 Y0.86125
G0 Z0.1325
G1 F2.0 Z0.07
G1 X0.72868 Z0.06771
G1 Y0.85368 Z0.06638
G1 X0.77133 Z0.05886
G1 Y0.86125 Z0.05752
G1 X0.72868 Z0.05
G1 F10.0 Y0.85368
G1 X0.77133
G1 Y0.86125
G1 X0.72868
G2 X0.69414 Y0.86365 Z0.07 I0.0 J0.25
G0 Z0.4
G0 X0.78312 Y0.83493
G0 Z0.1325
G1 F2.0 Z0.07
G1 X0.79008 Z0.06877
G1 Y0.88 Z0.06083
G1 X0.72868 Z0.05
G1 F10.0 X0.70993
G1 Y0.83493
G1 X0.79008
G1 Y0.88
G1 X0.72868
G2 X0.69414 Y0.8824 Z0.07 I0.0 J0.25
G0 Z0.4
G0 X0.82758 Y0.90297
G0 Z0.1325
G1 F2.0 Z0.07
G1 Y0.9175 Z0.06744
G1 X0.72868 Z0.05
G1 F10.0 X0.67243
G1 Y0.79743
G1 X0.82758
G1 Y0.9175
G1 X0.72868
G2 X0.69414 Y0.9199 Z0.07 I0.0 J0.25
G0 Z0.4
G0 X0.8421 Y0.955
G0 Z0.1325
G1 F2.0 Z0.07
G1 X0.72868 Z0.05
G1 F10.0 X0.63493
G1 Y0.75993
G1 X0.86508
G1 Y0.955
G1 X0.72868
G2 X0.69414 Y0.9574 Z0.07 I0.0 J0.25
G0 Z0.4
G0 X0.8421 Y0.9925
G0 Z0.1325
G1 F2.0 Z0.07
G1 X0.72868 Z0.05
G1 F10.0 X0.59743
G1 Y0.72243
G1 X0.90258
G1 Y0.9925
G1 X0.72868
G2 X0.69414 Y0.9949 Z0.07 I0.0 J0.25
G0 Z0.4
G0 X0.61525 Y1.03
G0 Z0.1325
G1 F2.0 Z0.07
G1 X0.72868 Z0.05
G1 F10.0 X0.94252
G3 X0.94008 Y1.0 I0.18248 J-0.03
G1 Y0.68493
G1 X0.55993
G1 Y1.0
G3 X0.55748 Y1.03 I-0.18493 J0.0
G1 X0.72868
G2 X0.76321 Y1.0276 Z0.07 I0.0 J-0.25
G0 Z0.4
G0 X0.61525 Y1.0675
G0 Z0.1325
G1 F2.0 Z0.07
G1 X0.72868 Z0.05
G1 F10.0 X0.99394
G3 X0.97758 Y1.0 I0.13106 J-0.0675
G1 Y0.64743
G1 X0.52243
G1 Y1.0
G3 X0.50606 Y1.0675 I-0.14743 J0.0
G1 X0.72868
G2 X0.76321 Y1.0651 Z0.07 I0.0 J-0.25
G0 Z0.4
G0 X0.61525 Y1.105
G0 Z0.1325
G1 F2.0 Z0.07
G1 X0.72868 Z0.05
G1 F10.0 X1.09247
G3 X1.01508 Y1.0 I0.03253 J-0.105
G1 Y0.60993
G1 X0.48493
G1 Y1.0
G3 X0.40753 Y1.105 I-0.10993 J0.0
G1 X0.72868
G2 X0.76321 Y1.1026 Z0.07 I0.0 J-0.25
G0 Z0.4
G0 X1.605 Y1.03935
G0 Z0.1325
G1 F2.0 Z0.07
G1 Y1.03253 Z0.0688
G3 X1.53253 Y1.105 Z0.05 I-0.105 J-0.03253
G1 F10.0 X1.605
G1 Y1.03253
G3 X1.53253 Y1.105 I-0.105 J-0.03253
G2 X1.50026 Y1.11751 Z0.07 I0.07399 J0.2388
G0 Z0.4
G0 X1.49318 Y-0.01835
G0 Z0.1325
G1 F2.0 Z0.07
G1 X1.48153 Y-0.03 Z0.06709
G1 X1.53 Z0.05855
G1 Y0.01847 Z0.05
G1 F10.0 X1.48153 Y-0.03
G1 X1.53
G1 Y0.01847
G1 F2.0 X1.5675
G1 F10.0 Y0.10901
G2 X1.39099 Y-0.0675 I-2546.10024 J2545.86898
G1 X1.5675
G1 Y0.01847
G1 F2.0 X1.605
G1 F10.0 Y0.21747
G2 X1.57773 Y0.17228 I-0.105 J0.03253
G2 X1.32773 Y-0.07773 I-2546.11048 J2545.80571
G2 X1.28253 Y-0.105 I-0.07773 J0.07773
G1 X1.605
G1 Y0.01847
G2 X1.6074 Y0.053 Z0.07 I0.25 J0.0
G0 Z0.4
G0 X1.6425 Y-0.09495
G0 Z0.1325
G1 F2.0 Z0.07
G1 Y0.01847 Z0.05
G1 F10.0 Y1.125
G3 X1.625 Y1.1425 I-0.0175 J0.0
G1 X-0.125
G3 X-0.1425 Y1.125 I0.0 J-0.0175
G1 Y-0.125
G3 X-0.125 Y-0.1425 I0.0175 J0.0
G1 X1.625
G3 X1.6425 Y-0.125 I0.0 J0.0175
G1 Y0.01847
G2 X1.6449 Y0.053 Z0.07 I0.25 J0.0
G0 Z0.4
G0 X1.42654 Y0.07401
G0 Z0.1325
G1 F2.0 Z0.07
G3 X1.50675 Y0.15422 Z0.05 I-2545.95929 J2545.90398
G1 F10.0 X1.55127 Y0.19874
G3 X1.5725 Y0.25001 I-0.05127 J0.05126
G1 Y1.0
G3 X1.5 Y1.0725 I-0.0725 J0.0
G1 X1.125
G3 X1.0525 Y1.0 I0.0 J-0.0725
G1 Y0.5725
G1 X0.4475
G1 Y1.0
G3 X0.375 Y1.0725 I-0.0725 J0.0
G1 X0.0
G3 X-0.0725 Y1.0 I0.0 J-0.0725
G1 Y0.25
G3 X-0.05127 Y0.19874 I0.0725 J0.0
G1 X0.19874 Y-0.05127
G3 X0.25 Y-0.0725 I0.05127 J0.05127
G1 X1.25
G3 X1.30126 Y-0.05127 I0.0 J0.0725
G3 X1.50675 Y0.15422 I-2545.83401 J2546.02926
G2 X1.92501 Y0.04216 Z0.19262 I0.17678 J-0.17677
G2 X1.67404 Y-0.27237 Z0.32 I-0.24148 J-0.06471
G0 Z0.4
M5
M30
